gadestri/Universal-robots-Hand-tracking-to-move-the-robot/RTDE/2022_03_18_12_38_48.csv
actual_q_0 actual_q_1 actual_q_2 actual_q_3 actual_q_4 actual_q_5 actual_TCP_pose_0 actual_TCP_pose_1 actual_TCP_pose_2 actual_TCP_pose_3 actual_TCP_pose_4 actual_TCP_pose_5
4.919541835784912 -1.4691065114787598 -1.8571815490722656 2.3848911958881835 -1.596325699483053 3.3390018939971924 -0.05860359330102839 -0.7218889874880452 0.544497657520177 -0.018622948951288232 2.8449586194725027 -0.8971687912602567
4.919517993927002 -1.469048337345459 -1.8572052717208862 2.3849150377460937 -1.596365753804342 3.3390183448791504 -0.05861991346983175 -0.7218635339811997 0.5445232947485484 -0.018584953528732042 2.8448920657072363 -0.8972271917731095
4.919488430023193 -1.4690979284099122 -1.8571983575820923 2.3849403101154785 -1.596328083668844 3.338977813720703 -0.058637073320148225 -0.7218850825622716 0.5445011384691177 -0.01858259974304927 2.844951288944877 -0.8972379621176522
4.919485092163086 -1.4691551488688965 -1.857151985168457 2.384938879604004 -1.596365753804342 3.3389689922332764 -0.05862262837066417 -0.7219150774673327 0.5444955411085295 -0.018607409882183065 2.844931305613165 -0.8972036815318756
4.919492721557617 -1.4690817159465333 -1.8571770191192627 2.3849031168171386 -1.5963457266436976 3.3390018939971924 -0.058635819663916344 -0.7218794498256641 0.5445201379227746 -0.01856310681412166 2.8449295501216625 -0.8972232455434678
4.919467926025391 -1.469090299015381 -1.8571679592132568 2.384898825282715 -1.59633714357485 3.339047908782959 -0.0586637570972746 -0.7218834221958755 0.5445190537043791 -0.018458399834317518 2.8449341765980165 -0.8972184982767989
4.919480800628662 -1.4690655034831543 -1.8571770191192627 2.3848773676105957 -1.5963495413409632 3.338994264602661 -0.05864393049332971 -0.7218692901678513 0.5445264988797419 -0.018558981577204415 2.844937257709863 -0.8972121820214026
4.919459342956543 -1.4690936219743271 -1.857151985168457 2.3849150377460937 -1.596365753804342 3.339022636413574 -0.058657004283501804 -0.7218890688328665 0.5445320360132058 -0.018495708411623683 2.8449013920390582 -0.8972487061065438
4.919471740722656 -1.4690860149315377 -1.8571654558181763 2.384878321284912 -1.59629995027651 3.338965892791748 -0.05865394344090078 -0.7218799734239822 0.5445232394095828 -0.0185636093480475 2.844991863834652 -0.8972354266639591
4.919459342956543 -1.4690731105259438 -1.857184886932373 2.384866400355957 -1.5963881651507776 3.3390183448791504 -0.05865556116475647 -0.7218665982891794 0.5445114693194586 -0.018511441663515912 2.8449220335440315 -0.8971554126056652
4.919459342956543 -1.4690525618246575 -1.8571983575820923 2.3848373132893066 -1.59633714357485 3.338982105255127 -0.058662919246273176 -0.7218530487380777 0.5445121839427933 -0.018539653619415192 2.8449859496499164 -0.8971602678099834
4.919488430023193 -1.469109834437706 -1.8571770191192627 2.3849031168171386 -1.5963881651507776 3.3390390872955322 -0.05863457232864487 -0.7218884968797944 0.5444984798355369 -0.018522810549630377 2.8449046230149935 -0.8971562120669428
4.919459342956543 -1.469114140873291 -1.85715651512146 2.3848911958881835 -1.596370045338766 3.338982105255127 -0.05864735594102281 -0.7218914482814005 0.5445107910604168 -0.018554637271255843 2.8449381395567475 -0.8971886811487393
4.919443607330322 -1.4691065114787598 -1.8572187423706055 2.3848253923603515 -1.5963323752032679 3.3390018939971924 -0.058676608340621016 -0.7218651680496162 0.544456511633917 -0.018485098313480136 2.8450428391373994 -0.8970460980466094
4.919472694396973 -1.469142274265625 -1.857151985168457 2.3848578172871093 -1.596309010182516 3.339035749435425 -0.058660661970885916 -0.7219010858052044 0.5444880887393111 -0.01846848229379769 2.8450065784391554 -0.8971314404594103
4.919406414031982 -1.4690936219743271 -1.8571442365646362 2.3849150377460937 -1.5963099638568323 3.3390347957611084 -0.05870983750732543 -0.721889478153475 0.5445389097698055 -0.018377827826494178 2.8449528462186002 -0.8972970830741211
4.919471740722656 -1.4690817159465333 -1.8571654558181763 2.3848697382160644 -1.596374813710348 3.3390510082244873 -0.05865436056847646 -0.7218762598309532 0.5445202136075619 -0.018476709722198767 2.8449128692574033 -0.8971726698433528
4.919431686401367 -1.469102219944336 -1.857161045074463 2.3849150377460937 -1.596370045338766 3.338982105255127 -0.05866781913419945 -0.7218877327499131 0.544520296532803 -0.01851568234759966 2.8449260329427797 -0.8972362001662358
4.919431686401367 -1.4690936368754883 -1.8571442365646362 2.3848740297504882 -1.5963133017169397 3.3389899730682373 -0.05868305189069482 -0.7218847769678418 0.5445321272679151 -0.018478810254093793 2.8449798118936407 -0.897243924106855
4.919520854949951 -1.4690936592272301 -1.8571475744247437 2.384927197093628 -1.5963504950152796 3.3390390872955322 -0.058618754693551 -0.7218960082876658 0.5445376120996943 -0.018552879463982583 2.844883419917412 -0.8972636772729599
4.919471740722656 -1.469150924389698 -1.8571759462356567 2.38491074621167 -1.5963624159442347 3.3390390872955322 -0.05864913683247709 -0.7219041314555066 0.5444728798650115 -0.01848642300686434 2.844950160833839 -0.8971298266390204
4.919459342956543 -1.469114140873291 -1.8571771383285522 2.38493196546521 -1.596325699483053 3.3389854431152344 -0.05865804208873368 -0.7218932681860182 0.5445041385702636 -0.018529378383141445 2.8449610313102838 -0.8972389765170782
4.919422626495361 -1.4690979284099122 -1.857184886932373 2.3849407869526367 -1.5963342825519007 3.3389527797698975 -0.05867752790028556 -0.7218840608298874 0.5445120048887712 -0.018527915656226822 2.844960901001217 -0.8972713796125419
4.919480800628662 -1.469146506195404 -1.8571759462356567 2.384873791331909 -1.5963299910174769 3.3390390872955322 -0.05865122044594277 -0.7218989487675802 0.5444695293099937 -0.01848429679656889 2.844994270362636 -0.8971015719662612
4.919463634490967 -1.4691465508988877 -1.8571157455444336 2.3849033552357177 -1.59633714357485 3.338977813720703 -0.058646039894380296 -0.7219155243459172 0.5445224344628449 -0.018552072275234678 2.8449520768420262 -0.8972339048573068
4.9194135665893555 -1.469074086552002 -1.8571397066116333 2.3848811823078613 -1.5963323752032679 3.3389527797698975 -0.058685508275628066 -0.7218778589500101 0.5445511498119081 -0.018515381746355742 2.8449586740626303 -0.8972866509697246
4.919431686401367 -1.4691064965775986 -1.8571158647537231 2.384894533748291 -1.5963414351092737 3.3389732837677 -0.0586704511161706 -0.7218979981869622 0.5445484638706397 -0.018515971451097304 2.844938632393036 -0.8972806078897999
4.919443607330322 -1.4691174787333985 -1.8572142124176025 2.384923143977783 -1.5963323752032679 3.338994264602661 -0.05867151301769466 -0.7218833468628509 0.5444716295080714 -0.01849649695377218 2.844988232508556 -0.8971706037864551
4.91945219039917 -1.4690979284099122 -1.8571138381958008 2.384923143977783 -1.5963299910174769 3.3389732837677 -0.058658027475940774 -0.7219008333685369 0.5445618131601787 -0.018540312922878693 2.8449182587963953 -0.8973354372326312
4.919517993927002 -1.469130390589573 -1.8571655750274658 2.384890003795288 -1.5963390509234827 3.339003086090088 -0.05861545711139294 -0.7218994181134835 0.5444925651186704 -0.018593297368263404 2.8449593796397585 -0.8971538978664916
4.919492721557617 -1.469035768215992 -1.8571351766586304 2.384828968639038 -1.596325699483053 3.3389930725097656 -0.05864180997458256 -0.7218635193862877 0.5445699713487235 -0.018568050851313085 2.8449391364233314 -0.8972538069660583
4.919471740722656 -1.469090299015381 -1.8571680784225464 2.384927673930786 -1.5963414351092737 3.3390390872955322 -0.05865754655396546 -0.7218873146616811 0.5445247492858453 -0.018478546637273302 2.844914059633384 -0.897255880212417
4.919467926025391 -1.469158486729004 -1.8571274280548096 2.384866161937378 -1.5963085333453577 3.3389811515808105 -0.058650750484408626 -0.7219129782577325 0.5444986511184605 -0.0185395027082058 2.8450111454584275 -0.8971659025556923
4.919492721557617 -1.469109834437706 -1.8571442365646362 2.384870691890381 -1.5963414351092737 3.339059591293335 -0.05864525824762697 -0.721893731871085 0.5445174941868195 -0.018478863343319038 2.8449361320856412 -0.8971767047652824
4.919445991516113 -1.4690731328776856 -1.8571892976760864 2.384906454677246 -1.5963123480426233 3.339022636413574 -0.05868237938493616 -0.7218723052581787 0.5445176706869042 -0.018451824006544437 2.8449641362802165 -0.8972458102295556
4.919431686401367 -1.4690979433110734 -1.8571892976760864 2.384845419520996 -1.5963495413409632 3.3390345573425293 -0.05868638945342352 -0.721871140262823 0.54448726507431 -0.01843053981356837 2.844987955300122 -0.8971108293302661
4.91947603225708 -1.469114140873291 -1.857151985168457 2.3848365980335693 -1.596374813710348 3.3389732837677 -0.05863367517245345 -0.721885866624273 0.5445037012874736 -0.018592820387764393 2.8449629890136765 -0.8971171264801369
4.919480800628662 -1.4691065114787598 -1.85715651512146 2.384901924724243 -1.596320931111471 3.3390345573425293 -0.05865362187418355 -0.7218933993374359 0.5445178484202983 -0.018488195387938153 2.8449482923547516 -0.8972250441769233
4.919538497924805 -1.4691303011826058 -1.857193946838379 2.384869261378906 -1.5963628927813929 3.3389689922332764 -0.058590529083027774 -0.7218899004869742 0.5444675308674977 -0.018681084585324675 2.844973382063718 -0.8970778928661922
4.919450283050537 -1.4691226792386551 -1.8571770191192627 2.384927673930786 -1.5963042418109339 3.3390018939971924 -0.05867215562315192 -0.7218959965089389 0.5444975055569048 -0.018483025901577056 2.8449847541282898 -0.8972319166555075
4.919373512268066 -1.4690655034831543 -1.8572310209274292 2.384878082866333 -1.5963166395770472 3.339006185531616 -0.058733920170071396 -0.721851142251262 0.5444862434237212 -0.018373227556759648 2.8450224638081827 -0.8971771258596684
4.919455051422119 -1.4690893676928063 -1.8571655750274658 2.3849186140247802 -1.596295181904928 3.338982105255127 -0.05866898069445116 -0.721885952169169 0.5445283286115803 -0.018514823315648438 2.844973401265379 -0.8972876729074257
4.919427394866943 -1.4690655034831543 -1.857185959815979 2.384899063701294 -1.596353832875387 3.338994264602661 -0.058681405320808316 -0.7218668388999834 0.5445238655915852 -0.018485006506917163 2.8449399172779706 -0.8972376743585281
4.919480800628662 -1.469114140873291 -1.8571892976760864 2.384910984630249 -1.5963581244098108 3.3390464782714844 -0.058648438745386146 -0.7218885999056035 0.5444882567269703 -0.018487355171633787 2.8449347285987003 -0.8971606697633319
4.919471740722656 -1.4691055578044434 -1.8571182489395142 2.3849198061176757 -1.5963323752032679 3.3389689922332764 -0.058642272603332365 -0.7219030669231313 0.5445525942870669 -0.01857498689983081 2.844921810843013 -0.8973104660521105
4.919398307800293 -1.4691055578044434 -1.8571430444717407 2.384878082866333 -1.596353832875387 3.3389482498168945 -0.05868868733098809 -0.7218863071930932 0.5445257730736872 -0.018509137340384386 2.8449699371352626 -0.897228137779766
4.91948938369751 -1.469074086552002 -1.8571475744247437 2.384866161937378 -1.5963628927813929 3.338982105255127 -0.05863045891524843 -0.7218778971232227 0.5445406560355072 -0.018595022170898153 2.844921032053392 -0.8972186693307133
4.919440746307373 -1.4691055578044434 -1.85712730884552 2.384882612819336 -1.5963414351092737 3.3390016555786133 -0.05867047911501072 -0.7218941623946727 0.5445372979747207 -0.018488107073074855 2.8449432722081482 -0.8972430245170493
4.91946268081665 -1.4690443512848397 -1.8571182489395142 2.384948177928589 -1.5963323752032679 3.3389732837677 -0.05865347376222087 -0.7218846528146053 0.5446005091782155 -0.018557636939509434 2.844867432846967 -0.8974318467947576
4.919443607330322 -1.4690936219743271 -1.8571486473083496 2.3849033552357177 -1.5963833967791956 3.339006185531616 -0.058661256922490676 -0.7218866890624409 0.5445323306821735 -0.01850485367460631 2.844900321209963 -0.8972343850996983
4.919471740722656 -1.4690979284099122 -1.8571138381958008 2.38493196546521 -1.5963457266436976 3.3389570713043213 -0.058636923724006404 -0.7219025598188324 0.5445636254352328 -0.018598444840359746 2.844898825535542 -0.897338225271248
4.91946268081665 -1.4690572705915947 -1.8571351766586304 2.3849033552357177 -1.5963042418109339 3.339006185531616 -0.05866740597163732 -0.7218802487829721 0.5445697050109278 -0.01849688329759944 2.8449286442574944 -0.8973399428944697
4.919483661651611 -1.4690936368754883 -1.8571351766586304 2.3849143224903564 -1.5963414351092737 3.33901047706604 -0.058641705464944134 -0.721894956883929 0.5445455554425621 -0.018536834694594932 2.8449077294764877 -0.8972809199652374
4.919459342956543 -1.4690850910595437 -1.8572471141815186 2.384936495418213 -1.5963671843158167 3.3390302658081055 -0.05866313438889159 -0.721866133426063 0.5444699244388086 -0.018483595995754172 2.8449390944255053 -0.8971589996056651
4.919480800628662 -1.4691627782634278 -1.8572098016738892 2.384915276164673 -1.5963323752032679 3.338994264602661 -0.05864127516140075 -0.7219016391542026 0.5444419745650979 -0.018548329302113302 2.8450088334670847 -0.8970977028461895
4.91943883895874 -1.4690947619131585 -1.8571815490722656 2.384869261378906 -1.596325699483053 3.339006185531616 -0.05868023632466445 -0.7218758379766964 0.5445014081425997 -0.01847061798525024 2.8449908205616685 -0.8971745970082662
4.919529914855957 -1.469118432407715 -1.8571770191192627 2.384885712260864 -1.5963166395770472 3.339019298553467 -0.058616709431764835 -0.7218933267192973 0.5444914476030106 -0.018576866820108295 2.8449728730426003 -0.8971552434714208
4.9194254875183105 -1.4690612119487305 -1.8571815490722656 2.384873791331909 -1.5963323752032679 3.339006185531616 -0.05869074021313434 -0.7218635490567268 0.5445254248218032 -0.018455523498327887 2.8449651772310562 -0.897224841691792
4.919538497924805 -1.4691260618022461 -1.8571815490722656 2.384869261378906 -1.5963299910174769 3.3389732837677 -0.058598498990841213 -0.7218923143050017 0.5444805344445123 -0.01866030512123888 2.8449887274261103 -0.8971170185284236
4.919450283050537 -1.4690936368754883 -1.85715651512146 2.38493458806958 -1.5963414351092737 3.3389856815338135 -0.05866147021747248 -0.7218903293793587 0.5445340970398719 -0.018524358263850415 2.8449232869563112 -0.8972910767726121
4.919497013092041 -1.4690893453410645 -1.8571983575820923 2.384890003795288 -1.5963342825519007 3.339022636413574 -0.05864027301546279 -0.7218760624876351 0.5444958095390475 -0.01853364993892385 2.8449588554427 -0.8971678430910902
4.919497013092041 -1.469158486729004 -1.8571654558181763 2.3848976331898193 -1.5963581244098108 3.3390345573425293 -0.058630210295588306 -0.7219091076901196 0.544473242819917 -0.01852679615023444 2.8449544164076084 -0.8971142881312872
4.919485092163086 -1.469074086552002 -1.8571635484695435 2.384901924724243 -1.596353832875387 3.339031457901001 -0.05864524026527465 -0.7218794936079166 0.5445343266905514 -0.018514365645900806 2.844905337476653 -0.8972412946800468
4.919467926025391 -1.4691508573344727 -1.857161045074463 2.384885712260864 -1.5963705221759241 3.33904767036438 -0.05865164485792693 -0.721903947949983 0.5444788610189176 -0.018472669507682192 2.8449486317573323 -0.897110933173385
4.919471740722656 -1.4691055727056046 -1.857161045074463 2.3849186140247802 -1.5963457266436976 3.3390018939971924 -0.058647970866592056 -0.7218926537608297 0.5445186820947395 -0.01853322310289951 2.844930369954657 -0.8972376797473197
4.919389247894287 -1.4690484267524262 -1.857161045074463 2.384901924724243 -1.5963085333453577 3.339038848876953 -0.05872791341028684 -0.7218666505542717 0.5445549325696663 -0.018347582172086405 2.8449479457363225 -0.8973209296174288
4.919384956359863 -1.469171055858471 -1.8571654558181763 2.384923143977783 -1.5963457266436976 3.3390140533447266 -0.058708263010609774 -0.7219105638336853 0.544470400984427 -0.018390988864227027 2.8449909129331563 -0.8971646661336106
4.9194746017456055 -1.4691022124937554 -1.8571395874023438 2.384927435512207 -1.59633714357485 3.3389732837677 -0.05864111892786559 -0.7218978739204016 0.5445400209881971 -0.018574750623648266 2.844922637411569 -0.8972925988399452
4.919467449188232 -1.4690936294249077 -1.8571351766586304 2.384894533748291 -1.5963323752032679 3.339006185531616 -0.058655126060629975 -0.7218915103522519 0.5445420454745414 -0.018515625174315185 2.844932633529871 -0.897263198874341
4.919459342956543 -1.4690774244121094 -1.857161045074463 2.38493196546521 -1.5963342825519007 3.3389899730682373 -0.05865890072537309 -0.7218838902409987 0.5445414652561474 -0.018528099259028524 2.8449200263432313 -0.8973044268372092
4.919466972351074 -1.4690936592272301 -1.8571635484695435 2.384906454677246 -1.5963910261737269 3.338994264602661 -0.05864098968310208 -0.7218845645759444 0.54452179999806 -0.0185581881322897 2.8448982921106754 -0.897212136981144
4.919450283050537 -1.4691152659109612 -1.857193946838379 2.384869261378906 -1.596353832875387 3.3389856815338135 -0.05866067293696142 -0.7218798218142027 0.5444777034541792 -0.0185281833931248 2.844990441116713 -0.8971171193985358
4.919472694396973 -1.4691098493388672 -1.8572007417678833 2.3849186140247802 -1.5963414351092737 3.3389899730682373 -0.05864761377716449 -0.7218846650243281 0.5444861370723122 -0.018548550612019942 2.844963932839583 -0.8971830820791167
4.919517993927002 -1.469086007480957 -1.8571486473083496 2.384901924724243 -1.5963504950152796 3.3390345573425293 -0.05862120666983091 -0.7218893736572091 0.5445373127890722 -0.018555243169079163 2.844896810854804 -0.8972399484099907
4.91941499710083 -1.4690850165537377 -1.8571351766586304 2.384915276164673 -1.596374813710348 3.339055299758911 -0.05869319103899172 -0.721887617474595 0.5445495925006296 -0.01839093695234732 2.8448816950173694 -0.8972806284298289
4.919525146484375 -1.4690850314548989 -1.8571306467056274 2.384915276164673 -1.59633714357485 3.339043378829956 -0.05861960903829944 -0.7218960505301193 0.5445542834446869 -0.018547271937641184 2.844883550682794 -0.8972874055442278
4.919492721557617 -1.469102219944336 -1.8572176694869995 2.384894533748291 -1.5963581244098108 3.339006185531616 -0.05863464332243866 -0.7218755251198095 0.5444730427812755 -0.01856116758514817 2.8449618579431752 -0.8971220423973993
4.91947603225708 -1.469048337345459 -1.857190489768982 2.384894533748291 -1.5963581244098108 3.3390183448791504 -0.05865170607574373 -0.7218620480297508 0.5445306615932886 -0.018522047655919104 2.8449127399835725 -0.8972318407203914
4.919471740722656 -1.4691184026053925 -1.8571815490722656 2.3849186140247802 -1.5963791052447718 3.339022636413574 -0.058644612878752035 -0.7218916336272787 0.5444928340218504 -0.018518178326418 2.844918950000432 -0.8971709074260578
4.919459342956543 -1.4690817159465333 -1.857161045074463 2.384890003795288 -1.596325699483053 3.3390140533447266 -0.0586663694379565 -0.7218802364817709 0.5445297967554232 -0.018489482508638855 2.8449497795350958 -0.8972419789559982
4.91951322555542 -1.4691466030529519 -1.8571351766586304 2.3849033552357177 -1.5963009039508265 3.338994264602661 -0.058622676567308546 -0.7219149562671945 0.5445081047863537 -0.018582053023085292 2.844976694746547 -0.8972140606882407
4.919471740722656 -1.4691022348454972 -1.8572427034378052 2.384885712260864 -1.5963414351092737 3.3390183448791504 -0.05865747555138001 -0.7218676794678547 0.5444524249971444 -0.018505746120045956 2.8449990463877253 -0.8970872029156993
4.919485092163086 -1.4690979358604928 -1.857161045074463 2.384923143977783 -1.5963791052447718 3.3390018939971924 -0.058631232307651854 -0.7218904304652839 0.5445240507579039 -0.018567685892472353 2.844892158348159 -0.8972335116003496
4.919422626495361 -1.4690936219743271 -1.8571770191192627 2.384878082866333 -1.5963085333453577 3.3390183448791504 -0.05869784744977039 -0.7218773760291497 0.5445074130513134 -0.01842260221674303 2.8449970766640105 -0.8972040927285052
4.919497013092041 -1.4690731328776856 -1.8572275638580322 2.384927435512207 -1.596374813710348 3.339050769805908 -0.05863838821187356 -0.7218675928477474 0.5444904595575831 -0.01851209201410188 2.8449039829954836 -0.8971735090275589
4.919435977935791 -1.4690655034831543 -1.8571680784225464 2.384927435512207 -1.5963342825519007 3.3389976024627686 -0.058678638105722214 -0.7218760615426234 0.5445433137190077 -0.01848411858313949 2.8449240509541585 -0.897308012828244
4.919483661651611 -1.4691346448710938 -1.8571486473083496 2.3848931032368164 -1.596325699483053 3.339022636413574 -0.058645858678722435 -0.7219040020274452 0.544502775474178 -0.018510884620647976 2.84496465533625 -0.8971851773409674
4.919463634490967 -1.4690979284099122 -1.8571475744247437 2.384870691890381 -1.5963705221759241 3.3389735221862793 -0.05864373567731311 -0.7218851795862551 0.5445250498991341 -0.018573625255212087 2.8449357240263624 -0.8971954553786898
4.919422626495361 -1.4690979284099122 -1.85715651512146 2.384857340449951 -1.5963457266436976 3.3390345573425293 -0.05869180538774266 -0.7218802053447764 0.5445144960457375 -0.01841678119184496 2.8449656071949083 -0.8971747794246696
4.9194183349609375 -1.4690730956247826 -1.8571983575820923 2.384901924724243 -1.596320931111471 3.3389930725097656 -0.05869514835953855 -0.7218672940086208 0.5445106155173352 -0.01845831573276915 2.844980035989872 -0.8972343300248741
4.919455051422119 -1.4691217702678223 -1.8571770191192627 2.384890003795288 -1.5963457266436976 3.33904767036438 -0.05866941629598753 -0.7218902559370041 0.5444884209424738 -0.018443360612927444 2.8449613503908977 -0.8971501678927706
4.919443607330322 -1.4691022348454972 -1.8571815490722656 2.384906454677246 -1.596320931111471 3.3389856815338135 -0.058672301218180886 -0.7218837149769277 0.5445041988662931 -0.018504494949325448 2.8449800901976796 -0.8972203175568346
4.919431686401367 -1.4691098418882866 -1.8571395874023438 2.384894533748291 -1.5963791052447718 3.339022636413574 -0.058672641812231335 -0.7218930527417564 0.544525821557461 -0.01846229502314895 2.8449128465389864 -0.8972142856920833
4.919450283050537 -1.4690730956247826 -1.85712730884552 2.38493196546521 -1.5963099638568323 3.339022636413574 -0.0586759870917687 -0.7218909698708225 0.5445696310044827 -0.01845847506340496 2.844910485887789 -0.8973639101668133
4.919463634490967 -1.469074086552002 -1.857131838798523 2.384901924724243 -1.5963175932513636 3.339006185531616 -0.05866231348251462 -0.7218865366971139 0.5445599465832177 -0.018504026197635717 2.844926820476054 -0.8973125663851993
4.919467926025391 -1.4691260767034073 -1.85715651512146 2.384873791331909 -1.5963342825519007 3.3389692306518555 -0.05864627220479083 -0.7218946509878472 0.5445003601378097 -0.018568393403981618 2.8449863217795333 -0.8971692152820798
4.919463634490967 -1.4690936368754883 -1.8571317195892334 2.384890003795288 -1.5963266531573694 3.339050769805908 -0.05866791888184046 -0.7218921875935039 0.5445426027320937 -0.01844414239286038 2.8449280769678253 -0.8972567181621183
4.919471740722656 -1.4690741014531632 -1.857161045074463 2.384951277370117 -1.5963166395770472 3.3389856815338135 -0.058652839321819014 -0.7218864838700276 0.54454810182314 -0.01854396015114963 2.8449181506885823 -0.8973427430890722
4.919455051422119 -1.4690979433110734 -1.8571202754974365 2.384915276164673 -1.596320931111471 3.3389899730682373 -0.05866184018759285 -0.7218988340160659 0.5445551291427249 -0.018516254701134365 2.8449297035187424 -0.8973171538282849
4.919471740722656 -1.4691098493388672 -1.8571815490722656 2.384927435512207 -1.5963957945453089 3.338972568511963 -0.05863135693823293 -0.7218887426173246 0.5445015563882124 -0.018597383810603493 2.8449067815974396 -0.8971952606443184
4.91951322555542 -1.469073088174202 -1.857131838798523 2.384899063701294 -1.5963133017169397 3.33901047706604 -0.05862848116314102 -0.7218888680975216 0.5445600605954228 -0.018566412754515826 2.844917412977533 -0.8973016753298138
4.919455051422119 -1.469097950761654 -1.8571351766586304 2.384910984630249 -1.596325699483053 3.338977098464966 -0.05865909292775545 -0.7218943913472873 0.5445432740818857 -0.01853639041382214 2.8449409138771435 -0.8972913448175234
4.919483661651611 -1.4691098493388672 -1.8571442365646362 2.384930296535156 -1.5963719526873987 3.339050769805908 -0.05864160238120516 -0.7219003704228593 0.5445286304965475 -0.01849294343945894 2.844878963399345 -0.8972441442436989
4.919422626495361 -1.4691184547594567 -1.8571770191192627 2.38487355291333 -1.5963705221759241 3.338998556137085 -0.05867818974196563 -0.7218836868192757 0.5444883453327819 -0.01847854876306099 2.844969756441139 -0.8971353429756516
4.919459342956543 -1.4691012439182778 -1.8571486473083496 2.384899063701294 -1.5963504950152796 3.3390018939971924 -0.058656037454661025 -0.7218905815294052 0.5445271332165675 -0.018518049538835964 2.844931408962755 -0.8972337239366869
4.919508934020996 -1.4691141557744523 -1.8571157455444336 2.384910984630249 -1.59633714357485 3.3390183448791504 -0.05862355191746113 -0.7219081673830445 0.5445452296773928 -0.018559527047953498 2.844905416105349 -0.8972706908815823
4.919447898864746 -1.4691098493388672 -1.857153058052063 2.384934826488159 -1.5963504950152796 3.339043140411377 -0.058671100507003644 -0.7218972580812055 0.5445235918346758 -0.01844299444897241 2.844910345926277 -0.8972584916188278
4.919488430023193 -1.4690774020603676 -1.8571395874023438 2.384849949473999 -1.596325699483053 3.339014768600464 -0.058645776893690285 -0.7218801327761404 0.5445411844633063 -0.01853012075770277 2.8449506950302412 -0.8972167527800504
4.919497013092041 -1.46914345890794 -1.8571351766586304 2.384915514583252 -1.5963414351092737 3.3389813899993896 -0.058622587568266674 -0.7219132884307509 0.5445120454604044 -0.018596066918775703 2.8449416307236515 -0.8972187092887371
4.91947603225708 -1.4690817308476944 -1.8571431636810303 2.384939118022583 -1.5963133017169397 3.338986396789551 -0.05864947100714922 -0.7218921957549544 0.5445540186016913 -0.018547669671818045 2.8449206947110355 -0.8973409344534021
4.919458389282227 -1.4691012439182778 -1.8571699857711792 2.384887142772339 -1.5963581244098108 3.3389976024627686 -0.05865555507165583 -0.7218835206346141 0.5445086021401058 -0.018525710518403207 2.8449471799985773 -0.8971859586825106
4.919455051422119 -1.4690850612572213 -1.8571724891662598 2.38493458806958 -1.5963504950152796 3.3389649391174316 -0.05865333773218637 -0.7218832269272674 0.5445283539839079 -0.01856464422804462 2.8449243367766814 -0.8972794524579337
4.919516563415527 -1.469074086552002 -1.8571442365646362 2.384939118022583 -1.5963457266436976 3.338994264602661 -0.0586150544780166 -0.7218908091543443 0.5445574887127337 -0.01860905208805712 2.8448776832050733 -0.8973227984348188
4.919434547424316 -1.4690947768143197 -1.8572176694869995 2.3849844175526123 -1.5963504950152796 3.338977813720703 -0.05867097720271958 -0.7218815422406124 0.5444967787695151 -0.01851622823226363 2.8449299726229316 -0.8972743250700018
4.919434547424316 -1.4691303607872506 -1.8571395874023438 2.384894533748291 -1.5963457266436976 3.339059591293335 -0.05868389940552313 -0.7219018635871959 0.5445113070222822 -0.018397967521161736 2.8449430302712426 -0.8971967097559608
4.919485092163086 -1.4691551861217995 -1.8571724891662598 2.384878082866333 -1.5963042418109339 3.33901047706604 -0.05864736301966249 -0.7219040612258095 0.5444684266597244 -0.018519260250350687 2.8450216577025516 -0.8971189466993797
4.919471740722656 -1.4691184696606179 -1.8571351766586304 2.384903593654297 -1.5963671843158167 3.338982105255127 -0.05863731652482121 -0.721900605715662 0.544526418370856 -0.018571432704164642 2.844918938671603 -0.8972273007506176
4.919434547424316 -1.4691065040281792 -1.857151985168457 2.38487355291333 -1.5963133017169397 3.3390140533447266 -0.05868519456283264 -0.7218878822127416 0.5445165307551716 -0.018448093236390094 2.8449863414276826 -0.8972102475243915
4.919443607330322 -1.469081738298275 -1.8571680784225464 2.384878082866333 -1.5963628927813929 3.338986396789551 -0.05866452221448165 -0.7218746778559894 0.5445220326902112 -0.018523289121270405 2.844942165012518 -0.8972051214660297
4.919480800628662 -1.4690569651177903 -1.8571654558181763 2.384906454677246 -1.596365753804342 3.3390345573425293 -0.05864750664109161 -0.7218730191255851 0.5445452733805021 -0.018509701243084816 2.8448837261478666 -0.8972616841769726
4.91943883895874 -1.4690816861442109 -1.857161045074463 2.384894533748291 -1.5963628927813929 3.3390140533447266 -0.058672642120732074 -0.7218786317178433 0.5445297893736103 -0.018477411314769314 2.8449220809425344 -0.8972322573819391
4.919492721557617 -1.4691022348454972 -1.8571724891662598 2.384948177928589 -1.5963085333453577 3.3390586376190186 -0.05865250919568034 -0.7218956394164721 0.5445173608786409 -0.018465209010007137 2.84492806020718 -0.897271126658791
4.91943883895874 -1.4690979433110734 -1.8571157455444336 2.384833498592041 -1.596353832875387 3.3390302658081055 -0.058675952452069836 -0.7218874522515744 0.5445406006689294 -0.018450437562016968 2.844945149775501 -0.8971907130837793
4.919497013092041 -1.4691022348454972 -1.857161045074463 2.384927673930786 -1.5963628927813929 3.338977098464966 -0.058620959954932446 -0.7218934194609476 0.5445230755491608 -0.01861244275172815 2.8449081359160546 -0.897245073707625
4.919450283050537 -1.4691110041788598 -1.8571654558181763 2.3848811823078613 -1.5963457266436976 3.33901047706604 -0.05866595120041895 -0.721887285871116 0.5445040141940074 -0.01849001823662713 2.8449631987920654 -0.8971766007417579
4.919466972351074 -1.4690774765661736 -1.8571442365646362 2.384923143977783 -1.5963547865497034 3.3389813899993896 -0.058646425164208385 -0.7218865410469435 0.5445521717594599 -0.01856088521393524 2.84489844948172 -0.897304260218793
4.919487953186035 -1.4691022422960778 -1.857184886932373 2.3848914343067626 -1.596325699483053 3.3389813899993896 -0.05863892347751816 -0.7218832965790338 0.5444987452513139 -0.018575614280468982 2.844977011805457 -0.8971851046217829
4.919466972351074 -1.4690979284099122 -1.857193946838379 2.384899063701294 -1.5963714758502405 3.339005470275879 -0.05864905611893299 -0.7218784357284828 0.5444945466110104 -0.01853240735669292 2.844937652543932 -0.8971638669846739
4.919459342956543 -1.4691227611950417 -1.8571654558181763 2.384903593654297 -1.5963838736163538 3.3390018939971924 -0.05864763045223202 -0.7218939110766227 0.5444995417359928 -0.01853245917432971 2.844925348585945 -0.897170455798146
4.919434547424316 -1.4690936219743271 -1.8571486473083496 2.384854241008423 -1.5962875525103968 3.3390183448791504 -0.058693155271479294 -0.7218822242240224 0.5445247368097785 -0.018430438812777394 2.845008077724374 -0.8972189752217641
4.919471740722656 -1.4690893229893227 -1.8571486473083496 2.384869261378906 -1.5963323752032679 3.339026927947998 -0.0586577911559902 -0.7218838054566645 0.5445293023476186 -0.018491788877197844 2.844947808304708 -0.8972118950145304
4.919431686401367 -1.4690774244121094 -1.8571815490722656 2.384845419520996 -1.5963705221759241 3.338977098464966 -0.058671425002335034 -0.721864452653784 0.5445085467612958 -0.018522639580169434 2.8449672678355125 -0.8971489523291454
4.919497013092041 -1.4690740343979378 -1.8571699857711792 2.384861631984375 -1.5963447729693812 3.3390183448791504 -0.05863747589245007 -0.7218732446715539 0.5445222340898986 -0.018545396524810274 2.8449416883057794 -0.8971835475754807
4.91943883895874 -1.4691466626575966 -1.857131838798523 2.3849198061176757 -1.5962994734393519 3.3389899730682373 -0.0586752503146711 -0.7219136391488492 0.5445139611729105 -0.018482010046313325 2.8449861803204 -0.8972569748866964
4.919487953186035 -1.4691466030529519 -1.8571654558181763 2.384906454677246 -1.5963133017169397 3.3390259742736816 -0.058645848705635197 -0.7219066573565489 0.544484568863888 -0.01850596790990543 2.84498247467825 -0.89716964299091
4.919471740722656 -1.4690935996225853 -1.8571486473083496 2.3848766523548584 -1.5963504950152796 3.339026927947998 -0.05865318231143041 -0.7218858409286188 0.5445273310503695 -0.018500036042725675 2.8449311629105214 -0.8972063950397733
4.919427394866943 -1.4691346895745774 -1.8572052717208862 2.384899063701294 -1.5963581244098108 3.338994264602661 -0.058676281202247126 -0.7218867018166263 0.5444611094839483 -0.018484888167886574 2.8449915868568247 -0.8971164807371466
4.919463634490967 -1.4690893229893227 -1.8571699857711792 2.384870691890381 -1.5963414351092737 3.339050769805908 -0.05866735711859065 -0.7218784327993706 0.5445125167185328 -0.018449970584142657 2.84494917628497 -0.8971771855315057
4.919491291046143 -1.4691218075207253 -1.8571486473083496 2.384894533748291 -1.5963085333453577 3.3389649391174316 -0.05863375716197562 -0.721899856176148 0.5445140836306178 -0.018596345716329437 2.844981785858112 -0.8972234683952462
4.919520854949951 -1.4691098493388672 -1.8571442365646362 2.38487355291333 -1.5963342825519007 3.3389976024627686 -0.05861424984901804 -0.7218952343244838 0.5445200377430984 -0.0186038605037397 2.844947913712745 -0.8971910789705718
4.919495582580566 -1.4690611746958275 -1.8571654558181763 2.384936495418213 -1.5963085333453577 3.3389692306518555 -0.05863578449208966 -0.7218802383111447 0.5445515368367261 -0.018597647159677187 2.8449263403757947 -0.897337156881843
4.919471740722656 -1.4691022348454972 -1.8571654558181763 2.38493196546521 -1.5963628927813929 3.339076042175293 -0.05865885733479972 -0.7218926325844318 0.5445176713398775 -0.018435555967046033 2.8448907526690683 -0.8972303261313956
4.919483661651611 -1.469146543448307 -1.8571351766586304 2.384927673930786 -1.5963504950152796 3.33901047706604 -0.058635375372133994 -0.7219153542409887 0.5445112012312744 -0.018539833936954853 2.8449250758507016 -0.8972229675709739
4.919443607330322 -1.4691141334227105 -1.8571665287017822 2.384901924724243 -1.596386734639303 3.339050769805908 -0.05866873423126935 -0.7218899345276647 0.5445028899371728 -0.01844197318700625 2.8449115636979787 -0.8971702574932251
4.919459342956543 -1.4691022422960778 -1.8571770191192627 2.384903593654297 -1.5962875525103968 3.3389649391174316 -0.05866423782489195 -0.7218859985913373 0.5445084897077519 -0.018541198390414855 2.8450071181447165 -0.8972414129029564
4.91951322555542 -1.4690486055663605 -1.8571804761886597 2.384899063701294 -1.5963628927813929 3.3390464782714844 -0.05862868418421463 -0.721867550518535 0.5445379920470278 -0.01853727298309887 2.8448833790085746 -0.8972355286488575
4.9194183349609375 -1.469118432407715 -1.857122778892517 2.38487355291333 -1.5963457266436976 3.339014768600464 -0.058687323209948156 -0.7218973268641184 0.544529525836682 -0.018439296031404463 2.8449532659963324 -0.8972191554649638
4.919517517089844 -1.4690860149315377 -1.857193946838379 2.384903593654297 -1.5963175932513636 3.339038848876953 -0.058632116680274224 -0.7218796292852735 0.5445040454589407 -0.01853233080033241 2.8449498713713375 -0.8971982086116632
4.919471740722656 -1.469118447308876 -1.8571407794952393 2.384927435512207 -1.5963042418109339 3.339006185531616 -0.05865597812834334 -0.7219044779290726 0.544527687105168 -0.018508356379373595 2.8449529956303783 -0.8972808596140459
4.919431686401367 -1.469105528002121 -1.8571442365646362 2.384887142772339 -1.5963581244098108 3.3389933109283447 -0.05867234734425272 -0.7218896167306318 0.5445252326850846 -0.018494391023313964 2.8449418391656764 -0.8972209344180667
4.919447898864746 -1.4691098493388672 -1.857097864151001 2.3848914343067626 -1.5963166395770472 3.3390097618103027 -0.058670469689269686 -0.7219051504355269 0.5445586858132573 -0.018476030028764717 2.8449384456799613 -0.8972989511562778
4.919504642486572 -1.4690979284099122 -1.8571745157241821 2.384861631984375 -1.5963671843158167 3.3389899730682373 -0.0586197515577567 -0.7218801635681118 0.5445024989475297 -0.018606232979885947 2.8449460864032945 -0.8971374653761814
4.91947603225708 -1.4690774244121094 -1.857229232788086 2.3848914343067626 -1.5963414351092737 3.3390018939971924 -0.05865213452036505 -0.72186292328793 0.544481442800156 -0.018536213362392737 2.8449745266604807 -0.8971487465685386
4.919459342956543 -1.4691141706756135 -1.8571094274520874 2.384915514583252 -1.5963085333453577 3.339038848876953 -0.058669430521006774 -0.7219084149533624 0.5445509835459243 -0.018446948454080077 2.8449299560792563 -0.8973063511226143
4.91943883895874 -1.4691303756884118 -1.8571983575820923 2.38487355291333 -1.5963323752032679 3.3389484882354736 -0.058665434263892466 -0.7218841900187807 0.5444663304719504 -0.018554640165589498 2.8450294655126145 -0.897117804129954
4.919463634490967 -1.4690612119487305 -1.857131838798523 2.384899063701294 -1.5963791052447718 3.33901047706604 -0.0586502784802646 -0.7218799518504724 0.5445666930377469 -0.018526361856029416 2.8448694900596254 -0.897292204875768
4.919487953186035 -1.4690645572594185 -1.857131838798523 2.384887142772339 -1.5963266531573694 3.3389899730682373 -0.05864060007539994 -0.7218821265786544 0.5445639312537658 -0.018565935580209577 2.8449202329286907 -0.8972990022056333
4.919427394866943 -1.469090299015381 -1.8572072982788086 2.384894533748291 -1.5963457266436976 3.339022636413574 -0.0586882090127481 -0.7218704742535582 0.5444889872875305 -0.01843977059109081 2.8449711602305556 -0.8971683169570458
4.91943883895874 -1.469114140873291 -1.857161045074463 2.3848752218433837 -1.596374813710348 3.339022636413574 -0.058669730207604805 -0.7218873382185051 0.5445029386838812 -0.018469747222424882 2.844942469721224 -0.897154560720764
4.91945219039917 -1.4691346299699326 -1.8571679592132568 2.384861631984375 -1.5963457266436976 3.339038848876953 -0.058669057517141694 -0.7218928841168362 0.544481065348601 -0.01845157187180489 2.8449841683991477 -0.8971091683006259
4.919406414031982 -1.4690731328776856 -1.8571724891662598 2.384878082866333 -1.5963705221759241 3.339050769805908 -0.05870322290893862 -0.7218689280958412 0.5445225940763292 -0.018382360670071807 2.8449274109208664 -0.8972012841945284
4.919483661651611 -1.4691303980401536 -1.857130765914917 2.384894533748291 -1.5963628927813929 3.3390355110168457 -0.05863935087385695 -0.7219061286386999 0.5445182405002552 -0.018510110528758297 2.844916585362275 -0.8971943514446521
4.91947603225708 -1.4690936145237465 -1.8571442365646362 2.384910984630249 -1.5963175932513636 3.339047431945801 -0.05866045623576521 -0.7218929537719994 0.5445375654482822 -0.01846221365437944 2.8449278187939244 -0.8972712467003511
4.9194183349609375 -1.469097913508751 -1.8571183681488037 2.384861631984375 -1.596353832875387 3.3390018939971924 -0.058684556334799395 -0.7218890932566279 0.5445449626896602 -0.01846184545706617 2.844941646237761 -0.8972348027811873
4.919467449188232 -1.4691184994629403 -1.8571635484695435 2.384878082866333 -1.5963705221759241 3.339055061340332 -0.058656180561133586 -0.7218908545921804 0.5444977299971321 -0.01846211432576031 2.8449330706012668 -0.8971393981272802
4.919435977935791 -1.4690730807236214 -1.8571397066116333 2.384903593654297 -1.5963085333453577 3.339026927947998 -0.05868885802942943 -0.7218833825577324 0.5445546321312094 -0.0184308923642043 2.8449396313818274 -0.897311820475994
4.919434547424316 -1.4691141557744523 -1.8571724891662598 2.3848587709614257 -1.596320931111471 3.339038848876953 -0.05868923067782435 -0.7218837562315603 0.5444919054936285 -0.01841550580365782 2.8450007943346067 -0.897143516789254
4.919495582580566 -1.4691551265171547 -1.857151985168457 2.384849949473999 -1.596328083668844 3.3390183448791504 -0.05863563661188569 -0.7219052107215627 0.5444776710053154 -0.018534164769428145 2.845002183061022 -0.8970922730371457
4.919447898864746 -1.4690979209593316 -1.8571635484695435 2.384910984630249 -1.5963299910174769 3.3389692306518555 -0.05866318648623202 -0.7218869331748095 0.5445219568661832 -0.018538727233952675 2.8449588880469117 -0.8972539503479272
4.9194746017456055 -1.4691022646478196 -1.8571635484695435 2.384890003795288 -1.5963133017169397 3.3390629291534424 -0.058666411244996816 -0.7218887571518439 0.5445125037040834 -0.018435339936588697 2.844958324977764 -0.8972049420381981
4.919466972351074 -1.4691260618022461 -1.857184886932373 2.384894533748291 -1.5963056723224085 3.339067220687866 -0.05867369793046127 -0.7218925215728049 0.544480782478436 -0.01841386320999746 2.8449908196720632 -0.8971551564025159
4.919497013092041 -1.4691065561822434 -1.8571317195892334 2.384923143977783 -1.5963175932513636 3.3390183448791504 -0.05863764684702991 -0.7219031052421497 0.5445412758577326 -0.018533523881143373 2.8449221428498555 -0.897288654589812
4.919455051422119 -1.4691347268274804 -1.8571475744247437 2.384923143977783 -1.5963504950152796 3.3390018939971924 -0.05865596546810424 -0.7219057742847552 0.5445093954839946 -0.018511359603493593 2.8449378347221406 -0.8972234599407722
4.919455051422119 -1.4691131871989747 -1.8571395874023438 2.384882612819336 -1.5963175932513636 3.3389692306518555 -0.058659203543722754 -0.7218950270963438 0.5445242479449859 -0.018543224259519597 2.8449792253763606 -0.8972326434152771
4.919471740722656 -1.4691055578044434 -1.8571983575820923 2.384890003795288 -1.5963414351092737 3.3389573097229004 -0.058642792745945936 -0.7218793821330004 0.5444862940405841 -0.01859367005102541 2.8449856783352505 -0.8971601826910482
4.919467926025391 -1.4690817159465333 -1.8572008609771729 2.384887142772339 -1.5963166395770472 3.338977813720703 -0.05865717925840412 -0.7218705977306268 0.5445004033453505 -0.018548178282088934 2.8449903245591055 -0.8971949748981566
4.919497013092041 -1.4690817233971138 -1.8571770191192627 2.3849081236072998 -1.5963414351092737 3.3390140533447266 -0.05863596289539161 -0.7218806443600828 0.5445208585283066 -0.018549958027650935 2.8449258605847754 -0.8972290168121094
4.919471740722656 -1.4690731552294274 -1.8571654558181763 2.3848811823078613 -1.5963133017169397 3.3389813899993896 -0.05865486541035209 -0.7218756074991455 0.5445319450820166 -0.018547973185353155 2.8449674436418526 -0.8972463333224187
4.919529914855957 -1.4690937113812943 -1.85715651512146 2.384894533748291 -1.5963085333453577 3.339014768600464 -0.05861820718449624 -0.7218908211158568 0.5445261788700955 -0.018580732372131457 2.8449469169750485 -0.8972331184656134
4.919447898864746 -1.469097913508751 -1.857161045074463 2.3848647314259033 -1.5962846914874476 3.33901047706604 -0.05868265348475499 -0.7218829644564406 0.5445147270111141 -0.01845898382021961 2.8450127372266705 -0.8972111288915738
4.919431686401367 -1.4690979284099122 -1.8571770191192627 2.384861631984375 -1.5963342825519007 3.3389692306518555 -0.058675891313935566 -0.7218759279776767 0.5445020209876714 -0.01851699313559349 2.8449985855991615 -0.8971702950953269
4.919443607330322 -1.4690816861442109 -1.8571486473083496 2.384861631984375 -1.5963671843158167 3.339022636413574 -0.058670144834745606 -0.7218774080993569 0.5445323877755088 -0.018473990691878422 2.844927875894195 -0.8971996583448896
4.919455051422119 -1.4690774244121094 -1.8571475744247437 2.384845419520996 -1.5963457266436976 3.339022636413574 -0.058667420762690645 -0.7218751993331592 0.5445335199970016 -0.018480438556503297 2.8449490351115343 -0.8971942197003171
4.919422626495361 -1.4690611821464081 -1.857190489768982 2.384878082866333 -1.5963223616229456 3.339006185531616 -0.05869541888939604 -0.7218620754590843 0.5445197653339899 -0.018446692847524912 2.8449769729217107 -0.897224582158025
4.919439315795898 -1.469065548186638 -1.8571395874023438 2.384870691890381 -1.59633714357485 3.3389856815338135 -0.058673240616054514 -0.7218751955115295 0.5445540381154849 -0.018507424088094377 2.844941124687774 -0.8972699779572213
4.9194416999816895 -1.4690979656628151 -1.857151985168457 2.384927673930786 -1.5963323752032679 3.3390183448791504 -0.05867579199453697 -0.7218921481507278 0.5445324316291187 -0.018461456098086797 2.8449290992303182 -0.897282116441102
4.91946268081665 -1.4690443512848397 -1.8571770191192627 2.384899063701294 -1.5963299910174769 3.339022636413574 -0.05866804421147187 -0.7218645108476739 0.5445450686626965 -0.018484529241004043 2.8449243890142286 -0.8972782588955502
4.919419765472412 -1.469093607073166 -1.85712730884552 2.384899063701294 -1.59633714357485 3.3389933109283447 -0.058685408596531305 -0.721890929274386 0.5445491584584864 -0.018468611546967505 2.8449366679738506 -0.8972893449179217
4.919471740722656 -1.4690860149315377 -1.85715651512146 2.3848959642597656 -1.5963075796710413 3.338998556137085 -0.05865775155074078 -0.721884698740296 0.5445323017013981 -0.018520919297012342 2.844961209841735 -0.8972606367878311
4.919410705566406 -1.4690979358604928 -1.8572098016738892 2.384915276164673 -1.596325699483053 3.3390302658081055 -0.05870531480944269 -0.7218750598141157 0.5444861074457135 -0.018395929841309177 2.844983451748467 -0.8971951514985519
4.919480800628662 -1.469074086552002 -1.8571531772613525 2.384861631984375 -1.5963133017169397 3.339022636413574 -0.058656281041857244 -0.721877254675631 0.544535559827834 -0.018502237783071133 2.844960041300598 -0.8972252792294548
4.919520854949951 -1.4690979284099122 -1.8571724891662598 2.384927673930786 -1.5963457266436976 3.3389976024627686 -0.0586125870195259 -0.7218912418532621 0.5445172274376863 -0.018609088750777995 2.8449153057619574 -0.8972358942723717
4.919402122497559 -1.4691065338305016 -1.8571442365646362 2.384861631984375 -1.5963342825519007 3.338970184326172 -0.05869510354659664 -0.7218851462831727 0.5445208175327507 -0.018474202669772437 2.8449910251174604 -0.8972084405134514
4.919404983520508 -1.469146617954113 -1.8571635484695435 2.38487355291333 -1.5963671843158167 3.3389976024627686 -0.05868871013072992 -0.7218959907718472 0.5444790892608751 -0.018452967870416424 2.8449864801760283 -0.8971210735753391
4.919459342956543 -1.4691508424333115 -1.857190489768982 2.384901924724243 -1.5963323752032679 3.3389604091644287 -0.05865032499628641 -0.7218985619163689 0.5444632591745512 -0.018566699976766663 2.8450114843884626 -0.8971326602538511
4.91945219039917 -1.4690611746958275 -1.8571395874023438 2.384828968639038 -1.5962894598590296 3.3390018939971924 -0.05867934432259977 -0.7218702100121883 0.544549623488517 -0.018480607736915986 2.8449956740857214 -0.8972394467953991
4.919427394866943 -1.469086007480957 -1.8571815490722656 2.3848752218433837 -1.5963628927813929 3.339031219482422 -0.05868552374293195 -0.721872150441824 0.5445070031702804 -0.01843598176953783 2.8449483249347725 -0.8971717678801269
4.919455051422119 -1.4690936219743271 -1.857185959815979 2.384899063701294 -1.5963671843158167 3.339014768600464 -0.0586603797081654 -0.7218783500696944 0.5445034113472782 -0.018500553622709005 2.844934338603393 -0.897183200388966
4.919435977935791 -1.4691022348454972 -1.8571679592132568 2.384882612819336 -1.5963342825519007 3.3390018939971924 -0.058677914346654404 -0.7218831263510503 0.5445090216703805 -0.018476833657072235 2.84497355787661 -0.8971976122174471
4.919508934020996 -1.4690979284099122 -1.8571892976760864 2.3849186140247802 -1.5963133017169397 3.3390183448791504 -0.05863371972640445 -0.7218863963569728 0.5445029296359737 -0.01854730635950517 2.844955839007956 -0.8972167389772162
4.919471740722656 -1.4691303756884118 -1.8571351766586304 2.384923143977783 -1.5963342825519007 3.3389933109283447 -0.05864557833071171 -0.7219085214925682 0.5445224455892325 -0.018540268233087014 2.844938294748788 -0.897253038447473
4.919501304626465 -1.4690687966397782 -1.8572052717208862 2.384899063701294 -1.5963166395770472 3.3390140533447266 -0.058641117203624915 -0.7218689459357794 0.5445073009511948 -0.018544275564653708 2.8449600695678985 -0.897208665545598
4.91947603225708 -1.4691302862814446 -1.8571770191192627 2.384878082866333 -1.596325699483053 3.339050769805908 -0.058659089598513146 -0.7218934767040712 0.5444805808271316 -0.018459304969308473 2.8449840695079516 -0.8971286306609099
4.919467449188232 -1.46913035333667 -1.857122778892517 2.3848840433308105 -1.5963414351092737 3.339026927947998 -0.05865408067239089 -0.7219061358951796 0.5445230442153628 -0.018489591412854833 2.8449418608868173 -0.8972074232896668
4.919516086578369 -1.469086007480957 -1.8571679592132568 2.384849949473999 -1.5963838736163538 3.339006185531616 -0.05861177124885788 -0.7218763214505315 0.5445125705849478 -0.018607397655085806 2.8449212733627243 -0.8971321337064362
4.919467449188232 -1.4690785643509408 -1.8571983575820923 2.384894533748291 -1.5963299910174769 3.339006185531616 -0.058660020159224495 -0.721871028446966 0.5445047681151388 -0.018513392634325877 2.844964580345738 -0.8971998452187004
4.919510364532471 -1.4690860149315377 -1.857122778892517 2.384849949473999 -1.5963581244098108 3.3389856815338135 -0.05861536307504958 -0.7218873010261899 0.5445479781041742 -0.018617749151171953 2.84492054343186 -0.8972118062424376
4.919492721557617 -1.469114140873291 -1.85715651512146 2.384845419520996 -1.596320931111471 3.3390183448791504 -0.058642716781649507 -0.7218889472424534 0.5445019955417376 -0.018527648359525757 2.844988833857656 -0.897139550662228
4.919485092163086 -1.4690936368754883 -1.857185959815979 2.384943647975586 -1.5963075796710413 3.3390018939971924 -0.05864847364444388 -0.7218876330353158 0.5445139453017427 -0.01853459336661145 2.8449505041791188 -0.8972717508387432
4.919455051422119 -1.4690731403282662 -1.8571442365646362 2.384885473842285 -1.5963414351092737 3.339022636413574 -0.05866749777847699 -0.7218800326997366 0.5445469448738752 -0.01847893384326945 2.8449229911589815 -0.8972606978627542
4.919439315795898 -1.4690893602422257 -1.8571771383285522 2.384878082866333 -1.5963628927813929 3.3389735221862793 -0.05866497496651219 -0.7218748086178248 0.5445102642773759 -0.018535133004909075 2.8449568254364213 -0.8971861128583207
4.919541358947754 -1.4690731328776856 -1.8571983575820923 2.384901924724243 -1.596325699483053 3.3390345573425293 -0.058613451913553646 -0.7218748854747135 0.5445092548910192 -0.018576214893884887 2.8449338274271425 -0.8971991253110773
4.919459342956543 -1.4691466030529519 -1.85715651512146 2.384885473842285 -1.596320931111471 3.3389856815338135 -0.058656907523384955 -0.7219035951981281 0.5444882320003736 -0.018526257435204686 2.845000989477533 -0.8971629639756487
4.919443607330322 -1.4691466030529519 -1.8571306467056274 2.384882612819336 -1.5962789694415491 3.339006185531616 -0.05868055795490558 -0.7219098794605165 0.5445076707579497 -0.01845607930916148 2.8450198898331287 -0.8972153953194028
4.919455051422119 -1.4690529343536873 -1.8571395874023438 2.384894533748291 -1.5962923208819788 3.338998556137085 -0.05867488083403992 -0.7218762320809722 0.5445681733554407 -0.01849138588650698 2.8449477051827756 -0.8973373745896897
4.919443607330322 -1.4691065114787598 -1.8571531772613525 2.3849033552357177 -1.59633714357485 3.338994264602661 -0.05866863909138009 -0.7218912981970698 0.5445214378347596 -0.018500243372988626 2.8449517043884853 -0.8972381242065779
4.919480323791504 -1.4691926848939438 -1.8571724891662598 2.38493196546521 -1.5964000860797327 3.3390183448791504 -0.05862649038323689 -0.7219219422916692 0.5444503234331832 -0.01854465162271137 2.844933066278739 -0.8970891699863094
4.919480323791504 -1.469114140873291 -1.8571815490722656 2.384890003795288 -1.5962923208819788 3.3389856815338135 -0.05865181042955768 -0.7218886457742663 0.5444934218855831 -0.01854317156892091 2.845011335834171 -0.8971902190416632
4.919463634490967 -1.4691055205515404 -1.8571395874023438 2.384857340449951 -1.5963085333453577 3.339038848876953 -0.058670032053983176 -0.7218904392279164 0.5445228167544116 -0.018452129509126048 2.8449782426994275 -0.8971982675292013
4.919410705566406 -1.469074086552002 -1.8571362495422363 2.3848320680805664 -1.5963166395770472 3.3390018939971924 -0.05870193173223892 -0.7218728586715881 0.5445431211091218 -0.018433905552391838 2.8449884887279477 -0.8972244168404976
4.919484615325928 -1.4690655034831543 -1.8571679592132568 2.3848647314259033 -1.5963299910174769 3.339047431945801 -0.05865596317688185 -0.7218711340969075 0.5445298046366112 -0.01847986047806059 2.844941376684801 -0.8972065168257838
4.919504642486572 -1.4690774244121094 -1.8571983575820923 2.3849186140247802 -1.596320931111471 3.339002847671509 -0.058634020083189534 -0.7218762801148401 0.5445105810009403 -0.018567038422909448 2.844947402986838 -0.8972319496192195
4.919505596160889 -1.469089300637581 -1.8571770191192627 2.384861870402954 -1.5963504950152796 3.3390018939971924 -0.05862595584936245 -0.7218771729807749 0.5445067020077421 -0.018583116080438694 2.844952544188072 -0.8971524045397766
4.919480323791504 -1.4691627782634278 -1.857151985168457 2.384936495418213 -1.5964072386371058 3.338998556137085 -0.05862201989357763 -0.721916416433288 0.5444878924080295 -0.01857732841355587 2.844897842175666 -0.8971630823900717
4.919483661651611 -1.469118410055973 -1.8571590185165405 2.384894533748291 -1.59629995027651 3.3389768600463867 -0.0586443441034355 -0.7218960805559747 0.54450845772832 -0.018564433676133217 2.844992213109055 -0.8972178488824568
4.919455051422119 -1.4691098493388672 -1.8572337627410889 2.3849078851887207 -1.596365753804342 3.3390140533447266 -0.058661574267531505 -0.7218738620465528 0.5444577590657222 -0.01849946557852399 2.8449701381834913 -0.897109972773731
4.91948938369751 -1.4690936368754883 -1.8572007417678833 2.384866400355957 -1.596325699483053 3.338960647583008 -0.05863589732137366 -0.7218728611610958 0.5444884481673614 -0.01860683977756088 2.845001699962781 -0.8971454814178567
4.919485092163086 -1.4690979209593316 -1.8571395874023438 2.3849198061176757 -1.5962966124164026 3.339067220687866 -0.058661782116063946 -0.7218981351238648 0.5445397484897816 -0.01843736869297771 2.844932013129793 -0.89728910942072
4.9194793701171875 -1.4691507828286667 -1.8571654558181763 2.384901924724243 -1.5963414351092737 3.339006185531616 -0.05864158030321121 -0.7219060303107857 0.5444806726349068 -0.018534704302033283 2.844972069524706 -0.8971484770758102
4.919471740722656 -1.4691227164915581 -1.85712730884552 2.3849198061176757 -1.596353832875387 3.3390345573425293 -0.058649554681186065 -0.7219071927391381 0.5445313740609016 -0.018490822761285698 2.844904730471433 -0.8972507535988951
4.9194793701171875 -1.4691065338305016 -1.8571022748947144 2.384878082866333 -1.5963581244098108 3.339022636413574 -0.05864172842620946 -0.721901973096596 0.5445536489420203 -0.01852128465369758 2.8449022633064076 -0.8972484867479038
4.919467926025391 -1.469086007480957 -1.8571182489395142 2.3849240976520996 -1.5963457266436976 3.3389813899993896 -0.05864579664760525 -0.7218962530298623 0.544566316524216 -0.018558513190271925 2.844894089977171 -0.8973336566843133
4.919480323791504 -1.469118395154812 -1.8571815490722656 2.384899063701294 -1.5963447729693812 3.3389692306518555 -0.0586361452371714 -0.7218897755220592 0.5444914324676884 -0.01859057560500953 2.844969724843967 -0.8971718647076491
4.919508934020996 -1.4690936219743271 -1.8571679592132568 2.3849524694630126 -1.59633714357485 3.3390345573425293 -0.05862987534292044 -0.7218941369084562 0.5445276112215871 -0.018535975518274645 2.8448955584373525 -0.897280792058872
4.919467926025391 -1.4690936368754883 -1.857181429862976 2.384915276164673 -1.5963457266436976 3.3390183448791504 -0.05865599120094067 -0.7218830243376391 0.5445104143906747 -0.018504149707061383 2.844934699453512 -0.8972193334192647
4.919389724731445 -1.4690936368754883 -1.85715913772583 2.384901924724243 -1.5963457266436976 3.3389530181884766 -0.05869874855901684 -0.7218812066486486 0.5445265896176893 -0.01848650605605672 2.8449654730926284 -0.8972597414544686
4.919447898864746 -1.4690654811314126 -1.8572311401367188 2.384873791331909 -1.59633714357485 3.338998556137085 -0.05867419863016894 -0.7218542446220063 0.5444850518407746 -0.018499140999481366 2.8449908656849585 -0.8971470057115335
4.919492721557617 -1.4691098567894478 -1.8572187423706055 2.384927435512207 -1.5963547865497034 3.33901047706604 -0.05863487740999158 -0.7218825947207979 0.5444733072671619 -0.018553553360645028 2.844948599905407 -0.8971555868428713
4.919402122497559 -1.46906120449815 -1.8572187423706055 2.384915276164673 -1.5963085333453577 3.338994264602661 -0.058711471522200034 -0.7218593735732811 0.5445063269035435 -0.018427796278147567 2.8449911175754092 -0.897250520572606
4.91945219039917 -1.4691065338305016 -1.857184886932373 2.38493196546521 -1.5963504950152796 3.3389976024627686 -0.058660960106103485 -0.7218877520046746 0.5445025938260857 -0.018513246956942436 2.8449398665387364 -0.897224512272075
4.919538497924805 -1.469114140873291 -1.85712730884552 2.384915276164673 -1.5963628927813929 3.339026927947998 -0.0585985616564067 -0.7219071033577129 0.5445364463882181 -0.018600853923715487 2.8448791782473903 -0.8972396006628616
4.919480323791504 -1.4690936145237465 -1.8571770191192627 2.384939118022583 -1.5963504950152796 3.33901047706604 -0.05864356502086237 -0.7218878192956504 0.544518535297708 -0.018535424182087503 2.8449119716500264 -0.8972539427076255
4.919497013092041 -1.4691055429032822 -1.8570910692214966 2.384927435512207 -1.596353832875387 3.3390018939971924 -0.058624083218778364 -0.7219119199868529 0.5445731640403322 -0.01857455967501486 2.844868038115794 -0.8973342435924023
4.919425964355469 -1.4691389811090012 -1.8571475744247437 2.384890242213867 -1.596365753804342 3.339005470275879 -0.05867475733369274 -0.7219007427425881 0.5444995387617559 -0.018471594022127807 2.8449551841222713 -0.8971703174485883
4.919492721557617 -1.469102219944336 -1.8571486473083496 2.3848914343067626 -1.5963581244098108 3.339006185531616 -0.05863118925927958 -0.7218916945251992 0.5445246528639232 -0.01856277938428503 2.8449207373529717 -0.8972105854322385
4.91947603225708 -1.4691098493388672 -1.857131838798523 2.384927435512207 -1.5963414351092737 3.339038848876953 -0.05865109868635457 -0.721903198709031 0.5445385497755476 -0.018485380585733006 2.8449027274703607 -0.8972771702414617
4.919480323791504 -1.4691109743765374 -1.8571654558181763 2.384861870402954 -1.59633714357485 3.339038848876953 -0.05865231387003436 -0.7218869827054861 0.5444996424839891 -0.018488232375297595 2.8449673249081027 -0.8971436568668048
4.919483661651611 -1.4690572258881112 -1.8571983575820923 2.3848811823078613 -1.5963791052447718 3.339047431945801 -0.05864728603506461 -0.7218617313360016 0.5445145623266119 -0.01850058145332025 2.844905296899624 -0.8971728333834468
4.91951322555542 -1.4690817159465333 -1.8570955991744995 2.384901924724243 -1.5963342825519007 3.3389735221862793 -0.058613866006689934 -0.7219000293976311 0.5445826142861365 -0.01862932067368677 2.8448903580882527 -0.8973386998883149
4.919455051422119 -1.4691303235343476 -1.8571655750274658 2.384894533748291 -1.596374813710348 3.3390259742736816 -0.05865721270169409 -0.7218956218715153 0.5444919467420233 -0.018487676712615014 2.844938369639181 -0.897148866732395
4.919459342956543 -1.4690774020603676 -1.857193946838379 2.384878082866333 -1.5963085333453577 3.339014768600464 -0.058672708826742186 -0.7218696473803456 0.5445059748933674 -0.018479844431133256 2.8449887709285426 -0.8971965785488075
4.91946268081665 -1.46906120449815 -1.8571983575820923 2.384906454677246 -1.5963791052447718 3.3389813899993896 -0.058648436627453594 -0.721864566544782 0.5445186727877749 -0.018564906069477367 2.844913726511757 -0.8972187691561648
4.919455051422119 -1.4691055429032822 -1.8571724891662598 2.384873791331909 -1.596320931111471 3.339026927947998 -0.05867232469930955 -0.7218837934068791 0.5445011683092323 -0.01846192337028221 2.8449836639999013 -0.897173615401251
4.919529438018799 -1.469086007480957 -1.85719633102417 2.384915276164673 -1.5963457266436976 3.339022636413574 -0.05861376464276385 -0.7218803852704051 0.5445043133257786 -0.01858526185055509 2.8449220665364283 -0.8971965256003888
4.919450283050537 -1.469114140873291 -1.8571654558181763 2.3849033552357177 -1.5963175932513636 3.3389976024627686 -0.05866896290229362 -0.721892022431438 0.5445072329255664 -0.018495554513805183 2.844977454522437 -0.897219869220593
4.919471740722656 -1.4690850165537377 -1.857193946838379 2.384890242213867 -1.5963447729693812 3.339006185531616 -0.05865298462002025 -0.7218736535869505 0.5445024241550958 -0.01852618050241138 2.844955358571136 -0.8971825528721515
4.919459342956543 -1.4690979284099122 -1.8571351766586304 2.38493196546521 -1.5963342825519007 3.3390140533447266 -0.058660807433287734 -0.7218976898620286 0.5445460904058581 -0.018493937136508418 2.8449108086436214 -0.8973068563213122
4.919459342956543 -1.4691065338305016 -1.8571442365646362 2.384870691890381 -1.5963299910174769 3.338977813720703 -0.05865603868907411 -0.7218899406767305 0.5445224675868549 -0.018542737366010812 2.8449720532670333 -0.8972100904609137
4.919443607330322 -1.4690936219743271 -1.8571699857711792 2.384943647975586 -1.596386734639303 3.3389692306518555 -0.05865324905977498 -0.7218865044560656 0.5445250575774349 -0.018558786651356577 2.8448949842105558 -0.897265518606054
4.919430255889893 -1.469086007480957 -1.8571486473083496 2.384878082866333 -1.59633714357485 3.3389856815338135 -0.05867853153213563 -0.7218807722234897 0.5445344205914436 -0.0184939084141918 2.8449573275265365 -0.8972420693022636
4.919447898864746 -1.4690687668374558 -1.857184886932373 2.384878082866333 -1.5963414351092737 3.33901047706604 -0.05867285810388582 -0.721867139251543 0.5445181434169402 -0.018485176326228883 2.8449550233720586 -0.8972058421908247
4.919445991516113 -1.4690979284099122 -1.8571655750274658 2.384923143977783 -1.59633714357485 3.339006185531616 -0.05867003038199617 -0.7218882323577538 0.5445215322339562 -0.01848670068229833 2.844938312445468 -0.897256815699678
4.919434547424316 -1.4691098567894478 -1.8571770191192627 2.3849407869526367 -1.5963838736163538 3.339026927947998 -0.05867105808619509 -0.7218904327429169 0.5445062808638677 -0.018461869424812954 2.844901904804909 -0.8972222993987362
4.919508934020996 -1.4691055429032822 -1.8571724891662598 2.384885712260864 -1.5963323752032679 3.339002847671509 -0.05862577361261821 -0.7218879776963784 0.5445039215792241 -0.018578097805859048 2.844958722396263 -0.8971776324859704
4.91948938369751 -1.469078579252102 -1.8571815490722656 2.38491074621167 -1.5963133017169397 3.3390345573425293 -0.05865228083132007 -0.7218793497573399 0.5445202152087708 -0.01849702236522897 2.844944990184246 -0.8972432088490305
4.919443607330322 -1.4690774542144318 -1.857161045074463 2.384923143977783 -1.5963457266436976 3.3390464782714844 -0.058679057011403996 -0.7218821391467658 0.5445377826067057 -0.018430450402839447 2.844906552975814 -0.8972782960191105
4.91947603225708 -1.469101221566536 -1.857193946838379 2.384869261378906 -1.5963705221759241 3.339047431945801 -0.05865154834817337 -0.721876614043741 0.5444852332110072 -0.018484798459385575 2.8449463235217407 -0.8971097083058761
4.91947603225708 -1.469102219944336 -1.8571815490722656 2.384901924724243 -1.596353832875387 3.339026927947998 -0.05864971596251248 -0.7218845946171656 0.5445013068642746 -0.018506857317549478 2.844937575389564 -0.8971820119109051
4.91947603225708 -1.4690612119487305 -1.8571724891662598 2.384890242213867 -1.5963299910174769 3.338982105255127 -0.05864914608446384 -0.72187070541819 0.5445362557170063 -0.018560870049750558 2.8449439057957018 -0.8972551988611195
4.919497013092041 -1.4691012439182778 -1.8571815490722656 2.384899063701294 -1.596374813710348 3.339022636413574 -0.05862912381911607 -0.7218844702141679 0.5445010373798618 -0.018552386994266264 2.844917218123217 -0.8971649224328064
4.919471740722656 -1.4690817233971138 -1.857153058052063 2.384861870402954 -1.596325699483053 3.339002847671509 -0.05865552885361516 -0.7218789323833658 0.5445306703754696 -0.018523048194247257 2.8449616910203823 -0.8972145751896753
4.919505596160889 -1.4690979284099122 -1.8571679592132568 2.3848814207264404 -1.5963581244098108 3.339038848876953 -0.05862991393973872 -0.7218853076726474 0.5445101093991143 -0.018534129195272836 2.844924969578974 -0.8971678998121979
4.919450283050537 -1.469118432407715 -1.8571655750274658 2.3849186140247802 -1.59633714357485 3.3389406204223633 -0.058652578222991796 -0.7218943892736738 0.5445083345000988 -0.018585658170855703 2.844968741628527 -0.8972353104819208
4.919439315795898 -1.46913035333667 -1.8571724891662598 2.38493196546521 -1.5963791052447718 3.339006185531616 -0.05866307222742146 -0.7218977808548916 0.54449447886652 -0.018495563758925294 2.8449249946067474 -0.8971946885610041
4.91947603225708 -1.4690807622722168 -1.8571815490722656 2.3848561483570556 -1.5963323752032679 3.339006185531616 -0.05865325903335172 -0.72187107616325 0.5445084053982086 -0.018526757191424586 2.8449750299880545 -0.8971648003297727
4.919467926025391 -1.4691465956023713 -1.857122778892517 2.384898825282715 -1.5963433424579065 3.3389735221862793 -0.05864116666472403 -0.7219132676244983 0.5445161722129018 -0.018566920423069233 2.844954171389431 -0.8972149756284438
4.919471740722656 -1.4691012439182778 -1.8571699857711792 2.384885712260864 -1.5963299910174769 3.3389487266540527 -0.058642665888248555 -0.7218842917210193 0.5445104475217207 -0.018601396642309295 2.844979353573558 -0.8972061429728908
4.919467449188232 -1.4690817159465333 -1.8571486473083496 2.384943409557007 -1.5963166395770472 3.3390345573425293 -0.0586645929973786 -0.7218914321340474 0.5445492226978719 -0.018468318168951656 2.844909250964704 -0.8973297355011134
4.91946268081665 -1.4691466105035325 -1.857161045074463 2.384906454677246 -1.5963671843158167 3.3390140533447266 -0.058649324131732274 -0.7219046385812451 0.5444869283164208 -0.01851180890266498 2.8449454302119275 -0.8971540617114819
4.919480323791504 -1.4691141557744523 -1.8571654558181763 2.384939118022583 -1.5963628927813929 3.3390464782714844 -0.058645750828897565 -0.7218979997954718 0.5445116581075871 -0.018489622449641804 2.844898710391413 -0.897228101386031
4.9194793701171875 -1.4691055727056046 -1.8571395874023438 2.3849565225788574 -1.596353832875387 3.339006185531616 -0.058639392834326134 -0.7219032377272925 0.5445419912393766 -0.018542435864271678 2.844883894533488 -0.8973108472559523
4.919430255889893 -1.4691389811090012 -1.8571679592132568 2.384955568904541 -1.596374813710348 3.3389976024627686 -0.058667401590496646 -0.7219046287307134 0.5444968799179584 -0.01849301998506102 2.844920899932237 -0.8972267640727146
4.919447898864746 -1.4691260618022461 -1.857131838798523 2.384866400355957 -1.596325699483053 3.3390800952911377 -0.05868349456725573 -0.7218999428106659 0.5445145512970998 -0.01837865549502222 2.844960720264177 -0.8971790280504779
4.919455051422119 -1.469109834437706 -1.8571094274520874 2.384882612819336 -1.5963085333453577 3.339022636413574 -0.05867050470133352 -0.7219019597014735 0.5445480471260904 -0.01846381134127922 2.844952686981785 -0.897271932705511
4.919467926025391 -1.4691022422960778 -1.8571680784225464 2.384927435512207 -1.596328083668844 3.3389856815338135 -0.05865189224284226 -0.7218910377864851 0.5445183048527311 -0.018542787310961643 2.8449465212988643 -0.8972580066405137
4.919455051422119 -1.4690936368754883 -1.8571892976760864 2.3848575788685302 -1.5963791052447718 3.3389899730682373 -0.05865403502059495 -0.7218713021736736 0.5444932127875435 -0.018540952279209294 2.8449584387228994 -0.897121357467852
4.919521808624268 -1.4690443661860009 -1.8571699857711792 2.384873791331909 -1.5963791052447718 3.338994264602661 -0.05860894541107846 -0.7218645755799196 0.5445450734287829 -0.018631418352552574 2.844887113381022 -0.8972212448594613
4.919487953186035 -1.4691098418882866 -1.857193946838379 2.3849522310444335 -1.5963433424579065 3.3389899730682373 -0.058634945671024064 -0.7218917044663755 0.5444977987292101 -0.018571499603977075 2.8449333402713304 -0.897233445200275
4.919529438018799 -1.4691585165313263 -1.857151985168457 2.384923143977783 -1.59633714357485 3.3390183448791504 -0.05860699088119627 -0.7219180978800682 0.5444893835253983 -0.018586846395805934 2.8449427660419335 -0.8971747250382879
4.919487953186035 -1.4690850389054795 -1.857185959815979 2.384901924724243 -1.5963085333453577 3.338977098464966 -0.05864302011615318 -0.7218787549827517 0.5445124743668674 -0.018574318326408927 2.844975475728981 -0.8972309501851131
4.919443607330322 -1.4691422668150445 -1.8571442365646362 2.384894533748291 -1.5963791052447718 3.3389692306518555 -0.05865131750423172 -0.7219035416245158 0.5445013565440244 -0.018554415672536698 2.844945839036825 -0.897172699364561
4.91947603225708 -1.4690903437188645 -1.8571983575820923 2.384890242213867 -1.596325699483053 3.3389976024627686 -0.058652335954044996 -0.7218751554642334 0.5444961082766111 -0.01853554010642675 2.8449779088687053 -0.8971805393674638
4.919504642486572 -1.4691271644881745 -1.857184886932373 2.384878082866333 -1.596325699483053 3.339067220687866 -0.05864231980680033 -0.7218923472686339 0.5444763136922351 -0.01847641469059599 2.84497552425894 -0.8971133269079683
4.919484615325928 -1.4690741014531632 -1.85715913772583 2.3849186140247802 -1.5963085333453577 3.338977098464966 -0.05864443554666571 -0.7218833793633445 0.5445436185025475 -0.018570581947198125 2.8449424812910915 -0.8973048111605784
4.919459342956543 -1.4691218224218865 -1.85715651512146 2.384878321284912 -1.596349064503805 3.339022636413574 -0.058659869579638715 -0.7218934813731137 0.5445022683292953 -0.018487040096357904 2.844958084970208 -0.8971642305850674
4.919483661651611 -1.4690936517766495 -1.8571983575820923 2.384898825282715 -1.596328083668844 3.3389813899993896 -0.05864261843196992 -0.7218776892426773 0.5444959042151499 -0.01857054275746403 2.844974670054903 -0.8971880771941021
4.9194231033325195 -1.4691260618022461 -1.857151985168457 2.3849195676990966 -1.5963791052447718 3.339006185531616 -0.05867436752343873 -0.72189854705927 0.5445105498545586 -0.01847302848162457 2.8449214548234716 -0.8972145145940051
4.919467449188232 -1.4690850612572213 -1.857153058052063 2.384927435512207 -1.5963547865497034 3.3389976024627686 -0.058649058686792224 -0.7218879235229778 0.5445405933205661 -0.01853811770135401 2.844901948095462 -0.8972846920833388
4.919533729553223 -1.469081701045372 -1.857131838798523 2.384894533748291 -1.596320931111471 3.3390140533447266 -0.0586121372617434 -0.7218923562549773 0.544552903362478 -0.01859371159455587 2.8449131327766306 -0.8972751439848782
4.91947603225708 -1.4690774244121094 -1.857184886932373 2.384885712260864 -1.5963457266436976 3.3389976024627686 -0.05864819428135737 -0.721872638240703 0.5445138939752735 -0.01854529894001953 2.844947970296122 -0.8971991622102929
4.919471740722656 -1.4691226792386551 -1.85715651512146 2.3848694997974853 -1.5963342825519007 3.338982105255127 -0.05864642502161039 -0.7218932353174096 0.5445015036458908 -0.0185555279967774 2.8449827236313823 -0.8971646934614127
4.919463634490967 -1.4691141632250329 -1.85712730884552 2.384873791331909 -1.596320931111471 3.339022636413574 -0.058662327151465556 -0.7218981730522318 0.5445294873670724 -0.018481096750328663 2.8449596603388483 -0.8972218745753289
4.919406890869141 -1.4690979284099122 -1.8571577072143555 2.384906454677246 -1.5963342825519007 3.3390018939971924 -0.05869808737549938 -0.7218855887767077 0.5445244222252402 -0.01843601626710735 2.8449573536954618 -0.8972550411823971
4.919480323791504 -1.4690979284099122 -1.8571654558181763 2.3849186140247802 -1.5963414351092737 3.3390464782714844 -0.058652344160377616 -0.7218900207832375 0.5445194497887246 -0.018480035554788818 2.84491873519826 -0.8972337868810722
4.919471740722656 -1.4691218075207253 -1.8572266101837158 2.384959860438965 -1.5963457266436976 3.3389692306518555 -0.05864259862730609 -0.7218878859504559 0.5444668200173576 -0.018578095756392903 2.8449638079365664 -0.8971898131773057
4.91947603225708 -1.469068893497326 -1.85715651512146 2.384890242213867 -1.5963791052447718 3.339026927947998 -0.05864549896752912 -0.7218764800252453 0.5445404857274049 -0.01851972193017396 2.8448878664634156 -0.8972311406689305
4.919450283050537 -1.4691141483238717 -1.85719633102417 2.3848575788685302 -1.5963075796710413 3.339022636413574 -0.058678942194393874 -0.7218789533405681 0.5444744454165191 -0.018454268332302102 2.845027078983055 -0.8971171409092866
4.919459342956543 -1.4690979358604928 -1.8571815490722656 2.3849076467701416 -1.596365753804342 3.3389735221862793 -0.05864869038186572 -0.7218819129047245 0.5445066742571614 -0.01856479912317002 2.84493905241147 -0.897202978348454
4.919455051422119 -1.4690850910595437 -1.857122778892517 2.384939118022583 -1.596353832875387 3.339006185531616 -0.058658063266865096 -0.721896197323854 0.5445655316455433 -0.01850864107832943 2.844877790688174 -0.8973423243030447
4.919459342956543 -1.4691346895745774 -1.857153058052063 2.384927435512207 -1.5963299910174769 3.3390018939971924 -0.058657677366867916 -0.7219058324369616 0.5445066137953705 -0.01850797076379271 2.844954127939292 -0.8972320571071073
4.91947603225708 -1.469097913508751 -1.857151985168457 2.384882612819336 -1.5963323752032679 3.339026927947998 -0.05865387823227933 -0.7218881256140914 0.5445234186548789 -0.018497699098603868 2.844945858117341 -0.897212999529344
4.91947603225708 -1.4691627782634278 -1.857193946838379 2.384882612819336 -1.5963133017169397 3.3390183448791504 -0.058653824610596844 -0.7219015360583129 0.54444735338566 -0.018498675911564205 2.845030054771497 -0.8970814048350073
4.919471740722656 -1.4690568384579201 -1.8571068048477173 2.3848532873341064 -1.5963323752032679 3.3390018939971924 -0.05865353599428168 -0.721879832494299 0.5445811296962638 -0.018529080827505623 2.844917451399372 -0.8972951932201795
4.919501304626465 -1.4691184547594567 -1.8571351766586304 2.384898825282715 -1.5963414351092737 3.3389735221862793 -0.058620228882284645 -0.7219022814656022 0.544526381256616 -0.01861383934072247 2.8449371635865104 -0.8972305357903951
4.9194793701171875 -1.4691012364676972 -1.857131838798523 2.3849360185810546 -1.5963085333453577 3.33901047706604 -0.05865094588498902 -0.7219020489191342 0.5445478465044314 -0.018515724502740905 2.8449248453042193 -0.8973228886544605
4.919467449188232 -1.4691227611950417 -1.8571351766586304 2.3848814207264404 -1.5963791052447718 3.3390018939971924 -0.058641883367032174 -0.7218987818625979 0.5445182362079042 -0.018542355258548856 2.84492194074009 -0.8971822179516944
4.919439315795898 -1.469114140873291 -1.8572266101837158 2.38491074621167 -1.5963504950152796 3.339022636413574 -0.058677320351180666 -0.7218770885781408 0.5444608708056028 -0.01845798752133619 2.844981027497664 -0.8971272596687649
4.919471740722656 -1.4691260916045685 -1.8571183681488037 2.384894533748291 -1.5963133017169397 3.339059352874756 -0.05866356789477182 -0.7219085007857379 0.544531126794088 -0.0184369091372216 2.8449438207759763 -0.8972409969617184
4.919480323791504 -1.469086007480957 -1.857222080230713 2.3849238592335205 -1.5963414351092737 3.3390259742736816 -0.05865194445914922 -0.721872637796368 0.5444865170042805 -0.018508212010104934 2.8449483639555866 -0.8971848668946716
4.919497013092041 -1.469122753744461 -1.8571531772613525 2.384850187892578 -1.5963123480426233 3.339022636413574 -0.05864147244728994 -0.7218939970691007 0.5444995554677166 -0.018523615112617034 2.8449939814348024 -0.8971417821134229
4.919467449188232 -1.4690816935947915 -1.85715651512146 2.3848869043537597 -1.5963323752032679 3.3390183448791504 -0.05865970546471132 -0.7218812419948344 0.5445323443480878 -0.01849803093104093 2.844940258582384 -0.8972378867869119
4.919455051422119 -1.469118432407715 -1.8571395874023438 2.384890242213867 -1.5963042418109339 3.339017391204834 -0.058671146119255176 -0.7218988615809963 0.5445210092167083 -0.01846845455701468 2.8449769009097197 -0.8972334803727593
4.919439315795898 -1.4691303309849282 -1.8572027683258057 2.384902163142822 -1.5963524023639124 3.3389735221862793 -0.058664988932237455 -0.7218867822936966 0.5444673841196438 -0.01852893006553028 2.8449919747445795 -0.8971346867159199
4.919447898864746 -1.4691423189691086 -1.8571395874023438 2.384885712260864 -1.5963075796710413 3.338982105255127 -0.05866692843045579 -0.7219058195325135 0.5445044917060234 -0.01850948016800435 2.845002347808418 -0.8972019088368947
4.919487953186035 -1.4691141259721299 -1.857151985168457 2.384906454677246 -1.5963457266436976 3.3389692306518555 -0.05862903322103037 -0.7218967874636866 0.5445181816048354 -0.01860270313413136 2.844941281073711 -0.897225244288826
4.919430255889893 -1.4691022422960778 -1.8571724891662598 2.3849100309559326 -1.5963910261737269 3.339047431945801 -0.05867772081588368 -0.7218844320182235 0.5445082132059854 -0.01842991714261506 2.8449036752839536 -0.8971901513631243
4.919467449188232 -1.469081775551178 -1.8572311401367188 2.3849186140247802 -1.5963504950152796 3.338977813720703 -0.0586505931261104 -0.7218666707514636 0.5444827693055484 -0.01856250203806671 2.844962357706749 -0.897178560294263
4.919463157653809 -1.4690936145237465 -1.857161045074463 2.384898825282715 -1.59633714357485 3.339014768600464 -0.05866005434976364 -0.7218855917898994 0.5445229550093619 -0.018498905894013297 2.8449412552479814 -0.8972308442973561
4.919495582580566 -1.4691389736584206 -1.8572142124176025 2.38491074621167 -1.5963414351092737 3.339006185531616 -0.05863302214090303 -0.7218922560571919 0.5444537112409671 -0.018556925059815196 2.8449854031969224 -0.8971075146449203
4.919471740722656 -1.4691022050431748 -1.8571770191192627 2.384882612819336 -1.596328083668844 3.338977813720703 -0.05864921070541948 -0.7218829186538087 0.5445030474300603 -0.01855888894992002 2.8449807224182297 -0.8971864877597895
4.91947603225708 -1.4691098642400284 -1.8571654558181763 2.384894533748291 -1.5963414351092737 3.3390190601348877 -0.05864976645224617 -0.7218904217305419 0.544507265575527 -0.018512535701673685 2.8449488783244967 -0.8971916078453852
4.919402122497559 -1.4691670697978516 -1.8571395874023438 2.384906454677246 -1.5963175932513636 3.3389933109283447 -0.05869754392508226 -0.7219146203560423 0.5444907792287779 -0.018432628311467778 2.845006063406971 -0.8971980749125786
4.919492244720459 -1.469118395154812 -1.857161045074463 2.3848532873341064 -1.5963504950152796 3.3390140533447266 -0.058635237240356304 -0.7218895619350927 0.544496551071633 -0.01854646437991967 2.8449665655881873 -0.8971234518621616
4.919471740722656 -1.4690979284099122 -1.857181429862976 2.3848740297504882 -1.5963457266436976 3.3389976024627686 -0.058649894688624735 -0.7218789277129144 0.5444999910750669 -0.018538720131642934 2.8449669469026286 -0.8971613768887855
4.919508934020996 -1.469101258819439 -1.8571442365646362 2.384862108821533 -1.59633714357485 3.338961601257324 -0.058616035261892616 -0.7218894196518738 0.5445247552774238 -0.018639624944142168 2.844959206375461 -0.8971951727218528
4.919471740722656 -1.4691098418882866 -1.857151985168457 2.384885712260864 -1.59629995027651 3.338998556137085 -0.05865774053850816 -0.7218930815056593 0.5445173692505695 -0.018516903202800344 2.8449857849738853 -0.897224991587275
4.919455051422119 -1.469065436427929 -1.8571113348007202 2.384882612819336 -1.5963614622699183 3.3389899730682373 -0.058655480260074735 -0.7218838795277309 0.5445770942902391 -0.018535559286526924 2.844891111221377 -0.8973071358190181
4.919427394866943 -1.4690936219743271 -1.857193946838379 2.384902163142822 -1.5963581244098108 3.339047431945801 -0.058689172357222305 -0.7218758603198885 0.5444972374535206 -0.018410426787516403 2.844944060805644 -0.897180506711629
4.919459342956543 -1.4690697950175782 -1.8571760654449463 2.3849195676990966 -1.5963705221759241 3.3389735221862793 -0.058649113065000646 -0.7218747056615162 0.5445325735308129 -0.018567856531469897 2.8449068399002324 -0.8972616505920474
4.919443607330322 -1.4690893602422257 -1.857161045074463 2.3849641519733886 -1.5963495413409632 3.338965892791748 -0.05866032917254538 -0.7218908879497246 0.5445397937676812 -0.01854696613786289 2.8449051312133697 -0.8973314523691942
4.919463634490967 -1.4690611970475693 -1.8571317195892334 2.384906454677246 -1.5963323752032679 3.338977813720703 -0.058654201425628424 -0.7218818565244737 0.5445703416530833 -0.01855153588631422 2.8449107982020996 -0.8973338472020387
4.919480323791504 -1.4691227835467835 -1.8572028875350952 2.38491074621167 -1.5963581244098108 3.338994264602661 -0.05863853157426352 -0.7218877297653987 0.5444734611517347 -0.018560509793895345 2.8449615797422947 -0.8971409240584656
4.919455051422119 -1.4691272389939805 -1.857161045074463 2.384882612819336 -1.5963457266436976 3.339026927947998 -0.05866428785392759 -0.7218947924000801 0.5444958738963134 -0.018473098295417337 2.8449644244686327 -0.8971584358152898
4.919471740722656 -1.469102219944336 -1.8571680784225464 2.3849195676990966 -1.5963166395770472 3.3390018939971924 -0.05865513495378146 -0.7218906868330621 0.5445165892356357 -0.018519824857906313 2.844955734237588 -0.8972496034914939
4.919430255889893 -1.469111019080021 -1.8571521043777466 2.384862108821533 -1.5963323752032679 3.339047431945801 -0.05869053772000027 -0.7218875331900737 0.5445096233341531 -0.018403003873691676 2.844973788839451 -0.8971726280937977
4.919447898864746 -1.4690850389054795 -1.8572007417678833 2.384878321284912 -1.5963118712054651 3.3389899730682373 -0.05867509235025874 -0.7218697089394085 0.5444962241510154 -0.01850008634998708 2.8450039452777682 -0.8971829040246522
4.91947603225708 -1.4690935996225853 -1.8571770191192627 2.3848859506794433 -1.5963414351092737 3.339015007019043 -0.05865099047740784 -0.7218806404744009 0.5445082552032859 -0.01851835606471305 2.8449522492926786 -0.8971871708816347
4.91945219039917 -1.4691260618022461 -1.857193946838379 2.3849119383045654 -1.596374813710348 3.3390345573425293 -0.05866229003395088 -0.72188958299626 0.5444765886672951 -0.01847093863436972 2.84494129492011 -0.8971387847757488
4.919463634490967 -1.4690936890295525 -1.857090950012207 2.384862108821533 -1.5963299910174769 3.3390555381774902 -0.05866673978328604 -0.7218981812555325 0.5445677414179113 -0.01843964859573544 2.844916069628112 -0.8972711147048871
4.919487953186035 -1.4691227239421387 -1.8572266101837158 2.384915276164673 -1.5963581244098108 3.339027166366577 -0.05864062301743268 -0.7218834581638127 0.5444554750413576 -0.018523965122952665 2.8449635180200428 -0.8971072059103781
4.919439315795898 -1.4690731328776856 -1.8571724891662598 2.3848859506794433 -1.5963414351092737 3.3390138149261475 -0.05867854934570237 -0.7218722772513761 0.5445259287512203 -0.018468473732555106 2.8449465824381583 -0.8972282652496518
4.919497013092041 -1.4690817233971138 -1.857153058052063 2.384906454677246 -1.5963323752032679 3.3389854431152344 -0.0586311788139349 -0.7218860824299074 0.5445397216073152 -0.01858710929555701 2.8449262895646266 -0.8972694797040617
4.919467926025391 -1.4691141706756135 -1.8571442365646362 2.384882612819336 -1.5963085333453577 3.3390095233917236 -0.05866008070412737 -0.7218957373239436 0.5445190876149343 -0.0184998538732323 2.8449769159550073 -0.8972193951747878
4.919450759887695 -1.4691346448710938 -1.857189416885376 2.3848859506794433 -1.59633714357485 3.3390016555786133 -0.0586651521158303 -0.7218907424147651 0.5444708723531609 -0.018498240437843462 2.8449989278802117 -0.8971253248046099
4.91947603225708 -1.4691065114787598 -1.857157588005066 2.384902163142822 -1.5963414351092737 3.338977575302124 -0.05864122209476051 -0.7218916642135607 0.5445182529810624 -0.018571933317462354 2.844947267442348 -0.8972251764935794
4.919467926025391 -1.469102219944336 -1.8572142124176025 2.3849360185810546 -1.5963342825519007 3.3390016555786133 -0.058655785344797956 -0.7218811281409581 0.5444844746152684 -0.018521845646487012 2.8449610307508117 -0.8972011369784781
4.919480323791504 -1.4691055876067658 -1.8572311401367188 2.384898825282715 -1.5963457266436976 3.338989734649658 -0.058643476581168634 -0.721873481799981 0.544462138797261 -0.018560937545826856 2.844987041556708 -0.8971175602313385
4.919459342956543 -1.4691422817162056 -1.8571724891662598 2.3849119383045654 -1.596365753804342 3.3389854431152344 -0.058647172621459194 -0.7219005960130527 0.5444832224200665 -0.01854702510769297 2.84495548267508 -0.8971589867658785
4.919459342956543 -1.4690817159465333 -1.8571938276290894 2.384898825282715 -1.596328083668844 3.3389854431152344 -0.05866162925991347 -0.7218731520981108 0.5445075001038382 -0.01853060481252247 2.844969793846211 -0.897214213948031
4.919459342956543 -1.4691260767034073 -1.8571395874023438 2.38491074621167 -1.5963581244098108 3.339006185531616 -0.058652545521577115 -0.7219030278317433 0.5445187108756705 -0.018515143932829253 2.844926757983857 -0.897223326255645
4.919443607330322 -1.4690979209593316 -1.8571679592132568 2.384882612819336 -1.5963342825519007 3.3389599323272705 -0.05866444089841579 -0.7218815417815078 0.5445132488180899 -0.018547534118693053 2.844979091605958 -0.8972102110577209
4.919439315795898 -1.4690774244121094 -1.85712730884552 2.3848694997974853 -1.5963581244098108 3.3389854431152344 -0.05866696727852596 -0.7218816407737247 0.5445543400699366 -0.018517373145367128 2.8449246009838434 -0.8972577183976823
4.91947603225708 -1.4690979284099122 -1.8571680784225464 2.3848740297504882 -1.5963085333453577 3.33901047706604 -0.05865706865601285 -0.7218835476562034 0.5445106260536254 -0.018509770954194954 2.844984612861575 -0.897195835811498
4.919492244720459 -1.4690731030753632 -1.85713529586792 2.384922905559204 -1.596374813710348 3.3389732837677 -0.05862192408531198 -0.7218879440663951 0.5445616728229783 -0.018617818183117547 2.8448693552120012 -0.8973076927488716
4.91947603225708 -1.4690688636950036 -1.8571892976760864 2.3848749834248046 -1.5963457266436976 3.3390228748321533 -0.05865432628824502 -0.7218673737561347 0.5445136650812645 -0.018509329640295193 2.8449458670057215 -0.8971852819851397
4.919484615325928 -1.4690526735833664 -1.8571724891662598 2.3848740297504882 -1.5963299910174769 3.338989734649658 -0.058645513257617646 -0.7218660585564018 0.5445387953907855 -0.018562287117273105 2.844944506724868 -0.8972416243448487
4.919445991516113 -1.4691098567894478 -1.8571248054504395 2.384902163142822 -1.59633714357485 3.3390183448791504 -0.058670003195429615 -0.7218995706534058 0.5445396387421848 -0.018469922407502427 2.8449303438084295 -0.8972648916395749
4.919487953186035 -1.4691022050431748 -1.857161045074463 2.384898825282715 -1.596402947102682 3.3390016555786133 -0.05862404178702133 -0.7218881664828154 0.5445157608982897 -0.018582734520287955 2.8448897815787886 -0.8971817346680011
4.919353008270264 -1.4690774542144318 -1.8571699857711792 2.3848816591450195 -1.5962594191180628 3.3390722274780273 -0.05877060224848972 -0.7218716737154727 0.5445242826219192 -0.01822502953075753 2.845025458967772 -0.8972695074277998
4.919435977935791 -1.469086007480957 -1.8571397066116333 2.384927197093628 -1.596353832875387 3.33903169631958 -0.05867797833271788 -0.7218900199316831 0.5445490126593281 -0.01844470592024622 2.844895078286461 -0.8973010255446645
4.919455051422119 -1.4690936219743271 -1.8571983575820923 2.384894533748291 -1.596325699483053 3.33903169631958 -0.05867385906453912 -0.7218760778658349 0.5444936689492359 -0.0184571284891042 2.84497449047323 -0.8971793159616647
4.919500827789307 -1.469118432407715 -1.8571654558181763 2.384890242213867 -1.5963581244098108 3.338977575302124 -0.05861937386444304 -0.7218933984894739 0.5445012865547982 -0.01861425456434308 2.844946903778129 -0.89716868374076
4.91948127746582 -1.469086007480957 -1.8571892976760864 2.384906454677246 -1.5963581244098108 3.3389732837677 -0.058635849504713164 -0.7218771335260721 0.5445090566277875 -0.018592899190612446 2.8449377007377175 -0.8972067774143795
4.919447898864746 -1.4690936294249077 -1.857163667678833 2.384882612819336 -1.5963175932513636 3.339060068130493 -0.058684992130214574 -0.7218829347692046 0.5445169454392099 -0.018403586907015483 2.8449617948816073 -0.8972099893123413
4.919434547424316 -1.469126084153988 -1.8571521043777466 2.3848859506794433 -1.5963342825519007 3.338998794555664 -0.05867566380447208 -0.7218957574256135 0.5445051977016911 -0.0184790536592938 2.844977600805071 -0.8971922611995277
4.919434547424316 -1.469114140873291 -1.8571655750274658 2.3849074083515625 -1.59633714357485 3.3389854431152344 -0.058673399526922757 -0.7218909480435602 0.5445078112964822 -0.018499489463952093 2.8449662061689556 -0.8972202217214456
4.91947603225708 -1.4690688487938424 -1.8572007417678833 2.3848859506794433 -1.5963833967791956 3.3389644622802734 -0.05863457200790635 -0.7218643953579506 0.5445079499954614 -0.018609567798459924 2.844929795442134 -0.8971760940484205
4.919471740722656 -1.4691064965775986 -1.8572264909744263 2.3849186140247802 -1.5963791052447718 3.3390390872955322 -0.05865104805477979 -0.721876788437865 0.5444666200392543 -0.018493965534374553 2.844935545080937 -0.8971232726762489
4.919443607330322 -1.4690936219743271 -1.857131838798523 2.3849150377460937 -1.5963042418109339 3.339015007019043 -0.05867973984545494 -0.7218945612842729 0.5445490101527881 -0.018456528020240476 2.844944842891494 -0.8973133533838658
4.919443607330322 -1.469114140873291 -1.8571442365646362 2.384894533748291 -1.5963414351092737 3.339006185531616 -0.05866922697237319 -0.7218949892768907 0.5445207262909207 -0.018485202107395533 2.844949947815984 -0.8972233430995532
4.9194183349609375 -1.469090299015381 -1.857122778892517 2.384906454677246 -1.596320931111471 3.339006185531616 -0.05869247297264164 -0.7218923511774864 0.544556345297097 -0.018441057325555718 2.8449376325585556 -0.8973162448743397
4.919455051422119 -1.4691141483238717 -1.85715651512146 2.384882612819336 -1.5963447729693812 3.3389687538146973 -0.0586537565474093 -0.7218905593679308 0.5445101219876975 -0.018555923769253403 2.8449683879226133 -0.8971941471018599
4.919443607330322 -1.4690979284099122 -1.8571770191192627 2.3848458963581542 -1.5963323752032679 3.339010715484619 -0.058676318851806325 -0.7218750329765488 0.5444977782384042 -0.018473867516064255 2.844996642051381 -0.8971395436561679
4.919483661651611 -1.4691184175065537 -1.85712730884552 2.384931727046631 -1.596328083668844 3.339019536972046 -0.058643816854135285 -0.7219084996713911 0.5445377593965887 -0.018517545382453093 2.8449161520195365 -0.8972869919717299
4.9194231033325195 -1.4690741014531632 -1.8571442365646362 2.384870691890381 -1.5963175932513636 3.3390302658081055 -0.05869777296568724 -0.721877227766567 0.5445437526530308 -0.018411633385331336 2.844958642765025 -0.897257092464767
4.919427394866943 -1.4690979284099122 -1.8571724891662598 2.384898825282715 -1.5963547865497034 3.339006185531616 -0.05868045029642828 -0.7218816992605587 0.5445111211665625 -0.01846802177723841 2.8449481943779515 -0.8972090122980305
4.919471740722656 -1.4691509020379563 -1.857102394104004 2.3849431711384277 -1.596325699483053 3.338982105255127 -0.05864158174944333 -0.721926524947787 0.5445374414768438 -0.018552729973495653 2.84492796527633 -0.8973032869639895
4.919455051422119 -1.4691184175065537 -1.8571431636810303 2.384838266963623 -1.5963614622699183 3.339006185531616 -0.05865752546345291 -0.7218892564428796 0.5445070924283354 -0.018510161786653642 2.844967467345935 -0.8971302684506449
4.919443607330322 -1.4690979284099122 -1.8571699857711792 2.3849074083515625 -1.5963323752032679 3.3389854431152344 -0.05866936878604925 -0.7218847787091809 0.5445158492974015 -0.018510455239487054 2.844960355581681 -0.8972368373819194
4.919425964355469 -1.4691184622100373 -1.8571938276290894 2.384882612819336 -1.596325699483053 3.3389973640441895 -0.05868630820621351 -0.7218822741163922 0.5444785278541592 -0.01846413441064795 2.845010510261094 -0.8971485401617249
4.919439315795898 -1.4690936219743271 -1.8571442365646362 2.384906454677246 -1.59633714357485 3.338977575302124 -0.05866886119323396 -0.7218888310296925 0.5445382469282644 -0.018518449221776426 2.844941368763073 -0.8972757831009289
4.919440269470215 -1.4690936145237465 -1.85712730884552 2.3849477010914306 -1.59633714357485 3.3390676975250244 -0.05868403186719433 -0.7218996206145218 0.5445564649735313 -0.018392151228731973 2.844883077436628 -0.8973360257205463
4.91949987411499 -1.469043919151165 -1.8571486473083496 2.384894533748291 -1.5963547865497034 3.339015007019043 -0.05863277753980785 -0.721871979672019 0.5445655637818317 -0.01856024151194008 2.844881171679354 -0.8972917061604884
4.91945219039917 -1.4691098567894478 -1.8571724891662598 2.384878321284912 -1.5963085333453577 3.338994264602661 -0.058670305613489585 -0.7218857247858752 0.5445003200986434 -0.018498629881063287 2.845002341221292 -0.8971876007036278
4.919406890869141 -1.4691012737206002 -1.8571938276290894 2.38491074621167 -1.5963504950152796 3.339043617248535 -0.05870414831137831 -0.7218787354884664 0.5444939892397356 -0.018383116539954558 2.8449559530716333 -0.897190851862686
4.919430255889893 -1.469114140873291 -1.8571654558181763 2.3849186140247802 -1.5963581244098108 3.339015007019043 -0.058677292505163195 -0.7218920291265074 0.5445087065599783 -0.01846097664733504 2.8449360558819485 -0.8972192246094854
4.919471740722656 -1.4691055578044434 -1.8571531772613525 2.38491074621167 -1.596374813710348 3.3389954566955566 -0.05863992296314339 -0.7218926072983898 0.5445225840392076 -0.01855583902484793 2.8449082322975046 -0.8972233662428535
4.919439315795898 -1.4690774244121094 -1.8571815490722656 2.3849150377460937 -1.5963175932513636 3.339006185531616 -0.05868182441227338 -0.7218761322017111 0.5445225824591066 -0.01846831102834764 2.8449581603677943 -0.8972637847463404
4.919418811798096 -1.4690697950175782 -1.857122778892517 2.3849238592335205 -1.5963414351092737 3.339064359664917 -0.05870005063234872 -0.7218875783064509 0.5445717699654994 -0.018368882463173784 2.844883104828993 -0.8973446202126392
4.919467926025391 -1.469114140873291 -1.8571892976760864 2.3848749834248046 -1.5963085333453577 3.339006185531616 -0.05866192945602991 -0.7218838199874 0.5444836282918284 -0.018503489688366785 2.8450105286685794 -0.8971492907829585
4.91947603225708 -1.4691227239421387 -1.8571724891662598 2.384890242213867 -1.5963671843158167 3.339047908782959 -0.05864915467839611 -0.7218923694380768 0.5444906986404564 -0.018482741534893054 2.844935963156397 -0.8971395919649578
4.919443607330322 -1.4691217702678223 -1.8571351766586304 2.3848654466816406 -1.5963085333453577 3.3389854431152344 -0.058672298425075355 -0.7218965762354248 0.5445180198425057 -0.018499510549472714 2.844998865003372 -0.8972078279069993
4.919467926025391 -1.469077394609787 -1.85715651512146 2.38483373701062 -1.5963390509234827 3.339006185531616 -0.0586571519773587 -0.7218721943868015 0.5445251430523287 -0.01851881039776509 2.8449678824201774 -0.8971708021273169
4.919480323791504 -1.4690979209593316 -1.8571521043777466 2.3848697382160644 -1.5963457266436976 3.339006185531616 -0.058644004256223035 -0.7218859956938631 0.5445210912218156 -0.01853935590563697 2.844946971366619 -0.8971915988422922
4.919480323791504 -1.4690731403282662 -1.85713529586792 2.3848652082630615 -1.596325699483053 3.3389687538146973 -0.05864224205856006 -0.7218806989087421 0.5445517199076606 -0.018584441820616082 2.8449492552898636 -0.8972595168583027
4.91945219039917 -1.4691055503538628 -1.8571770191192627 2.384862108821533 -1.5963581244098108 3.3390228748321533 -0.05866571157524819 -0.7218798981935124 0.5444946619916432 -0.018480468774387998 2.844965206298399 -0.8971332324871872
4.919487953186035 -1.4690936368754883 -1.8571803569793701 2.384866400355957 -1.5963085333453577 3.338994264602661 -0.05864640771063025 -0.7218785401308172 0.5445033037128872 -0.018549554932848277 2.844995139372741 -0.8971756835028047
4.919455051422119 -1.4691055727056046 -1.857161045074463 2.3849031168171386 -1.5963042418109339 3.3389523029327393 -0.05866001228883665 -0.7218901053815496 0.5445181297818964 -0.018561033303410062 2.844990156667413 -0.897252168234607
4.919467926025391 -1.4690882799080391 -1.8571745157241821 2.3849150377460937 -1.5963133017169397 3.3390183448791504 -0.058663376185545194 -0.7218836247209581 0.5445201137867346 -0.018489591758245445 2.8449535695588155 -0.8972528683626539
4.91947603225708 -1.4690817159465333 -1.85715651512146 2.384878321284912 -1.5963953177081507 3.339048147201538 -0.05864537862981409 -0.7218792371638377 0.5445282339635378 -0.018496541164500505 2.844884878900302 -0.8971849693419405
4.919447898864746 -1.4690893453410645 -1.8572051525115967 2.384894533748291 -1.5963791052447718 3.3390302658081055 -0.058667325132897116 -0.7218710409233569 0.5444902298944843 -0.01847339294767148 2.844934846394995 -0.8971490241265271
4.919463634490967 -1.469090336268284 -1.8571475744247437 2.384906454677246 -1.596320931111471 3.339027166366577 -0.05866518140781531 -0.7218893121121239 0.5445369453572921 -0.018474953621637355 2.8449361322398965 -0.8972697519708039
4.919508457183838 -1.4691098642400284 -1.857181429862976 2.3849076467701416 -1.5963299910174769 3.339006185531616 -0.05862688243282515 -0.7218904217401736 0.5444983999136868 -0.018571415477422238 2.8449546705405213 -0.8971900656967162
4.919463634490967 -1.4690655705383797 -1.8571442365646362 2.384862108821533 -1.59633714357485 3.3390138149261475 -0.05866170077643073 -0.7218746804919813 0.5445480038940846 -0.018501740970491627 2.8449361198792387 -0.8972417493597845
4.919467926025391 -1.4690730732730408 -1.8571938276290894 2.384894533748291 -1.5963175932513636 3.3389809131622314 -0.05865766580954802 -0.7218702271990343 0.5445130538246649 -0.01854462131187081 2.844974448664671 -0.8972248627847533
4.919459342956543 -1.4690817159465333 -1.857161045074463 2.384878321284912 -1.5963504950152796 3.338973045349121 -0.05865296618678825 -0.7218774930525176 0.5445281115314433 -0.018559153442544628 2.844946829634283 -0.8972210895592073
4.919443607330322 -1.4690978911570092 -1.8571431636810303 2.3849031168171386 -1.59633714357485 3.3389732837677 -0.05866463018228066 -0.7218903559490273 0.5445355684049763 -0.018530560232121938 2.844945346366517 -0.8972669936357135
4.919455051422119 -1.469094769363739 -1.8571635484695435 2.3849195676990966 -1.5963671843158167 3.339010715484619 -0.058657813514256515 -0.721886881664165 0.5445236908530827 -0.018506973422021174 2.8449093803133723 -0.89724017909553
4.919455051422119 -1.4690731030753632 -1.85715651512146 2.3848911958881835 -1.5963581244098108 3.3390016555786133 -0.058660061947152176 -0.721877145632797 0.5445390055533466 -0.01851620432076527 2.8449186210901476 -0.8972471771327948
4.919484615325928 -1.4690773797086258 -1.8571770191192627 2.384890242213867 -1.5963566938983362 3.3389732837677 -0.058634197853865956 -0.721875046729237 0.5445212063105004 -0.018597366493218664 2.844934986557253 -0.8972131344843155
4.919431686401367 -1.4691466105035325 -1.8571397066116333 2.384902163142822 -1.5963581244098108 3.338994264602661 -0.05866885971896513 -0.7219073775891327 0.5445030361974397 -0.018492280120145806 2.844955093682905 -0.8971918637664164
4.9194183349609375 -1.4691184771111985 -1.8571044206619263 2.384890242213867 -1.5963791052447718 3.338994264602661 -0.05867434700372583 -0.721902875568059 0.544546424507068 -0.018484329597637 2.8449093673498305 -0.8972524137635965
4.919500827789307 -1.4691098642400284 -1.857184886932373 2.3848869043537597 -1.5963833967791956 3.338977575302124 -0.05861537625378231 -0.7218845410918165 0.5444912652235274 -0.018625541606289386 2.8449351882099188 -0.8971360593055476
