gadestri/Universal-robots-Hand-tracking-to-move-the-robot/RTDE/2022_03_18_12_38_58.csv
actual_q_0 actual_q_1 actual_q_2 actual_q_3 actual_q_4 actual_q_5 actual_TCP_pose_0 actual_TCP_pose_1 actual_TCP_pose_2 actual_TCP_pose_3 actual_TCP_pose_4 actual_TCP_pose_5
4.919456958770752 -1.4690774244121094 -1.8571574687957764 2.384923143977783 -1.5963414351092737 3.3389735221862793 -0.05865580146419849 -0.7218830233841304 0.5445427559789291 -0.018551437496758458 2.844922069668932 -0.8972972523064794
4.919480800628662 -1.4691551488688965 -1.8571768999099731 2.3849198061176757 -1.5963547865497034 3.3390302658081055 -0.058642079380833635 -0.7219072693453543 0.5444714397775678 -0.01850830741266954 2.844953762873543 -0.897139110824404
4.91947603225708 -1.4690774244121094 -1.8571724891662598 2.384923143977783 -1.5963881651507776 3.3389899730682373 -0.05863547999677915 -0.7218794622600799 0.5445297639152138 -0.018576149081244085 2.8448844197932064 -0.8972450003943435
4.919522285461426 -1.469142274265625 -1.857114315032959 2.384890003795288 -1.5963457266436976 3.338998556137085 -0.0586064454422007 -0.7219159848677174 0.5445230604304685 -0.018609835397069893 2.844929371173175 -0.8972032599656371
4.919467449188232 -1.4690774244121094 -1.8571768999099731 2.38487355291333 -1.5963791052447718 3.3390140533447266 -0.058649995804067864 -0.7218716944960236 0.5445162606599804 -0.01852506108791995 2.84492160649773 -0.8971740755132256
4.91943883895874 -1.4690936368754883 -1.857161045074463 2.3849198061176757 -1.5963504950152796 3.339055061340332 -0.058681999404381055 -0.7218871381014916 0.5445255249291303 -0.018413231886731638 2.8449139850219765 -0.8972487495541449
4.919459342956543 -1.4690807622722168 -1.8571566343307495 2.384927673930786 -1.596320931111471 3.338994264602661 -0.058662405935351256 -0.7218859675636633 0.5445418479885505 -0.018515870428597085 2.844931825670747 -0.8973063904304337
4.919492721557617 -1.4690850538066407 -1.857202410697937 2.384915514583252 -1.5963166395770472 3.3390183448791504 -0.058646377556135304 -0.7218772008395165 0.5445012624793449 -0.018525769739192753 2.844959444040201 -0.8972136717605073
4.919443607330322 -1.4690893453410645 -1.8571442365646362 2.384869261378906 -1.5963628927813929 3.339014768600464 -0.05866856837246376 -0.7218822532343885 0.5445322318698451 -0.01848320848021406 2.8449305861826915 -0.8972094258516414
4.91943883895874 -1.4690400597504158 -1.8571354150772095 2.384894533748291 -1.5963581244098108 3.3390183448791504 -0.05867635079074496 -0.721870154730003 0.5445780742429941 -0.01847070192885197 2.8448829861748814 -0.8973243134893463
4.919422626495361 -1.4690979284099122 -1.8571090698242188 2.384915514583252 -1.59633714357485 3.338960647583008 -0.05867521060204624 -0.721898865509815 0.54456412647475 -0.01851963795373425 2.844925017470305 -0.8973361000405425
4.919497013092041 -1.469114140873291 -1.8571857213974 2.384852810496948 -1.5963457266436976 3.3389813899993896 -0.05862801574584862 -0.7218820732989204 0.5444818204451777 -0.0185970866145116 2.844990179172282 -0.8971034593654621
4.919517517089844 -1.469090299015381 -1.8571478128433228 2.384870691890381 -1.596325699483053 3.338977813720703 -0.058616404392446 -0.7218868305388062 0.5445311406408889 -0.018623724431347147 2.8449524045455745 -0.897217869021989
4.919443607330322 -1.4691260618022461 -1.8571697473526 2.384878082866333 -1.5963085333453577 3.338982105255127 -0.05867276169433544 -0.7218914707733294 0.544491451991117 -0.018503434286601245 2.8450160906796635 -0.8971733006634778
4.919459342956543 -1.4691227239421387 -1.8571267127990723 2.384910984630249 -1.5963299910174769 3.339031219482422 -0.05866343690386118 -0.7219060190393188 0.5445307805635369 -0.01846699714427809 2.844933276144535 -0.8972555567210254
4.919443607330322 -1.469114140873291 -1.8571813106536865 2.384915276164673 -1.5962994734393519 3.339006185531616 -0.058680077581615434 -0.721890030715844 0.5444977587116069 -0.018465258193883127 2.8449943618856666 -0.8972239540744347
4.919492721557617 -1.4690936368754883 -1.8571442365646362 2.384915514583252 -1.5963671843158167 3.3389809131622314 -0.058623935357998536 -0.7218924252097376 0.5445391706270513 -0.01860339215337438 2.84489652449964 -0.8972606242736842
4.919471740722656 -1.4690655034831543 -1.8571522235870361 2.384861870402954 -1.5963118712054651 3.339043617248535 -0.05866787115116062 -0.7218742170989364 0.5445417068953526 -0.01845905656914864 2.844952375945715 -0.8972368166234793
4.919497013092041 -1.4690774244121094 -1.8571027517318726 2.3849198061176757 -1.596295181904928 3.3390016555786133 -0.05864019047245167 -0.7218996528175348 0.5445838078047796 -0.018548373815189093 2.8449102778145074 -0.8973775234591168
4.919461250305176 -1.4690936368754883 -1.8570984601974487 2.384903593654297 -1.5963705221759241 3.3390183448791504 -0.05865125764606263 -0.7219003147138032 0.5445702929808487 -0.018507900368954663 2.8448717723917785 -0.8973030912345223
4.919439315795898 -1.4690443512848397 -1.8571442365646362 2.384828968639038 -1.5963175932513636 3.3390347957611084 -0.058690260342027914 -0.7218619776693492 0.5445561317801968 -0.01842862428176592 2.844960562979316 -0.8972367635628106
4.919455051422119 -1.4691012662700196 -1.8571566343307495 2.3848914343067626 -1.5963414351092737 3.3389809131622314 -0.058657647153075115 -0.7218873786391822 0.5445204241270861 -0.01853744039248146 2.844954728677495 -0.8972225524870031
4.919483661651611 -1.4690697950175782 -1.8571653366088867 2.3848914343067626 -1.5963457266436976 3.3389854431152344 -0.05863970303909416 -0.7218757020635955 0.5445354556287924 -0.01857413686143 2.844928445770439 -0.8972442774601446
4.919382572174072 -1.4690611746958275 -1.8571857213974 2.38487355291333 -1.5963342825519007 3.339043617248535 -0.05872890224504512 -0.7218603722755281 0.5445211020730293 -0.018342013799561154 2.844968477550467 -0.897219030771796
4.919495582580566 -1.4690655034831543 -1.8571654558181763 2.384882612819336 -1.5963628927813929 3.338989734649658 -0.05862861670895403 -0.7218732331276434 0.5445360761478457 -0.01859285792229349 2.8449131705596904 -0.8972255937496092
4.919455051422119 -1.4691465658000489 -1.8571443557739258 2.384869261378906 -1.5963414351092737 3.3390390872955322 -0.05866571582157022 -0.7219041284416997 0.5444922205951201 -0.018453664684503282 2.8449748525362946 -0.8971367985561222
4.9194416999816895 -1.4690903213671227 -1.8571442365646362 2.384906454677246 -1.5963175932513636 3.338989734649658 -0.05867420895425023 -0.7218884691778705 0.5445406615095514 -0.018495646510996687 2.8449516257252587 -0.8972878086911706
4.919445991516113 -1.469081701045372 -1.8571937084197998 2.384894533748291 -1.5963957945453089 3.3389928340911865 -0.058657517184704924 -0.7218700643262339 0.5445048851576001 -0.018532081358159775 2.844918989859552 -0.8971735229331658
4.9194183349609375 -1.4690486055663605 -1.8571768999099731 2.384910984630249 -1.5963085333453577 3.338994264602661 -0.058698674601568565 -0.7218653148321357 0.5445458914933811 -0.018452087208541124 2.8449555795132566 -0.8973146633177854
4.919422626495361 -1.4690979284099122 -1.8571653366088867 2.384915276164673 -1.5963504950152796 3.339059829711914 -0.05869466307024017 -0.7218861237214194 0.5445182739733624 -0.01838317178261696 2.844925225674239 -0.8972333871008051
4.919517993927002 -1.4691639852574845 -1.8571275472640991 2.384899063701294 -1.5963705221759241 3.339007616043091 -0.058604551636070354 -0.7219209459006162 0.5444988682743519 -0.01860142742101341 2.8449242990040267 -0.8971542886113859
4.919422626495361 -1.4691098493388672 -1.8571680784225464 2.384943647975586 -1.596320931111471 3.3390347957611084 -0.0586949236841086 -0.7218940639477467 0.5445149214719356 -0.01840513982842182 2.8449469563329943 -0.8972726953780902
4.919467449188232 -1.469142274265625 -1.8571654558181763 2.384932203883789 -1.5963223616229456 3.3389973640441895 -0.05865260364378004 -0.7219068275105379 0.5444932190847829 -0.018522008699432463 2.844968819885456 -0.8972150131452149
4.919447898864746 -1.4691141557744523 -1.8571311235427856 2.384899063701294 -1.5963175932513636 3.339015007019043 -0.05867247387109266 -0.7218997626801478 0.5445318463997516 -0.018468162403411467 2.844955095464846 -0.8972572122493535
4.919427394866943 -1.4691184547594567 -1.8571741580963135 2.384890003795288 -1.5964000860797327 3.338994264602661 -0.05866663850239644 -0.7218860378268321 0.5444931222314384 -0.01850515342908915 2.844933543527956 -0.8971454092192153
4.91941499710083 -1.4691141557744523 -1.8571311235427856 2.384890003795288 -1.596325699483053 3.338994264602661 -0.05869053124674812 -0.7218961367051554 0.5445304876270264 -0.018454602189125296 2.8449677853834476 -0.8972512990395065
4.919471740722656 -1.4690528896502038 -1.8571486473083496 2.3849140840717773 -1.5963457266436976 3.339010715484619 -0.058653112849388636 -0.7218763720184438 0.5445635000869528 -0.018522159110631847 2.8448904553628163 -0.8973172627391491
4.919458389282227 -1.4690936219743271 -1.8571654558181763 2.384828968639038 -1.5963042418109339 3.338998794555664 -0.05866982597543845 -0.7218754680269568 0.5445072517257101 -0.018499224700434306 2.845019134346606 -0.8971525704796344
4.919427394866943 -1.4691174414804955 -1.8571724891662598 2.3848914343067626 -1.596325699483053 3.339036226272583 -0.058691704113941714 -0.7218887821406239 0.5444959603966646 -0.018411412600050157 2.844981268181419 -0.8971824723515119
4.919491291046143 -1.469090313916542 -1.857202410697937 2.384845419520996 -1.596320931111471 3.339015007019043 -0.05864721208682895 -0.7218693128216846 0.5444839187652852 -0.018529843233251617 2.845003789085136 -0.8971108549707022
4.919517517089844 -1.4691184547594567 -1.8571654558181763 2.3849198061176757 -1.596328083668844 3.339010715484619 -0.05861989506346568 -0.7218996062036499 0.5445068067218554 -0.01857722447231766 2.8449406134320068 -0.8972146854506559
4.919431686401367 -1.4691141334227105 -1.8572465181350708 2.384903593654297 -1.5963414351092737 3.339048147201538 -0.05869112096920612 -0.7218714275527324 0.5444438930219883 -0.018406147304866234 2.845001014214763 -0.8970922048048466
4.919455051422119 -1.4691022348454972 -1.8571653366088867 2.38487355291333 -1.5963166395770472 3.3389854431152344 -0.05866498891981205 -0.7218839278918784 0.5445101526794844 -0.01851928385057991 2.8449908867458173 -0.8971978660337562
4.919445037841797 -1.4691260767034073 -1.8571768999099731 2.384899063701294 -1.5963414351092737 3.339027166366577 -0.05867300490280847 -0.7218923335427689 0.5444879967288856 -0.018456333484933318 2.844969464770285 -0.8971650896580481
4.919487953186035 -1.4690611895969887 -1.8571398258209229 2.384906454677246 -1.5963342825519007 3.3389809131622314 -0.058637242366483565 -0.7218813172920349 0.5445640765170416 -0.01858235587163386 2.8449071664849446 -0.8973165123337932
4.919467449188232 -1.469114215379097 -1.8571566343307495 2.384906454677246 -1.596353832875387 3.3390016555786133 -0.05864863597623365 -0.7218946644040694 0.5445134517339422 -0.01853099279141085 2.844935119380013 -0.8972121738080947
4.919471740722656 -1.4691055429032822 -1.857135534286499 2.3848811823078613 -1.596374813710348 3.339010715484619 -0.058642802702423766 -0.7218930079898231 0.5445297216928263 -0.01853431977215007 2.8449117967370086 -0.8972042490715975
4.919463634490967 -1.4690611746958275 -1.8571479320526123 2.38487355291333 -1.5963414351092737 3.3390016555786133 -0.05865854727926369 -0.721873521882211 0.5445507464712855 -0.01852111790392252 2.8449280751200736 -0.8972582129542774
4.919471740722656 -1.4690936219743271 -1.8572421073913574 2.3848811823078613 -1.5963628927813929 3.3390016555786133 -0.05865005350588638 -0.7218633642634373 0.5444579355795811 -0.018539521293499544 2.84498272095236 -0.8970852865434201
4.919520854949951 -1.4690807175687333 -1.8571486473083496 2.384866161937378 -1.5963504950152796 3.339052438735962 -0.058623995970513765 -0.7218830136918667 0.5445334790738009 -0.018533717302556145 2.844910536682623 -0.8971947847541106
4.919485092163086 -1.4691303756884118 -1.8572181463241577 2.38487355291333 -1.5963299910174769 3.3390228748321533 -0.05864828741518248 -0.7218830913053236 0.5444492359084739 -0.018512861984895188 2.8450135015589995 -0.8970685962245537
4.919422626495361 -1.4691098493388672 -1.8571398258209229 2.384849949473999 -1.596328083668844 3.33903169631958 -0.05869368305847551 -0.7218878987298172 0.5445179178249662 -0.018412841292863937 2.8449822506897684 -0.8971812476714595
4.919447898864746 -1.4691141259721299 -1.8571398258209229 2.384915276164673 -1.5963671843158167 3.339043617248535 -0.05866693242613548 -0.721898859348998 0.5445263921674954 -0.018450032589260923 2.8449031666563145 -0.8972351574999113
4.919422626495361 -1.4690893229893227 -1.8571768999099731 2.3849198061176757 -1.596325699483053 3.3389809131622314 -0.0586858012751581 -0.721880633938381 0.5445193113054152 -0.018484164718262204 2.8449636657067825 -0.8972644383621029
4.919492721557617 -1.4690978911570092 -1.8571072816848755 2.384890003795288 -1.5962994734393519 3.3389809131622314 -0.05863770642030046 -0.7219011886366128 0.5445608537250849 -0.018572987176007503 2.844946989953593 -0.8973064708460379
4.91943883895874 -1.4691065338305016 -1.8571319580078125 2.384885712260864 -1.5963457266436976 3.338998556137085 -0.05867035805834385 -0.7218935486450235 0.5445336939057744 -0.018491664620740374 2.844942626293141 -0.8972383351313259
4.919463634490967 -1.4690697950175782 -1.8571566343307495 2.384861631984375 -1.596325699483053 3.3389973640441895 -0.05866137375453408 -0.7218732547029059 0.5445363620845781 -0.01851953363728262 2.844960094602761 -0.8972281688267562
4.919480800628662 -1.4691509392908593 -1.8571319580078125 2.3849288660236816 -1.596325699483053 3.339010715484619 -0.0586425740143737 -0.7219183603283819 0.5445114176545008 -0.01852405845117854 2.8449459306440636 -0.8972367945310217
4.919471740722656 -1.4691227090409775 -1.8570959568023682 2.384870691890381 -1.5963581244098108 3.3390183448791504 -0.05864505470282095 -0.7219077464963015 0.544545879581086 -0.01851627413469921 2.844916023766304 -0.8972276524789576
4.919529914855957 -1.4690979284099122 -1.857230544090271 2.384882612819336 -1.596402947102682 3.339027166366577 -0.05860308742483927 -0.7218704990714861 0.5444622405933363 -0.018604363574347683 2.844923269236304 -0.8970589180933896
4.919471740722656 -1.4691184547594567 -1.8571654558181763 2.384878082866333 -1.5963042418109339 3.3389854431152344 -0.05865442806284596 -0.7218916012825738 0.544499988121419 -0.018536969402809814 2.8450039769676327 -0.897185349420893
4.919471740722656 -1.469114178126194 -1.8571724891662598 2.384870691890381 -1.5963457266436976 3.3389766216278076 -0.05864417240276099 -0.7218861575747113 0.5444954353944035 -0.018568406411874273 2.8449786750916592 -0.8971512178730671
4.919480800628662 -1.469118484561779 -1.8572137355804443 2.384833498592041 -1.5963085333453577 3.3390183448791504 -0.0586570442392638 -0.7218747551997557 0.5444536700570971 -0.01850349717444745 2.8450478029498543 -0.8970497988256847
4.91943883895874 -1.4690655034831543 -1.8571566343307495 2.384930296535156 -1.5963175932513636 3.3389642238616943 -0.05867309619550362 -0.7218794243407265 0.544553919095998 -0.018528367296003472 2.844936100968547 -0.8973422272122897
4.919459342956543 -1.4691303756884118 -1.8571312427520752 2.384878082866333 -1.5963414351092737 3.3390016555786133 -0.058655528495718146 -0.7219025253040297 0.5445162040519119 -0.018513822169053437 2.844959121615373 -0.8971946116421279
4.919487953186035 -1.4690978911570092 -1.857120394706726 2.384894533748291 -1.596325699483053 3.3390183448791504 -0.05864316193892647 -0.7218981067759282 0.5445500757288986 -0.018524634462395797 2.844923164673621 -0.8972744328217659
4.919487953186035 -1.469122753744461 -1.8572181463241577 2.384887142772339 -1.59633714357485 3.3389523029327393 -0.05863088083585194 -0.7218813630881741 0.5444590771876635 -0.018620980217354643 2.845010963695755 -0.897106722190705
4.919492721557617 -1.469114140873291 -1.8571319580078125 2.3849198061176757 -1.596365753804342 3.339043617248535 -0.05863437673446081 -0.7219040383551101 0.544533253374078 -0.018513279731715165 2.844884882098444 -0.8972436884392807
4.919504642486572 -1.4691346523216744 -1.8571529388427734 2.384894533748291 -1.5963776747332972 3.3390555381774902 -0.058625635087164195 -0.7219033805311255 0.5444975617336366 -0.018517541848503568 2.844910662563964 -0.8971428045732642
4.919483661651611 -1.4691098642400284 -1.8571653366088867 2.3849078851887207 -1.5963628927813929 3.3389973640441895 -0.05863476734258436 -0.7218918732131845 0.5445100728786672 -0.0185641933953204 2.844926375150213 -0.8972010400459799
4.91943883895874 -1.4691098642400284 -1.857161045074463 2.38493196546521 -1.5962994734393519 3.33903169631958 -0.058687404210669925 -0.7218956683682582 0.5445185687207852 -0.018422848376161746 2.8449637668885783 -0.8972752877852868
4.919467926025391 -1.4691022050431748 -1.8571398258209229 2.384890003795288 -1.5963628927813929 3.339006185531616 -0.058647596973790676 -0.7218920319847466 0.5445309404968798 -0.0185299318438635 2.844918733744035 -0.8972228884501838
4.919455051422119 -1.4690774020603676 -1.8571574687957764 2.384882612819336 -1.5962966124164026 3.3389599323272705 -0.05866568886333084 -0.7218784511893758 0.5445363568656221 -0.018547277183475524 2.8449874020997803 -0.8972697827594286
4.91947603225708 -1.4691303756884118 -1.8571813106536865 2.384936495418213 -1.5963085333453577 3.3389642238616943 -0.058644575747327336 -0.7218998500325153 0.544491637045914 -0.018575003391485385 2.8449857053230874 -0.8972277543813107
4.919520854949951 -1.4691304129413147 -1.8572050333023071 2.384910984630249 -1.5963342825519007 3.3390016555786133 -0.05861566159728346 -0.7218930704950205 0.5444669545855746 -0.01859642970886664 2.8449744933316907 -0.8971313890875476
4.919471740722656 -1.469086007480957 -1.8571443557739258 2.384927435512207 -1.5963133017169397 3.339036226272583 -0.05866245609872803 -0.7218921834563432 0.5445464035459913 -0.018470399783091344 2.8449203175244633 -0.8973088303945893
4.919492721557617 -1.4691098493388672 -1.8571697473526 2.384899063701294 -1.5963323752032679 3.338989734649658 -0.058634079861790776 -0.7218908766336535 0.544505996849949 -0.01857379423572853 2.8449588798526015 -0.8971993212083514
4.919480800628662 -1.4691065338305016 -1.8571724891662598 2.38493458806958 -1.5963504950152796 3.338994264602661 -0.05863894452163612 -0.7218927264962474 0.5445125827842698 -0.01855896213834629 2.8449238265150365 -0.8972396893467727
4.919455051422119 -1.4691184771111985 -1.8572068214416504 2.384866161937378 -1.5963042418109339 3.338989734649658 -0.05866974983518655 -0.7218791183824018 0.5444662268047392 -0.01850608319330257 2.8450404877978515 -0.8971161535911191
4.919422626495361 -1.4690936145237465 -1.857131838798523 2.384885712260864 -1.5963414351092737 3.339010715484619 -0.058686387883428795 -0.7218882879071331 0.5445425034825826 -0.01844965461339621 2.8449392772415996 -0.8972589545457258
4.91947603225708 -1.469086007480957 -1.8571574687957764 2.384906454677246 -1.596325699483053 3.3389732837677 -0.05864534071112432 -0.7218853534480788 0.5445339306821331 -0.018571354591342567 2.8449456024042257 -0.8972679432705888
4.919422626495361 -1.469069780116417 -1.8571937084197998 2.384845419520996 -1.5963414351092737 3.339006185531616 -0.05869147925711109 -0.7218594094495774 0.544504515756406 -0.01845491850279704 2.8449890332508487 -0.8971545015864156
4.919424057006836 -1.4691227611950417 -1.857168197631836 2.384861870402954 -1.5962994734393519 3.3390016555786133 -0.0586933725023491 -0.7218877959102326 0.5444913998549712 -0.01844366645177362 2.8450308282453367 -0.8971628366468547
4.919525146484375 -1.4690366846374054 -1.8571937084197998 2.384943647975586 -1.5963581244098108 3.3389809131622314 -0.05860861451358989 -0.7218662328347348 0.5445470055807212 -0.01864567614906255 2.844873335615615 -0.8973069956658324
4.91945219039917 -1.4690697950175782 -1.8571653366088867 2.384910984630249 -1.5963457266436976 3.338989734649658 -0.05866276058156067 -0.7218765621434708 0.5445391464810839 -0.01852344708594383 2.8449235539246174 -0.8972759918004
4.919480800628662 -1.4691303756884118 -1.8571398258209229 2.3849198061176757 -1.5963566938983362 3.338977575302124 -0.05863118585587429 -0.7219066889120839 0.5445181890379636 -0.018585677355564035 2.84492648826097 -0.8972316149338703
4.919447898864746 -1.4690936219743271 -1.8571937084197998 2.3849078851887207 -1.596325699483053 3.3390228748321533 -0.05867669510336142 -0.721878484632331 0.5445000514853404 -0.018459732119666783 2.844967354462463 -0.8972067067210624
4.919525146484375 -1.4690936294249077 -1.8571724891662598 2.384890242213867 -1.5963133017169397 3.339010715484619 -0.05862070622307093 -0.721885913258009 0.544513315494502 -0.018581507219185115 2.8449578414517007 -0.897205185153206
4.919455051422119 -1.4691065785339852 -1.8571813106536865 2.384887142772339 -1.5963495413409632 3.339059829711914 -0.058672377972496435 -0.7218834702680137 0.5444947141906324 -0.01842802606711562 2.8449502630524073 -0.8971565068663709
4.919466972351074 -1.4690936219743271 -1.8571443557739258 2.384869261378906 -1.5963581244098108 3.3389973640441895 -0.05864903131109877 -0.7218850401039492 0.5445298000057401 -0.01853890562125657 2.844935319925769 -0.8972048933618012
4.919422626495361 -1.469081701045372 -1.8571275472640991 2.384882612819336 -1.5963085333453577 3.3390183448791504 -0.058696083447008066 -0.7218856383139483 0.5445540008710633 -0.018424084121592417 2.844955995077274 -0.8972926652834082
4.919520854949951 -1.469114140873291 -1.8572138547897339 2.384915276164673 -1.5963414351092737 3.339006185531616 -0.05861648835280284 -0.7218856025750466 0.544472109659592 -0.018593455763481946 2.844960275931654 -0.8971424502506377
4.91946268081665 -1.4691098493388672 -1.857143521308899 2.384885712260864 -1.5963504950152796 3.339047908782959 -0.058662159764646865 -0.7218938035805398 0.5445210779661633 -0.018457087643150544 2.8449297522239867 -0.897201287665191
4.919434547424316 -1.4691466030529519 -1.8571486473083496 2.384873791331909 -1.5963323752032679 3.3390228748321533 -0.05867946465097151 -0.7219025756338086 0.5444905308015917 -0.018443401733782058 2.8449914412724913 -0.8971492130091169
4.919443607330322 -1.4690850538066407 -1.857161045074463 2.384910984630249 -1.5963504950152796 3.3390302658081055 -0.05867452794510861 -0.7218828716563865 0.5445304907403705 -0.018455457947324908 2.8449188852909932 -0.8972523704027526
4.919467449188232 -1.4691098493388672 -1.8571522235870361 2.384906454677246 -1.596353832875387 3.339027166366577 -0.05865377254724181 -0.7218944728891917 0.5445190712545127 -0.01849486959639795 2.844923433249755 -0.8972189085509579
4.919485092163086 -1.4691098493388672 -1.8570915460586548 2.384882612819336 -1.5963457266436976 3.3390390872955322 -0.05864273714822771 -0.7219072125689789 0.5445601686878756 -0.018500518344321013 2.8448994125900464 -0.8972667918800136
4.91951322555542 -1.4690731328776856 -1.8572181463241577 2.3849033552357177 -1.5963166395770472 3.339015007019043 -0.05863292551942921 -0.7218686877221141 0.5444953602105019 -0.01855947895035501 2.844964787974364 -0.8971887735449923
4.919522285461426 -1.4690979284099122 -1.8571856021881104 2.384894533748291 -1.5963457266436976 3.3389973640441895 -0.05861304075507771 -0.7218836703407332 0.5445008445538028 -0.018610919505372355 2.8449436708447755 -0.8971734152655884
4.919458389282227 -1.469090299015381 -1.857202410697937 2.384845419520996 -1.5962994734393519 3.339010715484619 -0.05867497018128828 -0.7218679073554276 0.54448458165339 -0.018479383525762495 2.8450309020372377 -0.8971297393392115
4.91949987411499 -1.4690612119487305 -1.8571770191192627 2.384923143977783 -1.596320931111471 3.3390347957611084 -0.058643766331485575 -0.7218763527304086 0.5445379277385518 -0.018515682085395502 2.844914655312234 -0.897283107606427
4.919434547424316 -1.4690443512848397 -1.8571275472640991 2.384915276164673 -1.5963414351092737 3.33903169631958 -0.05868459965323118 -0.7218767472935534 0.544585113638919 -0.018438179665871964 2.8448793652190707 -0.8973641944996876
4.919427394866943 -1.4690774244121094 -1.8572094440460205 2.38493458806958 -1.596320931111471 3.339006185531616 -0.05869059460415317 -0.7218712928826367 0.5445052146485121 -0.018452378269202985 2.844963867888595 -0.8972532154060721
4.919483661651611 -1.4690366995385666 -1.8571654558181763 2.384906454677246 -1.5963414351092737 3.3390347957611084 -0.05865249619133682 -0.7218666349462847 0.5445599347672555 -0.01850276787091204 2.8448900653944516 -0.8973013247227266
4.919443607330322 -1.46913035333667 -1.8571486473083496 2.384899063701294 -1.5963133017169397 3.339006185531616 -0.05867449371467753 -0.7219010753934216 0.5445077062460019 -0.01847186819985649 2.844982882843802 -0.8972168085078888
4.919504642486572 -1.469114140873291 -1.85719633102417 2.3849610525318603 -1.596325699483053 3.3389642238616943 -0.058621376769317377 -0.7218950101121104 0.544495920673988 -0.018623709105759882 2.8449482949547407 -0.8972475938989446
4.91951322555542 -1.4690688413432618 -1.8571768999099731 2.38491074621167 -1.596325699483053 3.3389687538146973 -0.05861975672564999 -0.7218772839881165 0.5445321214576542 -0.018630623878769965 2.8449357164298963 -0.8972642102563765
4.919422626495361 -1.4690893453410645 -1.8571443557739258 2.384894533748291 -1.596320931111471 3.339006185531616 -0.05869086007042439 -0.7218854593803915 0.5445383569656452 -0.018446583333202676 2.844956744106549 -0.8972716377337636
4.91945219039917 -1.4690936368754883 -1.8571724891662598 2.384887142772339 -1.596328083668844 3.3389523029327393 -0.05865857308009312 -0.7218801244577353 0.5445140570030956 -0.018567781692726534 2.8449810940102487 -0.897219113793759
4.919495582580566 -1.4691152659109612 -1.8571724891662598 2.3849524694630126 -1.596320931111471 3.3390347957611084 -0.05864185072206139 -0.7219004097268054 0.5445095456901837 -0.01850862804682069 2.8449285024980453 -0.8972569147381982
4.91941499710083 -1.4690817159465333 -1.857202410697937 2.384894533748291 -1.596325699483053 3.3390138149261475 -0.05870033438418877 -0.7218683043424086 0.5444993949052652 -0.018425866360559328 2.844984451290865 -0.8972013472809165
4.919422626495361 -1.469114140873291 -1.8571653366088867 2.384890003795288 -1.5963299910174769 3.339047908782959 -0.05869639897652201 -0.7218888747167642 0.5445029356337701 -0.01839020185302484 2.844970548714626 -0.8971909192746258
4.919431686401367 -1.4691098567894478 -1.8571486473083496 2.384901924724243 -1.596370045338766 3.3390512466430664 -0.05868061162458904 -0.7218924681562497 0.5445197823499888 -0.01841724007148013 2.844914330538905 -0.8972112319610438
4.919517993927002 -1.4690774244121094 -1.8571653366088867 2.384882612819336 -1.5963342825519007 3.3389973640441895 -0.05861952421057502 -0.7218796833673091 0.5445283665385624 -0.018600459946069015 2.844936063427262 -0.8972191125619168
4.919471740722656 -1.4690774244121094 -1.8571937084197998 2.38491074621167 -1.5963414351092737 3.3389809131622314 -0.058648767956980936 -0.7218735846420049 0.5445127029516149 -0.018560970523165254 2.844946662788283 -0.8972274817813176
4.91943883895874 -1.4691098493388672 -1.85720694065094 2.384890242213867 -1.5963833967791956 3.339043617248535 -0.0586742102639698 -0.7218768350394216 0.5444733045725045 -0.018442916213571643 2.8449470263112557 -0.8971101463043163
4.919427394866943 -1.4690817159465333 -1.8571680784225464 2.384873791331909 -1.596325699483053 3.338994264602661 -0.058686305695996734 -0.721874235364664 0.5445218917628346 -0.01847199133116207 2.8449773912951994 -0.8972209501701318
4.919506072998047 -1.4690979284099122 -1.8571442365646362 2.384894533748291 -1.59629995027651 3.338994264602661 -0.058632368433683635 -0.7218938644554331 0.5445333518567418 -0.018572319206882997 2.844960114593804 -0.8972573329504062
4.9194254875183105 -1.4691065114787598 -1.8571443557739258 2.3849186140247802 -1.596370045338766 3.339027166366577 -0.05867992637010922 -0.7218939268172322 0.5445293172548145 -0.018443022971609945 2.8449067350535087 -0.8972499670581479
4.919440746307373 -1.4690979284099122 -1.8571319580078125 2.384922905559204 -1.5963414351092737 3.3390390872955322 -0.0586776287973302 -0.7218962448492273 0.5445458460790066 -0.01843515185196906 2.8449073649778063 -0.8972938715457752
4.919422626495361 -1.469102219944336 -1.8571443557739258 2.384906454677246 -1.596407715474264 3.3389854431152344 -0.05866586628656317 -0.7218890667434741 0.5445302248077926 -0.01851563868395679 2.8448918586400547 -0.897228014743719
4.919471740722656 -1.4690893453410645 -1.857202410697937 2.384890003795288 -1.596381966267721 3.339043617248535 -0.058652081202938966 -0.7218725639491065 0.5444909574730397 -0.01848959704280561 2.844924111523404 -0.897137702896358
4.919483661651611 -1.4690936368754883 -1.8571741580963135 2.3849033552357177 -1.5963123480426233 3.3389854431152344 -0.058645622365269386 -0.7218845896154347 0.5445153729288912 -0.018558170516187845 2.844968580043384 -0.8972343318083829
4.919459342956543 -1.4691152659109612 -1.8571594953536987 2.384885712260864 -1.596353832875387 3.3390016555786133 -0.058655095508915026 -0.7218910580348832 0.5445065084414846 -0.018519237625354127 2.844952516507813 -0.8971805923875026
4.919450283050537 -1.4690569204143067 -1.857161045074463 2.384927435512207 -1.5963323752032679 3.3389599323272705 -0.0586615820103497 -0.7218751414886732 0.5445557470145287 -0.01855758434259209 2.8449212940823543 -0.8973346443088602
4.919459342956543 -1.469114140873291 -1.8571637868881226 2.384878082866333 -1.5963581244098108 3.3390183448791504 -0.058657922272213656 -0.7218886714553133 0.5445019584429774 -0.018497306120215457 2.8449516554786256 -0.8971604583114522
4.9194793701171875 -1.469074086552002 -1.8571653366088867 2.384873791331909 -1.5963910261737269 3.339010715484619 -0.05863768463666014 -0.7218736549023219 0.544527178276442 -0.018552563557871847 2.844900160663121 -0.8971863261729348
4.919492721557617 -1.469114140873291 -1.8571813106536865 2.384873791331909 -1.5963671843158167 3.339006185531616 -0.058630385072395125 -0.7218854445753666 0.5444879987441805 -0.018565750390543187 2.8449520809274427 -0.897122080648652
4.919467449188232 -1.4690979284099122 -1.857161045074463 2.384885712260864 -1.5963581244098108 3.338982105255127 -0.05864578040170569 -0.721884643051723 0.544517843721692 -0.01856093242690002 2.8449418238487447 -0.897201772405665
4.919506072998047 -1.4690979284099122 -1.8571443557739258 2.38491074621167 -1.5963042418109339 3.3390228748321533 -0.058636632129938776 -0.7218962603990461 0.5445354817607592 -0.018533649466927107 2.8449396971393037 -0.8972710365228561
4.919485092163086 -1.4690612119487305 -1.8571231365203857 2.38491074621167 -1.5963714758502405 3.3390016555786133 -0.0586340230970179 -0.7218849896564927 0.544576003535059 -0.018566205803108592 2.844859563694484 -0.8973212089104792
4.91946268081665 -1.4691227239421387 -1.8571856021881104 2.384906454677246 -1.5963414351092737 3.3390228748321533 -0.05865992373511318 -0.7218910366834197 0.5444853104981315 -0.018487437552802834 2.8449646499871757 -0.8971652118136322
4.919467449188232 -1.469142274265625 -1.8571768999099731 2.384902163142822 -1.596349064503805 3.338989734649658 -0.05864642392903817 -0.7218991834186099 0.5444782659425836 -0.018544618152720016 2.844974680845274 -0.8971463913563996
4.919455051422119 -1.469114140873291 -1.857168197631836 2.384873791331909 -1.5963500181781214 3.338982105255127 -0.05865603477421745 -0.7218865668085677 0.5444990466446384 -0.018538972861221543 2.844973606763852 -0.8971611283396489
4.919467449188232 -1.4690979284099122 -1.857202410697937 2.3849076467701416 -1.5963323752032679 3.338989734649658 -0.058654659253812 -0.7218784668838303 0.5444912403956252 -0.018537453600386947 2.8449731314149003 -0.8971880267043704
4.919517993927002 -1.469074086552002 -1.8571398258209229 2.3848368364521484 -1.5963495413409632 3.339015007019043 -0.05861968914107065 -0.7218782053604155 0.5445401543726526 -0.018582681976372337 2.8449296907984984 -0.8971845485931295
4.919463634490967 -1.4690774169615288 -1.8571159839630127 2.3848694997974853 -1.5963299910174769 3.3389854431152344 -0.058655196648022184 -0.7218865474561544 0.5445636027540273 -0.018539312766503974 2.844934042314963 -0.8972831930777884
4.91947603225708 -1.469142274265625 -1.8572138547897339 2.3848575788685302 -1.5963414351092737 3.3389854431152344 -0.05864415815683173 -0.7218849024841685 0.5444419198069802 -0.018558246875966026 2.8450303061218314 -0.8970399433166248
4.91947603225708 -1.4691012662700196 -1.8571724891662598 2.384870691890381 -1.596328083668844 3.339006185531616 -0.058651863376428026 -0.7218826421192063 0.5445039662139635 -0.018524627152558842 2.8449766524296507 -0.8971713080506665
4.919447898864746 -1.4690893453410645 -1.857153058052063 2.38493458806958 -1.5963791052447718 3.3389854431152344 -0.05865476528746535 -0.7218884706580153 0.5445387755311488 -0.018538740738022225 2.8448885000709643 -0.8972818253985614
4.919471740722656 -1.4690969747355958 -1.8571159839630127 2.3849186140247802 -1.5963166395770472 3.3389854431152344 -0.058649633906876414 -0.7219010152201688 0.544559938262865 -0.01854460075055357 2.8449245771471636 -0.8973286041702121
4.919471740722656 -1.4691131871989747 -1.8571653366088867 2.384946747417114 -1.5963457266436976 3.338989734649658 -0.05864449184242762 -0.7218980088601505 0.5445159974912439 -0.018550455754238398 2.844923346800782 -0.8972619810393091
4.919427394866943 -1.4691022273949166 -1.8572217226028442 2.3849033552357177 -1.5963414351092737 3.3389973640441895 -0.05868381164982282 -0.7218722668149103 0.544472361951757 -0.01847323705089634 2.8449917780215443 -0.8971521010152934
4.919422626495361 -1.4691271868399163 -1.8571486473083496 2.38491074621167 -1.5963175932513636 3.338989734649658 -0.058685351981276584 -0.721899993147927 0.544512563341947 -0.018467606591094914 2.844979697713416 -0.8972419135970657
4.919450283050537 -1.4691174787333985 -1.8571654558181763 2.38491074621167 -1.596365753804342 3.3389732837677 -0.05865282625861022 -0.7218926226937482 0.5445058905551656 -0.01855220978793968 2.844941713202659 -0.8972043573708396
4.919471740722656 -1.4690979284099122 -1.8571637868881226 2.3849240976520996 -1.5963581244098108 3.338989734649658 -0.05864333139358789 -0.7218895393077227 0.5445230394696757 -0.018556368488277943 2.8449168002491416 -0.8972474192266611
4.9194183349609375 -1.4690612119487305 -1.8571654558181763 2.3849186140247802 -1.5963414351092737 3.339064359664917 -0.058703353389763624 -0.7218735274827135 0.5445444199364862 -0.018367358678039108 2.8449077389336153 -0.8972918559024133
4.919480800628662 -1.4690936368754883 -1.8571979999542236 2.384906454677246 -1.5963414351092737 3.339043617248535 -0.05865373661843987 -0.7218790140771938 0.5444955202554231 -0.0184840328020054 2.844944449513117 -0.8971799347570253
4.919434547424316 -1.4690850538066407 -1.8571891784667969 2.384939118022583 -1.5963414351092737 3.3390302658081055 -0.05868382637481901 -0.7218796442743847 0.5445149223626955 -0.018437968191528077 2.8449287645357986 -0.8972591145870449
4.919443607330322 -1.4690443512848397 -1.8571653366088867 2.384894533748291 -1.5963671843158167 3.3390183448791504 -0.058672071744325205 -0.7218645268355346 0.5445522358345729 -0.018480815582948642 2.8448957010366214 -0.8972725563866497
4.91946268081665 -1.4690400597504158 -1.8571442365646362 2.38491074621167 -1.5963414351092737 3.3390228748321533 -0.05866383984130263 -0.7218721406817183 0.5445748422602058 -0.018490388079412327 2.8448846759358632 -0.8973376138852464
4.919525623321533 -1.4690936368754883 -1.8571768999099731 2.3849195676990966 -1.59629995027651 3.33901047706604 -0.058622797648572866 -0.7218892250701195 0.5445160333024263 -0.018576511273311988 2.8449532436924887 -0.8972458476251703
4.919443607330322 -1.4691551488688965 -1.8571937084197998 2.384894533748291 -1.5963628927813929 3.339048147201538 -0.05867214479778181 -0.7218976065228289 0.544453066893084 -0.01843313179509425 2.844978676910804 -0.8970819822572214
4.919467926025391 -1.4690731328776856 -1.8571768999099731 2.384873791331909 -1.596325699483053 3.3389687538146973 -0.058653099134796105 -0.7218711363382844 0.5445219268886465 -0.018565903245869687 2.8449731327172856 -0.897217655205893
4.919498443603516 -1.4691055503538628 -1.857135534286499 2.384927435512207 -1.5963323752032679 3.338961362838745 -0.05862217626871967 -0.72190142158351 0.5445412362776385 -0.01862343644605963 2.84492272169852 -0.8972937509969952
4.919455051422119 -1.469102219944336 -1.8571680784225464 2.3849186140247802 -1.5963457266436976 3.3390183448791504 -0.05866387676719381 -0.7218889860428547 0.5445152064897679 -0.01848599499087823 2.8449330329820963 -0.8972327835493197
4.919406414031982 -1.469074086552002 -1.857135534286499 2.384885712260864 -1.5962756315814417 3.33903169631958 -0.05871876028183834 -0.7218815255065125 0.5445542666943513 -0.018366980295400095 2.8449820674433783 -0.8973145335303666
4.919447898864746 -1.4690612119487305 -1.8571486473083496 2.384898825282715 -1.596374813710348 3.3390183448791504 -0.05866502874441888 -0.721875166698068 0.5445538047334167 -0.018490435467757013 2.844885817528992 -0.8972731641999558
4.919471740722656 -1.4690979284099122 -1.8571805953979492 2.3848978716083984 -1.5963495413409632 3.3390228748321533 -0.05865335989004406 -0.7218825625557195 0.5445044413071953 -0.01850466214155761 2.8449424164613486 -0.8971875532496665
4.919410705566406 -1.4690936368754883 -1.857161045074463 2.384882612819336 -1.5963299910174769 3.3390016555786133 -0.05869736678624086 -0.7218803583440447 0.5445203348092436 -0.01843966578115595 2.8449740604183935 -0.8972258056880121
4.919422626495361 -1.4691217553666611 -1.8571892976760864 2.384861870402954 -1.5963085333453577 3.3390302658081055 -0.058699160791775784 -0.7218823752871569 0.5444750742949451 -0.018404560774270835 2.845029392646597 -0.8971256051804407
4.919455051422119 -1.4690979284099122 -1.8571566343307495 2.384898825282715 -1.5963495413409632 3.339006185531616 -0.05866086025399042 -0.7218872744869201 0.5445232440898057 -0.018505290922728308 2.8449353255015097 -0.8972276391924691
4.919483661651611 -1.4691055578044434 -1.8571813106536865 2.3849519926258544 -1.59633714357485 3.3389642238616943 -0.05863403859026384 -0.7218927956318604 0.5445111942221705 -0.0185996317065453 2.8449353771061503 -0.8972651281998084
4.919459342956543 -1.4691110041788598 -1.857181191444397 2.384878321284912 -1.5963495413409632 3.339006185531616 -0.0586585806900098 -0.7218834923883648 0.5444915841176751 -0.01851035647560642 2.8449703485009685 -0.8971486214894535
4.91943883895874 -1.4690526288798829 -1.8571892976760864 2.384922905559204 -1.5963133017169397 3.338998794555664 -0.058683715094356145 -0.7218665142730198 0.5445357961571777 -0.018476647766945343 2.8449480854673546 -0.8973011422996321
4.919443607330322 -1.4690936368754883 -1.8571768999099731 2.3848869043537597 -1.5963495413409632 3.339010715484619 -0.05867168257825493 -0.7218786396204337 0.5445084328154888 -0.01848211717760378 2.844954558965928 -0.8971914986408753
4.919458389282227 -1.4690969300321122 -1.8571566343307495 2.3848740297504882 -1.59633714357485 3.3390016555786133 -0.05866107939312828 -0.7218840292701543 0.5445195337351726 -0.018510658498364415 2.8449603573536866 -0.8972024669516794
4.919485092163086 -1.4690655034831543 -1.8571891784667969 2.384894533748291 -1.596386734639303 3.3390393257141113 -0.05864149421447907 -0.7218684780129714 0.5445184161533808 -0.01851776760164791 2.8448918657656 -0.8971892580559553
4.919517993927002 -1.4690979284099122 -1.8571159839630127 2.38491074621167 -1.5963457266436976 3.338994264602661 -0.058611539866015555 -0.7219023152927808 0.5445567674873193 -0.0186109952834919 2.844892106784119 -0.8972902287731607
4.919508934020996 -1.4690774244121094 -1.8571487665176392 2.3848814207264404 -1.59633714357485 3.3390016555786133 -0.058625447193419986 -0.7218829459897003 0.5445404730680503 -0.018583169128408742 2.8449254710834397 -0.8972391776722074
4.9194793701171875 -1.4690936368754883 -1.8571979999542236 2.3849360185810546 -1.5963581244098108 3.3389854431152344 -0.058638737282542416 -0.7218818044177676 0.5445025903672958 -0.018572694547093316 2.8449271287944033 -0.8972226187462616
4.91947603225708 -1.469118432407715 -1.8571856021881104 2.384906454677246 -1.5963299910174769 3.3390183448791504 -0.058652298561488264 -0.7218905487110695 0.544488704273483 -0.01850772054481416 2.8449688876353925 -0.8971753603344322
4.919488430023193 -1.4690817159465333 -1.8571892976760864 2.384898825282715 -1.5963495413409632 3.339006185531616 -0.05863964256277053 -0.7218756118338732 0.5445097917544117 -0.018552323633853875 2.8449368387668783 -0.897198929003499
4.919443607330322 -1.4690979284099122 -1.8571529388427734 2.384931727046631 -1.5963085333453577 3.3390393257141113 -0.058683897683219945 -0.721893461338618 0.5445324964445979 -0.01842337697192461 2.8449409421352843 -0.8972945807190778
4.919422626495361 -1.4691098493388672 -1.8571768999099731 2.3848978716083984 -1.5963323752032679 3.3390347957611084 -0.058693976507819046 -0.7218854170416364 0.5444990304491204 -0.01840985015307741 2.8449714721698434 -0.8971930685201658
4.919504642486572 -1.4691098493388672 -1.8571653366088867 2.3848816591450195 -1.5963457266436976 3.338982105255127 -0.05862117426468072 -0.7218898199648744 0.544505832231223 -0.0186076921609076 2.844954771356611 -0.8971738046882068
4.919471740722656 -1.469086007480957 -1.857135534286499 2.3848978716083984 -1.596398655568258 3.339010715484619 -0.05863842813055546 -0.7218876763225672 0.5445459604920794 -0.018545811890862192 2.844869902635091 -0.8972401959086074
4.919459342956543 -1.469090299015381 -1.8571697473526 2.384890242213867 -1.5963433424579065 3.339010715484619 -0.058661520689912726 -0.7218807150815976 0.5445169651920262 -0.018501907917728048 2.8449468710906847 -0.8972102886301508
4.919485092163086 -1.469114140873291 -1.8571116924285889 2.384866400355957 -1.5963414351092737 3.3389973640441895 -0.05863660237766994 -0.721901318606106 0.5445401127274399 -0.01855728101391413 2.844938336334654 -0.8972227000788604
4.919471740722656 -1.4690774244121094 -1.8571399450302124 2.3848740297504882 -1.5963924566852015 3.3390347957611084 -0.05864606946411417 -0.7218807767480929 0.5445433738261322 -0.018508611062042737 2.844881231204957 -0.8972122435684556
4.919520854949951 -1.469086007480957 -1.857168197631836 2.3848859506794433 -1.5963414351092737 3.3389973640441895 -0.05861526244887727 -0.7218824777678827 0.5445207184393807 -0.018607553702874955 2.8449345642196704 -0.8972038342263472
4.919466972351074 -1.4690979284099122 -1.857168197631836 2.384906454677246 -1.5963504950152796 3.339027166366577 -0.05865657590115185 -0.7218864534253624 0.5445153464795622 -0.01849256573929665 2.8449288038547587 -0.8972153490931444
4.919466972351074 -1.4690817159465333 -1.8571724891662598 2.384894533748291 -1.5963733831988733 3.339010715484619 -0.05864988481225573 -0.7218772187759877 0.5445209518317538 -0.018526668260647975 2.844914142016005 -0.8972063103908576
4.919487953186035 -1.4691551488688965 -1.8571268320083618 2.384882612819336 -1.596320931111471 3.3390302658081055 -0.05864297712339115 -0.7219155887171402 0.5445028856531929 -0.018503895469520765 2.8449712176172164 -0.8971730001020316
4.919450283050537 -1.46913035333667 -1.8571442365646362 2.3848740297504882 -1.5963457266436976 3.3390347957611084 -0.05866841490289704 -0.7218985885282206 0.5445045203018367 -0.018455383141816627 2.8449605281589925 -0.8971646578202871
4.919492721557617 -1.469114140873291 -1.8571362495422363 2.3849150377460937 -1.5963414351092737 3.3389809131622314 -0.05862783869437534 -0.7219022745369111 0.544531513387233 -0.018591307698811076 2.8449255625423153 -0.8972569591921191
4.919459342956543 -1.4691227239421387 -1.8571768999099731 2.384906454677246 -1.5963042418109339 3.3389973640441895 -0.05866526300136927 -0.7218936370812719 0.5444935551534247 -0.018502203843010077 2.844996565382253 -0.8972025433261306
4.919504642486572 -1.4691055578044434 -1.8571768999099731 2.38491074621167 -1.596325699483053 3.3390722274780273 -0.058643656439324475 -0.7218910737945963 0.5445035887079057 -0.018470208973632298 2.844935646713617 -0.8971960775139554
4.919455051422119 -1.469114140873291 -1.8571399450302124 2.3849031168171386 -1.5963085333453577 3.3390390872955322 -0.058674462524046615 -0.7218991374940374 0.5445254899740798 -0.018439703650310005 2.8449577062393785 -0.8972495050883529
4.919471740722656 -1.469118432407715 -1.8571398258209229 2.384890242213867 -1.5963299910174769 3.3389852046966553 -0.05864692967529157 -0.7218987052967025 0.5445211418068217 -0.018549788357559587 2.8449595724606107 -0.8972224364889002
4.919488430023193 -1.4691022273949166 -1.8571724891662598 2.38491074621167 -1.5963414351092737 3.33903169631958 -0.05864381835071144 -0.7218890920868226 0.5445100418689186 -0.01851228164449033 2.8449321451536327 -0.8972092914980844
4.91949987411499 -1.4690947619131585 -1.857135534286499 2.384906454677246 -1.5963705221759241 3.338989734649658 -0.058619465345104156 -0.7218941201250189 0.5445428631604499 -0.018602636093420315 2.844890666272658 -0.8972536474752026
4.91949987411499 -1.4690655034831543 -1.8571891784667969 2.3849150377460937 -1.596365753804342 3.338977575302124 -0.05862284195428709 -0.7218719653681773 0.5445247468582592 -0.01861724680833727 2.844907410098088 -0.8972374193743254
4.919480800628662 -1.469086007480957 -1.8572050333023071 2.3849150377460937 -1.5963910261737269 3.3390016555786133 -0.05863493673915365 -0.7218739346454393 0.5444971883958152 -0.018566567185768303 2.8449086550553138 -0.8971740437915661
4.919435977935791 -1.4690687966397782 -1.857163906097412 2.384898825282715 -1.596325699483053 3.3389687538146973 -0.058675167915672885 -0.7218742415234229 0.5445396551319756 -0.018521093919789608 2.84495521377331 -0.897280979579468
4.91941499710083 -1.4690979284099122 -1.8571813106536865 2.384890242213867 -1.5963457266436976 3.3390347957611084 -0.058697773991372756 -0.7218782692925034 0.5445021543852115 -0.01840524503297158 2.8449626528504774 -0.8971872442578507
4.91943883895874 -1.4690936219743271 -1.8571072816848755 2.384959860438965 -1.596381966267721 3.339060068130493 -0.05867207717905928 -0.7219047002409353 0.5445731091087302 -0.01842206928466889 2.844828848212038 -0.8973570722202278
4.919445991516113 -1.4691433993032952 -1.8571161031723022 2.38491074621167 -1.596353832875387 3.339006185531616 -0.058660664764667136 -0.7219141701393554 0.5445245531159886 -0.01849435816715328 2.844929901180968 -0.8972365449203275
4.919463634490967 -1.4691227611950417 -1.8571522235870361 2.3849186140247802 -1.596320931111471 3.3390767574310303 -0.05867248597791514 -0.7219019729295446 0.544511830483884 -0.018403544277967854 2.844939635393175 -0.8972264914854754
4.919517993927002 -1.4690817233971138 -1.8572050333023071 2.384898825282715 -1.5963323752032679 3.339043617248535 -0.05863038135343522 -0.7218744740282875 0.5444972048405324 -0.018532790212994577 2.8449437507538238 -0.8971737014129199
4.9194183349609375 -1.4691260394505044 -1.8572050333023071 2.384930296535156 -1.5963133017169397 3.338940143585205 -0.05868209121691311 -0.7218879635471125 0.5444760815215075 -0.0185289989215884 2.8450187421920443 -0.8972070132611254
4.91951322555542 -1.469142274265625 -1.8571161031723022 2.3849360185810546 -1.5963671843158167 3.339010715484619 -0.05860942833639783 -0.7219208364592463 0.5445298078126375 -0.018589749781675366 2.844883975347723 -0.89725071295668
4.919427394866943 -1.4690936368754883 -1.8571680784225464 2.3849150377460937 -1.596325699483053 3.339006185531616 -0.05868670159258012 -0.7218842208489267 0.5445213165789843 -0.018455022981773764 2.8449563967744993 -0.8972581181939464
4.919445991516113 -1.4690979284099122 -1.8571522235870361 2.384906454677246 -1.596320931111471 3.3389854431152344 -0.05866935180817286 -0.7218893677267846 0.5445293810644751 -0.01850901661737756 2.8449585532492656 -0.8972650714731979
4.919468402862549 -1.4691065338305016 -1.8571680784225464 2.3849150377460937 -1.596370045338766 3.3390138149261475 -0.05864761530730391 -0.7218901069240607 0.5445110492298204 -0.018522423712918904 2.8449157585326508 -0.8972073952990874
4.91943883895874 -1.469118432407715 -1.857202410697937 2.384882612819336 -1.5963457266436976 3.3390510082244873 -0.058683519401330236 -0.7218810487086704 0.5444699893844438 -0.018414996810917825 2.844983110566834 -0.8971131415291849
4.919467926025391 -1.4691466030529519 -1.8571653366088867 2.384898825282715 -1.5963581244098108 3.339007616043091 -0.058646734415258625 -0.7219030446854691 0.5444826087873097 -0.01852412641515249 2.844960384127024 -0.8971431223160767
4.919508934020996 -1.4691260618022461 -1.8571813106536865 2.384894533748291 -1.5963581244098108 3.339027166366577 -0.05862344833058905 -0.7218939484169782 0.5444833765712238 -0.018554623958385114 2.844944686822728 -0.8971314811625561
4.919492721557617 -1.4691098493388672 -1.8571937084197998 2.3848413664051513 -1.5962923208819788 3.3390347957611084 -0.05865476636701619 -0.7218788984019074 0.5444762672764086 -0.0184903158370219 2.8450311219614246 -0.8971019638173849
4.919467926025391 -1.4690774244121094 -1.8572094440460205 2.384906454677246 -1.5963504950152796 3.3390016555786133 -0.0586544858113868 -0.7218689964621315 0.5444991299637233 -0.018529756262529565 2.8449477081926164 -0.8971923566083788
4.919422626495361 -1.469056875710823 -1.8571566343307495 2.38491074621167 -1.5962923208819788 3.3390347957611084 -0.05870560230284835 -0.7218742660452423 0.5445546417951241 -0.018393323613484988 2.844950429027485 -0.8973302572575994
4.91947603225708 -1.4691302937320252 -1.857184886932373 2.384898825282715 -1.5963042418109339 3.339043617248535 -0.05866239384717687 -0.721894901337591 0.544479409640073 -0.01845962626631722 2.8449953417951304 -0.8971588982486834
4.919487953186035 -1.4691552084735413 -1.857168197631836 2.3849143224903564 -1.5962713400470179 3.3390183448791504 -0.058653129868978506 -0.7219111743263573 0.5444793088557826 -0.01849741097314468 2.8450206687106663 -0.8971889863031178
4.919427394866943 -1.469102219944336 -1.8571856021881104 2.3849477010914306 -1.5963705221759241 3.339010715484619 -0.05867686724813133 -0.7218863405647689 0.5445072440765555 -0.01846870681583742 2.844914903079464 -0.897242124317835
4.91947603225708 -1.4691022050431748 -1.8571522235870361 2.3849150377460937 -1.5963500181781214 3.3390302658081055 -0.058649396588661196 -0.7218935613575375 0.5445260576463353 -0.01850114378745276 2.84491345582627 -0.8972404651662687
4.91945219039917 -1.4690936219743271 -1.8571275472640991 2.3849031168171386 -1.5963414351092737 3.338994264602661 -0.058661124617218334 -0.7218932253674398 0.5445496257790384 -0.018515310764869612 2.8449220957306722 -0.8972855487549567
4.919467926025391 -1.4690688413432618 -1.8571566343307495 2.384862108821533 -1.59633714357485 3.3390393257141113 -0.05866403219763611 -0.7218734190295011 0.5445356047503629 -0.018471138058770414 2.8449385495520594 -0.8972147951591576
4.919419288635254 -1.4690979284099122 -1.8571768999099731 2.3848489957996826 -1.5963414351092737 3.339048147201538 -0.05869912984910548 -0.7218742532064767 0.5444971523042337 -0.018390178658122446 2.844984534528443 -0.8971364260602683
4.919459342956543 -1.4690688413432618 -1.8571937084197998 2.384927197093628 -1.59633714357485 3.3390183448791504 -0.05866629065162328 -0.7218725965587229 0.5445208809275034 -0.018488400063811233 2.8449287561512366 -0.8972585048026165
4.919466972351074 -1.4691379976323624 -1.8571486473083496 2.384862108821533 -1.5963581244098108 3.3390228748321533 -0.058651175959050006 -0.7218991319293011 0.5444935940195557 -0.01850138098507892 2.8449638640946584 -0.8971248223872308
4.91947603225708 -1.469086007480957 -1.8571768999099731 2.38491074621167 -1.5963166395770472 3.3390183448791504 -0.05865717200316076 -0.721882045327189 0.5445189683342008 -0.01850260459061874 2.844951455618126 -0.8972435447774124
4.919431686401367 -1.4690893229893227 -1.8571768999099731 2.3848869043537597 -1.5963791052447718 3.339006185531616 -0.05867302670244441 -0.7218755512948485 0.5445108361245308 -0.018485267315007513 2.844932051786982 -0.8971847169386111
4.919488430023193 -1.4691551563194771 -1.8571653366088867 2.384862108821533 -1.596325699483053 3.339007616043091 -0.05863958601141287 -0.7219031814084201 0.5444702972213212 -0.018537958521226153 2.84500943081988 -0.8970954928967653
4.919471740722656 -1.4690893453410645 -1.8571979999542236 2.3848046499439697 -1.5963175932513636 3.339010715484619 -0.058662138727430646 -0.7218633834448178 0.5444801771415159 -0.018506491350623884 2.8450345430231327 -0.8970696886991857
4.919492721557617 -1.4690893229893227 -1.857222557067871 2.3848859506794433 -1.5963133017169397 3.3390390872955322 -0.05865271194524065 -0.7218701981286932 0.5444767590393106 -0.01849391899968204 2.8449906215875918 -0.8971387387592444
4.919443607330322 -1.4691466030529519 -1.8571654558181763 2.3848869043537597 -1.5963133017169397 3.339043617248535 -0.058681854643045844 -0.7219016093140456 0.5444802344008457 -0.01841769632447997 2.8450018948535996 -0.8971486058803237
4.919429779052734 -1.4690979284099122 -1.8571398258209229 2.3849031168171386 -1.5963414351092737 3.3390767574310303 -0.058693902171718965 -0.7218914686755447 0.5445349244776095 -0.018365598347958444 2.844918210717494 -0.8972513621256472
4.919450283050537 -1.469114140873291 -1.8571566343307495 2.384866400355957 -1.5963414351092737 3.3389854431152344 -0.058661677772570975 -0.7218883344704661 0.5445064639340372 -0.01852373681291807 2.8449783877802473 -0.8971715895707171
4.919467926025391 -1.469102219944336 -1.8571566343307495 2.384906454677246 -1.5963133017169397 3.339006185531616 -0.05865924625710729 -0.7218915738749196 0.5445226426602695 -0.01850694403876741 2.84495938094964 -0.8972490110925729
4.91943883895874 -1.4690785643509408 -1.857114315032959 2.384882612819336 -1.5963791052447718 3.338994264602661 -0.05866321695887562 -0.7218864585526399 0.5445651651306405 -0.018514112188937802 2.84489000657312 -0.8972784066397392
4.919480800628662 -1.4691508573344727 -1.8571891784667969 2.3849431711384277 -1.5963414351092737 3.3389809131622314 -0.05863569365789223 -0.7219057406673965 0.5444714689145421 -0.018572453292305995 2.8449671692389433 -0.897176780504185
4.919504642486572 -1.4690773797086258 -1.8571761846542358 2.384866400355957 -1.5963323752032679 3.3390722274780273 -0.058645358152595875 -0.7218750142086355 0.54451487487906 -0.018473633732655478 2.844939646898037 -0.8971715997195504
4.919398307800293 -1.4690611895969887 -1.857168197631836 2.384878321284912 -1.596353832875387 3.3389809131622314 -0.058699716276313575 -0.721864890153462 0.5445366407152451 -0.018463069261556875 2.8449498635549446 -0.8972478069017498
4.919455051422119 -1.4691022348454972 -1.8571144342422485 2.384898825282715 -1.5963299910174769 3.3390183448791504 -0.058665203261785245 -0.7218996220125529 0.5445523012078667 -0.01847992103887824 2.844924633838261 -0.8972866044434548
4.919456958770752 -1.4691055429032822 -1.8571637868881226 2.384890242213867 -1.5963581244098108 3.339010715484619 -0.058658459738484395 -0.7218870328671827 0.5445105265564072 -0.018505071012476372 2.844941257139269 -0.8971903687508593
4.91943883895874 -1.4691347268274804 -1.8571680784225464 2.3849360185810546 -1.5963504950152796 3.339048147201538 -0.05867751841133499 -0.7219021908869512 0.5444950396534759 -0.018422059579177356 2.8449356348538553 -0.8972073014046306
4.919429779052734 -1.4690850165537377 -1.8571891784667969 2.384915276164673 -1.5963133017169397 3.3389763832092285 -0.05868361419333973 -0.721876236498128 0.5445125655328541 -0.018494881286099104 2.844980753540042 -0.8972537513362362
4.919508934020996 -1.4691184547594567 -1.8571231365203857 2.384898825282715 -1.5963299910174769 3.3389642238616943 -0.058614857067865456 -0.7219058218916149 0.5445360433421844 -0.018632966582869063 2.844939228480521 -0.897253170933826
4.919497013092041 -1.4691217702678223 -1.8571937084197998 2.384927197093628 -1.596320931111471 3.3390228748321533 -0.05863972418906193 -0.7218941344480516 0.5444843928839488 -0.018526806683749047 2.84496395501719 -0.8971877186366773
4.919443607330322 -1.4691271868399163 -1.8571653366088867 2.3848869043537597 -1.5963447729693812 3.339006185531616 -0.05866878083586767 -0.7218934340031959 0.5444941337146965 -0.01848587096202387 2.8449732408254738 -0.897165409340115
4.91947603225708 -1.4690785643509408 -1.857161045074463 2.384882612819336 -1.5963504950152796 3.3389925956726074 -0.05864490204477206 -0.7218781647293372 0.5445305638537858 -0.018555127948909362 2.844933072945658 -0.897223921147507
4.919422626495361 -1.4691271868399163 -1.8572181463241577 2.3848911958881835 -1.5963414351092737 3.339003086090088 -0.05868666194001161 -0.7218801444413162 0.5444551943827395 -0.018457726018032382 2.845012481611373 -0.8971068072214615
4.91945219039917 -1.4690654438785096 -1.8571768999099731 2.3848458963581542 -1.5963299910174769 3.3389477729797363 -0.058660641000380015 -0.7218633235315458 0.5445223305948672 -0.018575375697175395 2.8449913441125747 -0.8971953957124659
4.919467926025391 -1.4691422966173668 -1.8571399450302124 2.3849031168171386 -1.5963791052447718 3.3390228748321533 -0.05864391014137906 -0.7219078113249973 0.5445046829929606 -0.018512733954788037 2.8449184303742703 -0.8971745317786848
4.919471740722656 -1.4691509020379563 -1.8571275472640991 2.384862108821533 -1.5963085333453577 3.339048147201538 -0.058661902239747585 -0.7219107168792399 0.5445010702178033 -0.018449658256558185 2.8449916798981456 -0.8971564440066531
4.91945219039917 -1.4690687966397782 -1.8571697473526 2.3848532873341064 -1.5964000860797327 3.339027166366577 -0.05865965638106596 -0.721866283023122 0.5445228064935107 -0.018494542176747435 2.8449080476562587 -0.897157169185107
4.919483661651611 -1.4691336911967774 -1.8571362495422363 2.3849031168171386 -1.59633714357485 3.3389809131622314 -0.058634206228142347 -0.7219071983909091 0.5445157155025663 -0.018575928580235202 2.844950989563431 -0.8972187346664495
4.919458389282227 -1.4690936517766495 -1.8571653366088867 2.384854479427002 -1.5963323752032679 3.3389854431152344 -0.058660153928693795 -0.7218780527551278 0.5445120030049033 -0.01853129863784033 2.844983664095488 -0.897174620268298
4.919466972351074 -1.4690850612572213 -1.8571443557739258 2.3848697382160644 -1.596320931111471 3.3390138149261475 -0.058661317207343924 -0.7218832595245496 0.5445362670317224 -0.018498653672837574 2.8449559334975314 -0.8972337021193102
4.919419288635254 -1.4690936368754883 -1.8571443557739258 2.384898825282715 -1.5963414351092737 3.338977575302124 -0.05868255111479097 -0.7218864803335008 0.5445365516411813 -0.018491902460333037 2.8449479320237803 -0.8972669984181323
4.919455051422119 -1.4690654587796708 -1.8571486473083496 2.38491074621167 -1.596374813710348 3.3390016555786133 -0.05865594409511357 -0.7218785190009467 0.5445536732660556 -0.018524348693512188 2.8448832794781853 -0.8972854023005634
4.919435977935791 -1.4690817084959527 -1.8572022914886475 2.384866400355957 -1.5963133017169397 3.3390228748321533 -0.05869050836721574 -0.7218661832972704 0.5444940363436476 -0.018436904728898296 2.845004156590171 -0.897164319359308
4.919471740722656 -1.4691509020379563 -1.8571443557739258 2.3848859506794433 -1.5963614622699183 3.338989734649658 -0.058638635166051424 -0.7219077906864635 0.5444934251062763 -0.018556845409174905 2.844958587404929 -0.8971491917750899
4.919520854949951 -1.4691141632250329 -1.8571486473083496 2.384862108821533 -1.59629995027651 3.3389928340911865 -0.05862127686318212 -0.7218950281943444 0.5445124536525114 -0.018594649356281766 2.8449895201621502 -0.897183285333102
4.919443607330322 -1.469081701045372 -1.8571813106536865 2.384898825282715 -1.5963323752032679 3.3389718532562256 -0.05866869420314162 -0.7218749550055641 0.5445172731940395 -0.01852986196717285 2.844965924379864 -0.8972345603317176
4.91941499710083 -1.4691065114787598 -1.8571231365203857 2.384833975429199 -1.596320931111471 3.3390183448791504 -0.05869798095998066 -0.7218881400471134 0.5445303100567614 -0.01841810209646758 2.8449907174410374 -0.8971946280350687
4.91943883895874 -1.4691022422960778 -1.8571443557739258 2.384927435512207 -1.59633714357485 3.3389909267425537 -0.058670661965528975 -0.7218948499021527 0.5445358750571366 -0.018498699245694476 2.8449307066000724 -0.8972897445346083
4.919480800628662 -1.469150872235634 -1.857135534286499 2.3849186140247802 -1.5963342825519007 3.339048147201538 -0.058648479172595434 -0.7219162955711369 0.5445054477932866 -0.018474526357248725 2.84493836234498 -0.8972062582722813
4.919445991516113 -1.4690979209593316 -1.8571398258209229 2.3849074083515625 -1.59633714357485 3.3389477729797363 -0.05865758656089339 -0.7218915891311659 0.5445396594647977 -0.018570386426389945 2.8449462178362883 -0.8972817997583943
4.919388294219971 -1.4690740716508408 -1.8571891784667969 2.3849031168171386 -1.5963414351092737 3.3390138149261475 -0.058715718596140526 -0.721867936757937 0.5445160026337703 -0.01839568339464915 2.844960325079918 -0.8972378133169862
4.919447898864746 -1.4691389811090012 -1.8572137355804443 2.384878321284912 -1.5963414351092737 3.339015007019043 -0.05867000476534663 -0.7218852768114394 0.5444474780611912 -0.018476394674025665 2.845015519751521 -0.8970721787057788
4.91941499710083 -1.4691304129413147 -1.8571522235870361 2.3848978716083984 -1.5963299910174769 3.338994264602661 -0.05868922777880341 -0.7218978035955824 0.5445046671060769 -0.01845574099054507 2.8449827158986545 -0.8972094096632722
4.919492721557617 -1.4690979209593316 -1.8571072816848755 2.3848740297504882 -1.5963414351092737 3.3390347957611084 -0.05863926849880583 -0.7218985326631369 0.5445551031427552 -0.01851535254328939 2.844909637185435 -0.8972517594838998
4.919525146484375 -1.4690979284099122 -1.8571979999542236 2.3848251539417724 -1.5963414351092737 3.338994264602661 -0.058613773732047035 -0.7218715140664579 0.5444781178253197 -0.018616657095680132 2.8449978221965417 -0.8970656755707807
4.919450283050537 -1.4691141110709687 -1.8571275472640991 2.3848578172871093 -1.5963175932513636 3.338961124420166 -0.058661004553466095 -0.7218945063061226 0.5445281120173528 -0.01854808371142815 2.8449908595977584 -0.8972167349140755
4.91949987411499 -1.469155230825283 -1.8571443557739258 2.3848373132893066 -1.5962789694415491 3.339052677154541 -0.058650358247481424 -0.721907352887224 0.5444811012221477 -0.018468974717359123 2.845035769900282 -0.8971040246240848
4.9194016456604 -1.469085970228054 -1.8572094440460205 2.3849074083515625 -1.5963042418109339 3.338998794555664 -0.058711569141017106 -0.7218694952101061 0.5444946009495665 -0.018418286240660678 2.845008134765402 -0.8972206380500248
4.919455051422119 -1.469114140873291 -1.8571697473526 2.3849150377460937 -1.5963414351092737 3.339015007019043 -0.0586634806370894 -0.7218924182641204 0.5445051712451608 -0.018488439095970376 2.8449480201505124 -0.8972126705987266
4.919471740722656 -1.469126084153988 -1.8571231365203857 2.384931727046631 -1.5963504950152796 3.3390016555786133 -0.05864303840368656 -0.721910713523238 0.54453556718182 -0.018536252993389467 2.8449075818308884 -0.8972761964355367
4.919435977935791 -1.469126046901085 -1.8571398258209229 2.3849074083515625 -1.5963133017169397 3.339015007019043 -0.05868139500591879 -0.7219024531097007 0.5445187402701186 -0.01844883306950467 2.844969385392695 -0.8972454456695264
4.91947603225708 -1.4691109743765374 -1.8571768999099731 2.3848578172871093 -1.5963133017169397 3.3390390872955322 -0.058661543428623966 -0.7218840777096442 0.5444907719881913 -0.018470581266074235 2.8449974273890777 -0.8971364018889822
4.919480800628662 -1.4690892708352585 -1.8572094440460205 2.384854479427002 -1.596370045338766 3.338994264602661 -0.05863978108873033 -0.7218662910410818 0.5444804949963485 -0.018566882323672606 2.844969771482225 -0.8970948866912439
4.919459342956543 -1.4691509169391175 -1.8571653366088867 2.384898825282715 -1.5963175932513636 3.3390347957611084 -0.058667145522530925 -0.7219054950221382 0.5444798097995298 -0.018454567073657585 2.8449916683838623 -0.8971553550096111
4.919463634490967 -1.4691141557744523 -1.8571943044662476 2.384898825282715 -1.596374813710348 3.3390183448791504 -0.05865207133509552 -0.7218839584709474 0.5444825016421239 -0.018510466446448142 2.8449431604831132 -0.8971375860467967
4.919434547424316 -1.4691022422960778 -1.8571724891662598 2.3849314886280517 -1.5963175932513636 3.33903169631958 -0.05868756829487464 -0.7218893984803618 0.5445146660375294 -0.018424952305020722 2.8449528346795354 -0.8972606558256173
4.919492721557617 -1.4690688338926812 -1.857161045074463 2.3848296838947753 -1.5963414351092737 3.338977575302124 -0.058634037403465185 -0.7218685590566543 0.5445276505029898 -0.018595942443215017 2.84496640896782 -0.8971702387410826
4.919455051422119 -1.4691098567894478 -1.857135534286499 2.3848859506794433 -1.596304718648092 3.338989734649658 -0.05866611820963692 -0.7218958604800031 0.5445299925091243 -0.01850832652340516 2.8449780339471067 -0.8972498917277494
4.919443607330322 -1.4691379976323624 -1.8570915460586548 2.3849150377460937 -1.5963299910174769 3.339006185531616 -0.05866681187293568 -0.7219192375331948 0.5445483045759112 -0.018480792521307347 2.8449285828280186 -0.8972958137941829
4.919471740722656 -1.4690936368754883 -1.8571231365203857 2.3849431711384277 -1.5963385740863245 3.338994264602661 -0.058646390281214295 -0.7219009540719757 0.5445608424750258 -0.01854216196186378 2.844891772175629 -0.8973430507716355
4.919427394866943 -1.4690936368754883 -1.857118844985962 2.384898825282715 -1.5963743368731897 3.3390095233917236 -0.05867426019172363 -0.7218925748675192 0.5445541059993433 -0.018473591383059536 2.8448953551314538 -0.8972757031002797
4.919430255889893 -1.4691109743765374 -1.8570915460586548 2.3848869043537597 -1.5963457266436976 3.33903169631958 -0.05868066901706932 -0.7219048915109435 0.5445604423132474 -0.018433135411411117 2.8449136322166915 -0.8972833929184313
4.919447898864746 -1.469109871690609 -1.8571724891662598 2.384906454677246 -1.5963452498065394 3.339043617248535 -0.0586741118940602 -0.7218888900818001 0.5445034523478137 -0.01843925404633057 2.844944181181693 -0.8971968685686392
4.919459342956543 -1.4690850538066407 -1.8571566343307495 2.384866400355957 -1.5962923208819788 3.3389732837677 -0.05866600822855281 -0.7218796992500259 0.5445282233265009 -0.018532123274298495 2.8450007951194607 -0.8972375933589918
4.91951322555542 -1.4691346448710938 -1.8571566343307495 2.384894533748291 -1.5963414351092737 3.3389687538146973 -0.05861068815723768 -0.7219029452190939 0.5444982081666375 -0.018636650699818236 2.844961325628973 -0.89717276376253
4.919480800628662 -1.469090261762478 -1.8571231365203857 2.384882612819336 -1.596325699483053 3.3390016555786133 -0.05864604716389026 -0.7218924963257362 0.5445514618966311 -0.018538270408314184 2.8449334359050162 -0.8972696713764474
4.919480800628662 -1.4690979284099122 -1.8572007417678833 2.3848697382160644 -1.5963743368731897 3.338982105255127 -0.05863492308374118 -0.7218732759438624 0.544484297126853 -0.018586272887817282 2.8449597715647474 -0.8971156044905509
4.919463634490967 -1.469102219944336 -1.8572050333023071 2.384878321284912 -1.5963581244098108 3.3390095233917236 -0.05865607418209445 -0.7218746943526391 0.5444793389783914 -0.01851527168890173 2.844970820441226 -0.8971222861735896
4.919472694396973 -1.4690569576672097 -1.8571566343307495 2.384938879604004 -1.596304718648092 3.3390138149261475 -0.058661774323826694 -0.7218804701490251 0.5445603891342233 -0.018500211701932962 2.8449149766883672 -0.897355626539078
4.919471740722656 -1.469114140873291 -1.8571486473083496 2.3849236208149414 -1.59633714357485 3.339036226272583 -0.05865529030719903 -0.7219000017276902 0.544522291489057 -0.0184805277033453 2.844923498759929 -0.8972473589296089
4.91949987411499 -1.46913035333667 -1.8571319580078125 2.384882612819336 -1.59633714357485 3.338956832885742 -0.058618308597965074 -0.721904922240175 0.5445179837647962 -0.01863329393618329 2.8449605340975386 -0.8972029307445827
4.919543266296387 -1.4690936592272301 -1.857184886932373 2.3848654466816406 -1.5963171164142054 3.339015007019043 -0.058608888170002885 -0.7218805860745396 0.5444988557141821 -0.01860242090179615 2.8449720348883063 -0.8971486153548954
4.91945219039917 -1.4690979284099122 -1.8571486473083496 2.384902163142822 -1.59633714357485 3.33903169631958 -0.05867027214957172 -0.7218901170988858 0.5445294931745507 -0.018459431859979572 2.844932898422784 -0.8972450161902649
4.91947603225708 -1.4690817159465333 -1.8571276664733887 2.384828968639038 -1.596332852040426 3.3390393257141113 -0.05865757267425574 -0.7218810536082538 0.5445422148749564 -0.018480842167683816 2.844950381681208 -0.89719247469875
4.919455051422119 -1.469074086552002 -1.857168197631836 2.384938879604004 -1.5963667074786585 3.338982105255127 -0.058653545007641215 -0.7218806997929647 0.5445391575934649 -0.018548010153170036 2.844894796657459 -0.8972936532961125
4.9194416999816895 -1.469114140873291 -1.8571486473083496 2.384910984630249 -1.5963299910174769 3.3390138149261475 -0.05867449733326692 -0.7218964514623006 0.5445206579948504 -0.018466397992518313 2.844950468920459 -0.8972445690405574
4.919467926025391 -1.4691465658000489 -1.8571479320526123 2.384915276164673 -1.5963495413409632 3.3390257358551025 -0.058650937972601305 -0.7219098963082121 0.5444986912864593 -0.01849492035600609 2.8449418976135803 -0.8971897132206276
4.919492721557617 -1.4690893453410645 -1.857168197631836 2.384901924724243 -1.5963128248797815 3.3390183448791504 -0.05864552277945484 -0.7218852088011527 0.5445216053224009 -0.018524636655866664 2.8449522958071882 -0.8972376069617166
4.91945219039917 -1.469118432407715 -1.857184886932373 2.3849257665821533 -1.5964024702655237 3.339015007019043 -0.05865191697455683 -0.7218899439098492 0.5444913355992959 -0.01851193340707045 2.8449046026883873 -0.8971688855277378
4.919492721557617 -1.4690850240043183 -1.8571312427520752 2.384894533748291 -1.596353832875387 3.339043617248535 -0.058639858784473545 -0.7218907377865766 0.54454937160512 -0.018508345560489827 2.844891620591788 -0.8972561205601142
4.919471740722656 -1.4691065040281792 -1.8572137355804443 2.384910984630249 -1.596381966267721 3.3389973640441895 -0.058641706087764256 -0.7218782493676387 0.5444759297279432 -0.018554942446506174 2.844940152332559 -0.8971368587255425
4.919485092163086 -1.4690731552294274 -1.8571813106536865 2.3848423200794677 -1.5963786284076136 3.3390390872955322 -0.058643666778428874 -0.7218662172118897 0.5445090675804044 -0.01851403569369344 2.844930685671347 -0.8971236235029081
4.91947603225708 -1.4691141334227105 -1.8571442365646362 2.384890003795288 -1.596365753804342 3.3389687538146973 -0.05863304504287892 -0.7218951714403331 0.544520349482496 -0.01859568153517163 2.844933584066626 -0.8972052171268323
4.919504642486572 -1.4691628900221367 -1.8571486473083496 2.3848752218433837 -1.5963743368731897 3.3389854431152344 -0.05861073093214447 -0.7219110972744579 0.5444795697580187 -0.018615140208232957 2.8449573206736125 -0.8971003059832611
4.9194254875183105 -1.4690925118378182 -1.8571854829788208 2.384906454677246 -1.5963872114764612 3.3389854431152344 -0.05867126586734385 -0.7218764496660189 0.5445063557046829 -0.018509569560102652 2.8449273795365673 -0.8971962279910025
4.919466972351074 -1.4690979284099122 -1.8571486473083496 2.3849243360706787 -1.5963218847857874 3.3389809131622314 -0.05865244767072278 -0.7218938068958463 0.5445356871256517 -0.018545923910145954 2.8449400870533617 -0.897290184984596
4.919508934020996 -1.4690979284099122 -1.8571724891662598 2.384882612819336 -1.596292797719137 3.339019536972046 -0.05863866858648604 -0.721886116027527 0.5445090851991508 -0.018536368220011663 2.844984020058649 -0.8972015851313192
4.919447898864746 -1.4690612268498917 -1.8571696281433105 2.3848647314259033 -1.5963171164142054 3.3389854431152344 -0.05867354177136115 -0.7218666713128975 0.5445336472050877 -0.018510138575080128 2.8449749490216414 -0.8972364778959202
4.919508934020996 -1.469102219944336 -1.8571399450302124 2.38495580732312 -1.5963624159442347 3.3389687538146973 -0.058609003351644276 -0.7219029182991269 0.5445447976783788 -0.018641741225272446 2.844876856104985 -0.8973108690761895
4.919434547424316 -1.46913147837434 -1.857135534286499 2.384885712260864 -1.5963948408709925 3.339036226272583 -0.05866811431066109 -0.7219004320258684 0.5445113561523032 -0.018453736060999024 2.8449124027385926 -0.8971670920563785
4.919393062591553 -1.4691065114787598 -1.8571937084197998 2.3848811823078613 -1.5963414351092737 3.339006185531616 -0.05870916112459189 -0.7218756031431824 0.5444859921491699 -0.018412300026191958 2.844997547196763 -0.8971591719745212
4.919445037841797 -1.469114140873291 -1.8571566343307495 2.384927435512207 -1.5963500181781214 3.339048147201538 -0.05867431868398486 -0.7218968264098926 0.5445163280739209 -0.01843134352786478 2.8449197418053878 -0.897237799273526
4.919504642486572 -1.469114140873291 -1.8571391105651855 2.384960337276123 -1.5963624159442347 3.3389854431152344 -0.05861435022973214 -0.7219079232039447 0.5445375454501232 -0.018611648331002918 2.8448780234841 -0.8972996175466834
4.919430255889893 -1.469134622519352 -1.8571356534957886 2.384885712260864 -1.5963500181781214 3.3389809131622314 -0.05867020060644395 -0.7219018284965893 0.5445118060925618 -0.018505812812087633 2.844965494115379 -0.8971985317923554
4.9194793701171875 -1.46913035333667 -1.857131838798523 2.384861870402954 -1.596332852040426 3.3389883041381836 -0.05864082943949264 -0.7219014208547656 0.5445132060921396 -0.018557235439517532 2.8449744941180843 -0.8971752831591404
4.919480800628662 -1.4691055578044434 -1.8571529388427734 2.384923143977783 -1.5963299910174769 3.339069128036499 -0.058657735534911576 -0.7218969653834469 0.5445241213585095 -0.018443366514139546 2.844916546759767 -0.8972479988588153
4.919487953186035 -1.469114140873291 -1.8571319580078125 2.384901924724243 -1.5963948408709925 3.3389732837677 -0.058617815226814036 -0.7218997090992674 0.5445311142647686 -0.01861985792912347 2.8448906694052853 -0.8972189114055664
4.919485092163086 -1.4691217628172417 -1.8571231365203857 2.3849186140247802 -1.5963171164142054 3.3389596939086914 -0.05863332578742588 -0.721908583767273 0.5445380583278958 -0.018599708694319025 2.84494687237273 -0.8972878953319857
4.919485092163086 -1.469114140873291 -1.8571654558181763 2.384906454677246 -1.596332852040426 3.3390183448791504 -0.05864439850535116 -0.7218943178924888 0.5445068547595862 -0.018522480295115364 2.8449489486533435 -0.8972048603891173
4.91943883895874 -1.4691065114787598 -1.8571768999099731 2.384840889567993 -1.5963581244098108 3.3389854431152344 -0.058668431870438145 -0.7218761602104935 0.5444910412968237 -0.018514637657836393 2.8449914760364647 -0.8971135883222671
4.919434547424316 -1.4691390109113236 -1.8571566343307495 2.384901924724243 -1.5963299910174769 3.3390138149261475 -0.058678456616631514 -0.721901732364425 0.544495577325986 -0.018455398907174143 2.844978430054024 -0.8971896435790756
4.919511795043945 -1.4690486428192635 -1.8571616411209106 2.384923143977783 -1.596325699483053 3.338989734649658 -0.05862533095747608 -0.7218756105083467 0.5445594949314657 -0.018599632695084002 2.8449012041853257 -0.89732466378519
4.919483661651611 -1.469114140873291 -1.8571768999099731 2.384878082866333 -1.5963414351092737 3.339006185531616 -0.05864241228031509 -0.7218872535149843 0.5444928048871984 -0.018541224663556666 2.8449699943797464 -0.8971493747984854
4.919504642486572 -1.4691422817162056 -1.857181191444397 2.384901924724243 -1.5963905493365687 3.3390016555786133 -0.05861276981423155 -0.7218993207947266 0.5444736002643961 -0.01859937368499282 2.844931112676226 -0.8971083383166337
4.919450283050537 -1.4691346746734162 -1.8571486473083496 2.384923143977783 -1.5963133017169397 3.339048147201538 -0.058677013821261406 -0.72190677201708 0.5445081748027895 -0.01842166151370875 2.8449587035332145 -0.897233793380267
4.919471740722656 -1.4691175010851403 -1.8571275472640991 2.384890003795288 -1.5963786284076136 3.3389973640441895 -0.058637775870280726 -0.7219001200404351 0.5445294808706362 -0.018555050086102552 2.8449089609652187 -0.8972113944830337
4.919488430023193 -1.4691346895745774 -1.8572050333023071 2.384906454677246 -1.5963667074786585 3.338994264602661 -0.05863007471799683 -0.7218911106066737 0.5444625221645568 -0.018575596045546053 2.844963886723933 -0.897110062071234
4.919467926025391 -1.4690936368754883 -1.8571724891662598 2.384869261378906 -1.5963414351092737 3.338998794555664 -0.05865383981863099 -0.7218788083318868 0.544508874043526 -0.01852991667068349 2.84496584779471 -0.8971755499590544
4.919525146484375 -1.4691109743765374 -1.8571856021881104 2.384887142772339 -1.596332852040426 3.3389854431152344 -0.058610755685097216 -0.7218876840698485 0.5444910085247051 -0.018625710287211758 2.8449690001040118 -0.8971546278679888
4.919439315795898 -1.4691055354527016 -1.8571443557739258 2.384894533748291 -1.5963667074786585 3.338977575302124 -0.05866160422504163 -0.7218906234442417 0.5445268317156794 -0.01853161882422153 2.844932197511165 -0.8972277261166219
4.9194183349609375 -1.4690817159465333 -1.857107400894165 2.384878082866333 -1.5963414351092737 3.3389732837677 -0.058681925899906597 -0.7218881943752536 0.5445688627640588 -0.018497668542089597 2.84493158806777 -0.8973057620913621
4.919492721557617 -1.4691174787333985 -1.8571768999099731 2.384849949473999 -1.5963743368731897 3.3390390872955322 -0.05863541054434547 -0.7218846504858629 0.5444832218536331 -0.01852202729904076 2.8449523304152113 -0.8970810619645484
4.919467926025391 -1.4691271868399163 -1.8571937084197998 2.384857340449951 -1.59633714357485 3.339015007019043 -0.05865691478501442 -0.7218843358446123 0.5444668275954323 -0.01850349013477505 2.84500690482742 -0.8970850036379685
4.919504642486572 -1.4690730956247826 -1.8571486473083496 2.384899063701294 -1.5963285605060022 3.338982105255127 -0.058626482892020236 -0.7218835789579408 0.5445477979705177 -0.018601211317472954 2.844924650104372 -0.8972782358462658
4.919467926025391 -1.469061129992344 -1.8571768999099731 2.384906454677246 -1.5963743368731897 3.338989734649658 -0.05864628372795001 -0.7218702326523248 0.5445348293982788 -0.01855880161487326 2.8449007709858734 -0.8972475540769339
4.919459342956543 -1.4690979284099122 -1.857131838798523 2.384923143977783 -1.5963299910174769 3.338998794555664 -0.05865882335143134 -0.7218972294352792 0.5445474465221134 -0.018513719537670784 2.844921393648272 -0.8973047838101583
4.919492721557617 -1.4691065114787598 -1.8571653366088867 2.3849186140247802 -1.596332852040426 3.33903169631958 -0.05864177245752677 -0.7218938883425889 0.544514224587882 -0.01851457316969169 2.8449313431821737 -0.8972274869652397
4.919480800628662 -1.46906120449815 -1.8571697473526 2.384901924724243 -1.5963299910174769 3.3389642238616943 -0.05864172915760309 -0.7218730159332755 0.5445411407435881 -0.01859325676195844 2.8449380685684864 -0.8972772231045273
4.919487953186035 -1.469114140873291 -1.8571979999542236 2.384885712260864 -1.59633714357485 3.338989734649658 -0.05863791849102194 -0.7218833907044651 0.5444789204341519 -0.018568340177250335 2.8449848032427933 -0.897136013741754
4.919450283050537 -1.4690979284099122 -1.857114553451538 2.384915276164673 -1.596325699483053 3.3389732837677 -0.05866061627409844 -0.7218995973043002 0.5445598412296829 -0.018535566119250627 2.8449275636932905 -0.8973265581973074
4.919459342956543 -1.469089337890484 -1.857209324836731 2.384960337276123 -1.5963743368731897 3.3390347957611084 -0.058659540468604165 -0.7218798265379738 0.544499909190596 -0.018481382542216294 2.8448965051638724 -0.8972314329762461
4.919497013092041 -1.4691627782634278 -1.857230544090271 2.384894533748291 -1.5963667074786585 3.3390390872955322 -0.058632258978794205 -0.7218943866480534 0.5444200761660976 -0.01852261017620203 2.844991507014238 -0.8970114193145301
4.919533729553223 -1.4691022124937554 -1.8571724891662598 2.384930296535156 -1.5963414351092737 3.3389928340911865 -0.058602935247741586 -0.7218939368606369 0.5445150098752564 -0.01863212479483976 2.8449176298204826 -0.8972343631319103
4.91947603225708 -1.469114140873291 -1.8572348356246948 2.384910984630249 -1.5963004271136683 3.3390228748321533 -0.05866260307594813 -0.7218786553030827 0.5444559165520448 -0.018486702905748893 2.845017052312317 -0.8971360312417389
4.919471740722656 -1.4690860000303765 -1.857161045074463 2.384894533748291 -1.5963457266436976 3.338965654373169 -0.05864289552276216 -0.7218819881546292 0.5445286357717825 -0.01858512376814712 2.844941897522273 -0.8972387291453815
4.919443607330322 -1.4691465658000489 -1.8571486473083496 2.384866161937378 -1.5963299910174769 3.339060068130493 -0.058681009632085834 -0.7219025622981601 0.544488033906828 -0.018402162306711337 2.844986641775479 -0.8971311009094953
4.919487953186035 -1.4691346895745774 -1.8572068214416504 2.384887142772339 -1.5963743368731897 3.33903169631958 -0.05863667893739158 -0.7218882666699217 0.5444561133509163 -0.018524925657871776 2.8449617521431927 -0.8970702426447963
4.919471740722656 -1.469110981827118 -1.8571653366088867 2.384899063701294 -1.596325699483053 3.3390228748321533 -0.05865697023299613 -0.7218916826631476 0.5445077381790089 -0.018493809634444042 2.8449596920947595 -0.8972048915270778
4.919471740722656 -1.4690979060581704 -1.8571529388427734 2.384890003795288 -1.59633714357485 3.3390016555786133 -0.0586507640805745 -0.7218882174368068 0.5445247701936561 -0.018529804798126853 2.844945278105894 -0.8972249858387105
4.91945219039917 -1.4691109296730538 -1.857135534286499 2.384878082866333 -1.5963133017169397 3.33898663520813 -0.05866575478849785 -0.7218947369903623 0.5445275918772121 -0.01851252514141826 2.8449780945216654 -0.8972344377916834
4.91943883895874 -1.4691422817162056 -1.8572137355804443 2.3849033552357177 -1.5963743368731897 3.3389973640441895 -0.05866472225441686 -0.7218882208286732 0.5444497839207916 -0.01850380740097196 2.844981998800561 -0.8970891236440655
4.919471740722656 -1.4690773797086258 -1.8571522235870361 2.3849078851887207 -1.5963285605060022 3.3389973640441895 -0.058652882616487975 -0.7218836937761632 0.54454339201006 -0.018532610268913313 2.844929000786744 -0.8972830524014335
4.919443607330322 -1.4690731328776856 -1.8571724891662598 2.384852810496948 -1.5963133017169397 3.3389899730682373 -0.0586779684895857 -0.7218685070791873 0.5445208490453165 -0.018495413040027723 2.844994653338043 -0.8972025811253782
4.919467449188232 -1.469086007480957 -1.8571697473526 2.384885712260864 -1.596309010182516 3.338994264602661 -0.058660623045592275 -0.7218797823047177 0.5445203860013066 -0.0185212043632655 2.8449768066723427 -0.8972300001525643
4.919455051422119 -1.4690936368754883 -1.8571566343307495 2.3848647314259033 -1.5963624159442347 3.338940143585205 -0.05864611155755681 -0.7218799856770448 0.5445211909448436 -0.01860509920308701 2.8449593595410887 -0.8971936819554689
4.919480800628662 -1.4690740418485184 -1.8571935892105103 2.384885712260864 -1.5963342825519007 3.339024066925049 -0.05865326402603237 -0.7218702457822004 0.5445091633012628 -0.018509019564449922 2.8449529001831073 -0.8971919584576458
4.91946268081665 -1.4690936368754883 -1.8571443557739258 2.3849140840717773 -1.5963786284076136 3.3390228748321533 -0.05865136263729406 -0.721890628351279 0.5445372884107471 -0.018506179749253653 2.8448858293954378 -0.8972500438748661
4.919497013092041 -1.4690979433110734 -1.857118844985962 2.384882612819336 -1.5963829199420374 3.3389732837677 -0.0586150065289933 -0.7218953267682164 0.5445488039994442 -0.018627828281631554 2.8448916670022673 -0.8972368709407628
4.919406414031982 -1.4690774244121094 -1.857181191444397 2.38493458806958 -1.596325699483053 3.3390510082244873 -0.058712066866876945 -0.7218772530788912 0.5445251550433564 -0.01836158755451645 2.8449369486047793 -0.8972838879213179
4.919434547424316 -1.4691509318402787 -1.8571768999099731 2.3849186140247802 -1.5963667074786585 3.3389973640441895 -0.05866662031073955 -0.7219021815707116 0.5444748089218978 -0.018494993578983123 2.844962313282644 -0.8971524707879311
4.919439315795898 -1.4690936294249077 -1.857161045074463 2.384840889567993 -1.596325699483053 3.33903169631958 -0.058684702046620546 -0.7218768396312241 0.5445114181548094 -0.018435278053499066 2.84498854345344 -0.8971603044447928
4.919487953186035 -1.4690654438785096 -1.8571724891662598 2.3849033552357177 -1.5963414351092737 3.339027166366577 -0.058646195040516394 -0.721874915732634 0.5445342736683716 -0.018518867256046675 2.8449150198009154 -0.89724974814375
4.91946268081665 -1.4691141259721299 -1.8571653366088867 2.384915276164673 -1.5963457266436976 3.338994264602661 -0.05865267516776132 -0.7218935912022708 0.5445090685221953 -0.018530890015500946 2.8449446756421235 -0.8972192362188215
4.919471740722656 -1.4691303384355088 -1.8571891784667969 2.38493196546521 -1.5963214079486292 3.3389732837677 -0.058647074177819045 -0.7218968375191103 0.5444842448613261 -0.01856168073764877 2.844981836973314 -0.8972032930808702
4.919398784637451 -1.4691055429032822 -1.8570960760116577 2.3849033552357177 -1.5963500181781214 3.3389809131622314 -0.05869259685546395 -0.7219015395748514 0.5445653844306432 -0.018462841467715166 2.8449200249372657 -0.8973207618156651
4.919431686401367 -1.469085009103157 -1.8571935892105103 2.384948177928589 -1.5963786284076136 3.338982105255127 -0.05866796143507505 -0.7218780541037437 0.5445138871427756 -0.01851947831871805 2.8449081132937684 -0.8972556373679338
4.919467926025391 -1.469109834437706 -1.8571443557739258 2.384910984630249 -1.5963500181781214 3.339006185531616 -0.05864962844928803 -0.7218968564365047 0.5445266276041302 -0.018523897845075646 2.844923803874443 -0.8972417048897863
4.919459342956543 -1.4690893229893227 -1.857197880744934 2.3849186140247802 -1.5963299910174769 3.339027166366577 -0.05866856484603588 -0.7218780151414478 0.5445017434826351 -0.018471922750403977 2.8449531029059774 -0.89721590860274
4.919471740722656 -1.4691227611950417 -1.8571891784667969 2.384887142772339 -1.5963743368731897 3.339060068130493 -0.05865396845043119 -0.7218876486330348 0.5444769098274567 -0.018462184098859937 2.84494065537527 -0.8971075583252638
4.919430255889893 -1.469114140873291 -1.8571479320526123 2.384890003795288 -1.596332852040426 3.338998794555664 -0.05867965417853176 -0.7218928471872964 0.5445174738026186 -0.018472708682118567 2.8449673362133745 -0.8972209869386472
4.91947603225708 -1.4691098567894478 -1.8571442365646362 2.384906454677246 -1.5963500181781214 3.33901047706604 -0.05864473408581389 -0.7218968040864332 0.5445256918935912 -0.01852927428647556 2.844923376011005 -0.8972332776105865
4.919467926025391 -1.4691217851689835 -1.8571937084197998 2.38493196546521 -1.596325699483053 3.339010715484619 -0.05865711702577059 -0.7218928083923377 0.5444855533541647 -0.0185050111501964 2.844967721773758 -0.8971997388731932
4.919463634490967 -1.469118484561779 -1.8571522235870361 2.3848752218433837 -1.5963624159442347 3.339024066925049 -0.05865414291206341 -0.7218928113863621 0.5445068580284455 -0.018497371216698165 2.8449429134115634 -0.8971620192046128
4.919485092163086 -1.4690442693284531 -1.857135534286499 2.384910984630249 -1.5963786284076136 3.3390347957611084 -0.058640837924819326 -0.721876211610861 0.5445772868601767 -0.018522392959299024 2.8448426960985334 -0.8973172364872203
4.919504642486572 -1.4690936219743271 -1.8571574687957764 2.384936495418213 -1.5963457266436976 3.3389973640441895 -0.05862356522157575 -0.7218935639744465 0.5445333100758775 -0.01858691141270771 2.84490210508764 -0.8972769960764444
4.919467449188232 -1.469118432407715 -1.857184886932373 2.384857340449951 -1.5963285605060022 3.3389973640441895 -0.05865591536202977 -0.7218833366130698 0.544480308317932 -0.018524423951141032 2.845007352528016 -0.8971168037934556
4.919471740722656 -1.469040074651577 -1.8571805953979492 2.384915514583252 -1.5963133017169397 3.3389854431152344 -0.05865800776750807 -0.7218649058897375 0.5445500457023277 -0.01854285813734398 2.8449340347822027 -0.8973158708968825
4.919450283050537 -1.4691141259721299 -1.8571979999542236 2.384894533748291 -1.596309010182516 3.339015007019043 -0.05867623822070903 -0.7218834346276798 0.5444806014005564 -0.018466007625134815 2.8450059369786613 -0.8971654416248525
4.919471740722656 -1.469086007480957 -1.857181191444397 2.3848976331898193 -1.59633714357485 3.3389854431152344 -0.058649695237879856 -0.7218780365996499 0.5445136244994063 -0.018552557602517304 2.8449547078798822 -0.8972165069021915
4.919450283050537 -1.469069780116417 -1.8571935892105103 2.384885473842285 -1.596332852040426 3.33901047706604 -0.05867325658926767 -0.7218667842433938 0.5445125100069291 -0.01848445621481271 2.844962864556421 -0.8972068699537795
4.919455051422119 -1.4691423338702698 -1.857161045074463 2.384857340449951 -1.5963495413409632 3.339015007019043 -0.05866060592415945 -0.7218964870942055 0.5444807148334793 -0.018491289946705368 2.844989268987548 -0.8971044403042227
4.919443607330322 -1.4690529120019455 -1.8571935892105103 2.384899063701294 -1.5963500181781214 3.338944673538208 -0.05866209832276667 -0.7218609909185353 0.5445283862636597 -0.01857703377364345 2.8449477603740827 -0.8972530006846501
4.919488430023193 -1.4691152659109612 -1.8571443557739258 2.384869261378906 -1.5963495413409632 3.338977575302124 -0.05862996573235536 -0.7218939991224788 0.5445155621000085 -0.018593137209886895 2.8449549860960563 -0.8971800822492748
4.919459342956543 -1.4691217702678223 -1.8571768999099731 2.384849949473999 -1.5963457266436976 3.3389766216278076 -0.058653323019737205 -0.7218842546495087 0.5444827775247935 -0.018550363583380407 2.8450022393488337 -0.897109615219193
4.919480323791504 -1.4691293847611924 -1.8572007417678833 2.3849143224903564 -1.5963709990130823 3.339006185531616 -0.0586372798606197 -0.7218908730524412 0.5444705329866242 -0.018549347435081597 2.8449487677424767 -0.8971304943592853
4.919455051422119 -1.4690655034831543 -1.8571653366088867 2.384887142772339 -1.5963133017169397 3.338982105255127 -0.05866746202538919 -0.721872751780369 0.5445384910970917 -0.018523465632135333 2.8449631129134776 -0.8972679658389694
4.919463634490967 -1.469118432407715 -1.857184886932373 2.384899063701294 -1.5963829199420374 3.338994264602661 -0.05864467603875662 -0.7218872717741291 0.5444872110681663 -0.018548594815105717 2.8449390781953654 -0.8971452416870285
4.919484615325928 -1.4691098493388672 -1.8571449518203735 2.384878082866333 -1.5963171164142054 3.338956832885742 -0.0586361616708033 -0.7218935345037805 0.5445219987054306 -0.018602587610792344 2.8449789501206038 -0.897220675241905
4.919508934020996 -1.4690936219743271 -1.8571768999099731 2.3848602014729003 -1.5963500181781214 3.3389599323272705 -0.05861508364835853 -0.721878223836051 0.5445047091705496 -0.018647289126823053 2.844965927801013 -0.8971524208496441
4.919463634490967 -1.4690935996225853 -1.8571856021881104 2.384894533748291 -1.5963414351092737 3.339076519012451 -0.05867230379368104 -0.7218797441646829 0.5445016317119703 -0.018412997731033637 2.8449405544529407 -0.8971774666627303
4.91943883895874 -1.4691627782634278 -1.8571724891662598 2.3848959642597656 -1.59633714357485 3.3389732837677 -0.058664936826651436 -0.7219051476706749 0.5444669296993419 -0.01852151817029911 2.845009747077581 -0.8971317352925186
4.919406414031982 -1.4690893453410645 -1.857230544090271 2.384857340449951 -1.596304718648092 3.3390183448791504 -0.05871401080515685 -0.7218593219742651 0.5444659358059574 -0.01839650888550561 2.8450479696441926 -0.8971152575823366
4.919459342956543 -1.4691141557744523 -1.8571768999099731 2.384906454677246 -1.596353832875387 3.3390347957611084 -0.05866207434944481 -0.7218896892187727 0.5444971892156949 -0.018471801463924447 2.8449417703793323 -0.897180070066943
4.919459342956543 -1.4691065114787598 -1.8571724891662598 2.384857340449951 -1.59633714357485 3.3389809131622314 -0.058656828202726885 -0.721881171871259 0.5444982371038095 -0.018540836859862627 2.8449913432846903 -0.8971497419468882
4.919456958770752 -1.4691260618022461 -1.8571891784667969 2.384878082866333 -1.5963829199420374 3.3390016555786133 -0.058651152896435604 -0.7218858014609978 0.5444743539100844 -0.018528155779090852 2.8449594385989316 -0.8971008303714753
4.919450283050537 -1.4691065561822434 -1.8571892976760864 2.384906454677246 -1.5963862578021448 3.3390347957611084 -0.05866247968138007 -0.7218825957591051 0.5444922919465429 -0.018473658769405536 2.844920765531715 -0.8971580507632649
4.91951322555542 -1.4690731328776856 -1.8571486473083496 2.384890003795288 -1.5963500181781214 3.339015007019043 -0.05862216341272343 -0.7218826741793597 0.5445445110761836 -0.01857631048706807 2.8449025621964004 -0.8972462672060316
4.919471740722656 -1.469114140873291 -1.8571398258209229 2.3848869043537597 -1.5963171164142054 3.3390183448791504 -0.05865679225422262 -0.7218974656217048 0.5445228133127427 -0.0184967755703132 2.8449613615475737 -0.8972240372640093
4.919440746307373 -1.4691346895745774 -1.8571399450302124 2.384899063701294 -1.596332852040426 3.338982105255127 -0.05866661358091095 -0.7219037282869414 0.544511505579702 -0.018511151485099114 2.844970873819255 -0.8972175379164573
4.919459342956543 -1.469086007480957 -1.8571637868881226 2.38487355291333 -1.5963776747332972 3.3390555381774902 -0.05866305395328854 -0.7218779553397843 0.5445190377157929 -0.01845391901424524 2.8449119617448293 -0.8971743097939705
4.919455051422119 -1.469035693710186 -1.8572391271591187 2.3849186140247802 -1.5963457266436976 3.339006185531616 -0.058670058433280714 -0.721848089824778 0.5445080085096974 -0.018503192002309977 2.844938834142691 -0.8972291310269007
4.919467449188232 -1.46906120449815 -1.8571486473083496 2.384882612819336 -1.596309010182516 3.339006185531616 -0.05866382151600837 -0.7218757458668668 0.5445526159917466 -0.018505286384365358 2.84494720324519 -0.8972851302796734
4.91947603225708 -1.4690655034831543 -1.8572375774383545 2.384890003795288 -1.596332852040426 3.3390183448791504 -0.058658675413894634 -0.7218569081801506 0.5444828559374464 -0.018508928235607264 2.844976159283283 -0.8971529647766766
4.919450283050537 -1.4690569204143067 -1.8571937084197998 2.384861631984375 -1.5962851683246058 3.338977575302124 -0.058679127110085105 -0.7218598415264149 0.5445188302759286 -0.018509614509843772 2.8450164755838365 -0.8972239432808498
4.919463634490967 -1.469102219944336 -1.8571529388427734 2.3848633009144287 -1.59633714357485 3.338989734649658 -0.058654635319241116 -0.7218855094118516 0.5445169115471119 -0.018534976283651267 2.8449695171252403 -0.897187198635493
4.9194793701171875 -1.4691389364055176 -1.8571979999542236 2.384901924724243 -1.596370045338766 3.338977575302124 -0.05863200608204807 -0.7218928779260921 0.5444644175821751 -0.018588054219268388 2.8449686750531935 -0.897111018413069
4.919520854949951 -1.4690817159465333 -1.857168197631836 2.384915514583252 -1.5963786284076136 3.3390257358551025 -0.0586120023900767 -0.7218842948094538 0.5445277247767477 -0.018584484251124876 2.8448764349640343 -0.8972238615304857
4.919525146484375 -1.4690817159465333 -1.8571937084197998 2.38487355291333 -1.5963414351092737 3.339040517807007 -0.05862263451878709 -0.7218738983262065 0.5445007122265032 -0.01855160588164014 2.8449438324676195 -0.8971492335641825
4.91949987411499 -1.4690655034831543 -1.8571398258209229 2.384882612819336 -1.5963414351092737 3.339006185531616 -0.058632308860459906 -0.7218804199368739 0.5445555089439473 -0.018566309887033988 2.8449095089552303 -0.8972674067113969
4.919459342956543 -1.4690936368754883 -1.8571449518203735 2.384857340449951 -1.5963175932513636 3.3389854431152344 -0.058661692230330284 -0.7218837913562391 0.5445283556635638 -0.01852638868362565 2.844980947448787 -0.8972136063610189
4.919450283050537 -1.4690569204143067 -1.8571486473083496 2.3849124151417236 -1.5963299910174769 3.33903169631958 -0.0586760490357109 -0.721876995526478 0.5445601454477321 -0.018454481736925262 2.844907311703733 -0.8973181250467555
4.919470310211182 -1.4690688413432618 -1.8571856021881104 2.384882612819336 -1.596309010182516 3.3390467166900635 -0.0586710845009399 -0.7218702303643909 0.5445181667617826 -0.01845057715731344 2.844964383054034 -0.8972166303173438
4.919450283050537 -1.4690688413432618 -1.8571486473083496 2.384866161937378 -1.5963752905475062 3.3389809131622314 -0.05865608982274753 -0.7218731297124528 0.5445432175086865 -0.01854693904470537 2.8449188883144876 -0.8972256189371703
4.919492721557617 -1.4690655034831543 -1.8571275472640991 2.384901924724243 -1.5963414351092737 3.339006185531616 -0.05863634138659655 -0.7218855736379585 0.5445685682541916 -0.018556572818526906 2.8448917774735705 -0.8973113238504513
4.9194416999816895 -1.4690688413432618 -1.8571724891662598 2.38493196546521 -1.5963581244098108 3.339015007019043 -0.0586724113577371 -0.7218767014765324 0.5445374477666903 -0.018478228370464755 2.8449009469028286 -0.8972863476489888
4.919492721557617 -1.4690774244121094 -1.8571486473083496 2.384910984630249 -1.596332852040426 3.3389732837677 -0.058631743773105136 -0.7218858188416711 0.5445472731643208 -0.018598783140233194 2.8449217556647652 -0.8972902853107277
4.919471740722656 -1.4691389364055176 -1.8571443557739258 2.384840889567993 -1.5963667074786585 3.3389687538146973 -0.058635366678415124 -0.7218970215034883 0.5444934245636632 -0.018589091677478485 2.844979851834294 -0.8971059319173482
4.919450283050537 -1.4690979284099122 -1.8571724891662598 2.384878082866333 -1.5963495413409632 3.3389525413513184 -0.05865505986309967 -0.7218797314374016 0.5445087750771351 -0.01857439159477463 2.844972362229353 -0.8971899831676773
4.919467926025391 -1.4690731328776856 -1.8571231365203857 2.384894533748291 -1.5963457266436976 3.33903169631958 -0.05865770708171864 -0.7218870773327735 0.5445643100699522 -0.01848685211406071 2.8448951503888327 -0.897294604945414
4.919483661651611 -1.4691065114787598 -1.8571486473083496 2.384943647975586 -1.5963581244098108 3.33903169631958 -0.05864109063758498 -0.7219000839252685 0.5445311175058302 -0.018513841911959095 2.8448872656264026 -0.8972718725190155
4.919463634490967 -1.469114140873291 -1.857161045074463 2.384903593654297 -1.5963624159442347 3.338965654373169 -0.058642644587997395 -0.7218923065107681 0.5445104545387518 -0.01858064958927333 2.8449423812930767 -0.8972057886645679
4.919439315795898 -1.469035768215992 -1.85719633102417 2.3849288660236816 -1.596325699483053 3.3389809131622314 -0.05867849372906299 -0.721859113332986 0.5445435671595543 -0.01850873804184758 2.844932421966425 -0.8973191807575667
4.91947603225708 -1.4691227239421387 -1.8571653366088867 2.384894533748291 -1.5963581244098108 3.33901047706604 -0.05864333423465612 -0.7218944734185311 0.5444982686341552 -0.018532100405426542 2.8449453351158565 -0.8971672510817967
4.919497013092041 -1.4690281388214608 -1.8571813106536865 2.384890003795288 -1.5962885061847132 3.3389644622802734 -0.05864281743877525 -0.7218589260917093 0.5445540358630447 -0.018597377740094734 2.8449614791963764 -0.8973090246653045
