gadestri/Universal-robots-Hand-tracking-to-move-the-robot/RTDE/2022_03_18_12_38_17.csv
actual_q_0 actual_q_1 actual_q_2 actual_q_3 actual_q_4 actual_q_5 actual_TCP_pose_0 actual_TCP_pose_1 actual_TCP_pose_2 actual_TCP_pose_3 actual_TCP_pose_4 actual_TCP_pose_5
4.919455051422119 -1.4690529194525261 -1.8571724891662598 2.384943647975586 -1.5963166395770472 3.3390140533447266 -0.05867284884606881 -0.721874515585946 0.544551830129368 -0.018480016529275025 2.844914267576136 -0.897343238388744
4.919487953186035 -1.4690731328776856 -1.8571770191192627 2.384894533748291 -1.5963628927813929 3.339064121246338 -0.05864852869635699 -0.7218752224696445 0.5445221738883158 -0.018475714520322532 2.8449016404112304 -0.8972026333568376
4.919485092163086 -1.4690979209593316 -1.8571938276290894 2.3849124151417236 -1.5963085333453577 3.33901047706604 -0.05865084941183263 -0.7218831007100689 0.544498645681801 -0.018522302661692268 2.8449745393584336 -0.8972111543624175
4.919463634490967 -1.4690893453410645 -1.857184886932373 2.384870691890381 -1.5963133017169397 3.3390390872955322 -0.05867217519113785 -0.7218754821313857 0.5445022619073423 -0.018453374461509978 2.8449842105806167 -0.8971745260582112
4.91949987411499 -1.4691141706756135 -1.8571654558181763 2.384894533748291 -1.5963895956622522 3.339031457901001 -0.05862378938711138 -0.721892195476212 0.544502729769863 -0.018550702012678857 2.844903121050449 -0.8971528383045545
4.919430255889893 -1.4690774244121094 -1.8571521043777466 2.384894533748291 -1.596320931111471 3.339031457901001 -0.058691626041719555 -0.721880101225117 0.5445400308807755 -0.018421529271205665 2.844945988173777 -0.897270724630314
4.91949987411499 -1.4691346448710938 -1.8571486473083496 2.384943647975586 -1.59629995027651 3.3390018939971924 -0.058634568705572 -0.7219122684479784 0.544513883790972 -0.018552023099468625 2.844955127323194 -0.8972679370150617
4.919520854949951 -1.4690688413432618 -1.8571892976760864 2.384882612819336 -1.5963671843158167 3.3390140533447266 -0.058615177660060296 -0.7218703447093986 0.5445149026487555 -0.018595454640361535 2.844914079049578 -0.8971769553869675
4.919439315795898 -1.4690611523440857 -1.857181429862976 2.384932203883789 -1.5963791052447718 3.3389689922332764 -0.058661322676658495 -0.7218705957876379 0.544536906100187 -0.01854994740625818 2.844896352266026 -0.8972833418315292
4.919443607330322 -1.4691509467414399 -1.85712730884552 2.384894533748291 -1.5963342825519007 3.339031457901001 -0.05867223315962378 -0.7219126493443745 0.5445074075341958 -0.018445472714054785 2.8449619929116463 -0.8971954572428092
4.9194231033325195 -1.469142274265625 -1.8571635484695435 2.384910984630249 -1.5963042418109339 3.3389899730682373 -0.05868771025795469 -0.7219022050610442 0.5444911810028905 -0.018461126889971178 2.8450089216758783 -0.8972089577169863
4.919508934020996 -1.4691065189293404 -1.8571475744247437 2.384869022960327 -1.5963323752032679 3.3389689922332764 -0.05861817341145859 -0.7218916452596771 0.5445198274477399 -0.018626762210766347 2.8449623667692885 -0.8971940230542181
4.919439315795898 -1.469102219944336 -1.8571442365646362 2.384894533748291 -1.5963957945453089 3.338998556137085 -0.05865940830286732 -0.7218889334431773 0.5445278948820819 -0.018515137732400645 2.8449012871213286 -0.8972126003783314
4.919455051422119 -1.4691217702678223 -1.8572096824645996 2.384887142772339 -1.59633714357485 3.338994264602661 -0.0586625582268687 -0.7218816154736152 0.5444649313277214 -0.018514695000362756 2.84500347789092 -0.8971176182583467
4.91946268081665 -1.4691055578044434 -1.857151985168457 2.3849124151417236 -1.5963581244098108 3.3390018939971924 -0.058651405175010995 -0.7218931171614742 0.5445240320149993 -0.018526198222209075 2.844920837699493 -0.8972366757249376
4.919459342956543 -1.4690979284099122 -1.8571263551712036 2.384887142772339 -1.596325699483053 3.338949203491211 -0.058650656098661894 -0.721893186706845 0.5445461272008887 -0.01858225668435948 2.8449558212427517 -0.8972757949152198
4.919450283050537 -1.4690902841142197 -1.857153058052063 2.384873791331909 -1.5962923208819788 3.3390302658081055 -0.0586830371901981 -0.7218835669896144 0.5445270675695867 -0.01843811341724827 2.844985744072937 -0.8972358284813147
4.91946268081665 -1.4691065561822434 -1.8571680784225464 2.384894533748291 -1.5963133017169397 3.3389689922332764 -0.058656261319244125 -0.7218879993063346 0.544509738465371 -0.01855200436324153 2.844987031046002 -0.8972201680018962
4.919445991516113 -1.4691465658000489 -1.8571395874023438 2.384885473842285 -1.5963042418109339 3.338998556137085 -0.05867199963738116 -0.7219074716722249 0.5445010952311324 -0.018481712227714626 2.845004349359948 -0.8971947885530408
4.919447898864746 -1.4690902543118973 -1.857178807258606 2.384899063701294 -1.5963628927813929 3.33901047706604 -0.05866555038022043 -0.7218785164684978 0.5445113919775075 -0.01849478650676625 2.8449341905559518 -0.8972018998817369
4.919501304626465 -1.469086007480957 -1.8571114540100098 2.384903593654297 -1.5963133017169397 3.3389854431152344 -0.0586300208784197 -0.721897984391116 0.544568130271684 -0.01858533679669968 2.844919174286287 -0.897325125238989
4.919434547424316 -1.4690774095109482 -1.857193946838379 2.3848914343067626 -1.5963581244098108 3.339022636413574 -0.05868059644544694 -0.7218687598042165 0.5445071284860097 -0.01845620676288876 2.844944760992027 -0.8971913361958354
4.91949987411499 -1.4691098493388672 -1.8571094274520874 2.384882612819336 -1.5963457266436976 3.3389854431152344 -0.058622387942082355 -0.7219031464676857 0.5445482160806867 -0.01859749243833794 2.844919755715278 -0.8972504746884559
4.919480323791504 -1.4690774244121094 -1.8571654558181763 2.384890003795288 -1.5963504950152796 3.339027166366577 -0.05864874945008961 -0.7218783640470442 0.5445284466161835 -0.018511967027907174 2.8449209935569053 -0.8972217789306376
4.919434547424316 -1.4690902766636391 -1.8571486473083496 2.384899063701294 -1.59633714357485 3.3390302658081055 -0.0586833752799221 -0.7218859207054366 0.5445342433560685 -0.018436559479005053 2.844935019618977 -0.8972549022552138
4.919463634490967 -1.4691065561822434 -1.8571983575820923 2.384903593654297 -1.596353832875387 3.338977813720703 -0.058649461643616896 -0.7218810151776487 0.5444873479261059 -0.018558698906379036 2.844964939264425 -0.8971680446855242
4.919427394866943 -1.4690979284099122 -1.8571699857711792 2.3848976331898193 -1.596320931111471 3.3389647006988525 -0.05867981886166785 -0.7218825638742938 0.5445148304476897 -0.018511652047776408 2.8449850149392373 -0.8972371265285394
4.91947603225708 -1.4691065040281792 -1.8571068048477173 2.384901924724243 -1.596349064503805 3.339027166366577 -0.0586466962033521 -0.7219042148566394 0.5445549866039825 -0.0185060033943771 2.8448974573845027 -0.8972791658748799
4.919492721557617 -1.4691217851689835 -1.8571183681488037 2.384927435512207 -1.596325699483053 3.3389811515808105 -0.05862963883370739 -0.7219114050102773 0.5445425320608971 -0.01858409361700929 2.844924246177196 -0.8972957875393289
4.91946268081665 -1.469114178126194 -1.8572142124176025 2.384885712260864 -1.5963009039508265 3.3389854431152344 -0.058664339530770174 -0.7218789544433892 0.5444676451065126 -0.018521569724320234 2.8450320821974633 -0.8971394564304571
4.919459342956543 -1.4691227835467835 -1.85715651512146 2.38493196546521 -1.5963595549212855 3.3389899730682373 -0.05864958015145036 -0.7219004382670323 0.5445127752392079 -0.0185387124467412 2.8449249177713076 -0.8972360336819462
4.919455051422119 -1.4690688413432618 -1.8571654558181763 2.384845419520996 -1.5963447729693812 3.3390140533447266 -0.05866749500692532 -0.7218677712933393 0.5445262278531626 -0.018492003561964346 2.8449577020855426 -0.8971839426991229
4.919455051422119 -1.4691585463336487 -1.8572026491165161 2.384894533748291 -1.5963581244098108 3.3389689922332764 -0.05864953586369854 -0.721896529033202 0.5444463849473279 -0.018559645529568982 2.8450065286551456 -0.8970813784323493
4.919475078582764 -1.4691098865917702 -1.8571486473083496 2.384882612819336 -1.5963547865497034 3.338994264602661 -0.058641985861723145 -0.7218921395042392 0.5445180388660703 -0.018552918862849595 2.84494121727293 -0.8971960531399541
4.919447898864746 -1.4691227611950417 -1.85715651512146 2.384927435512207 -1.5963414351092737 3.338977813720703 -0.058659658568361014 -0.7218994901867388 0.544512707747571 -0.018531441674200358 2.8449484067408823 -0.89724434801986
4.919467449188232 -1.4691303980401536 -1.8571892976760864 2.384873791331909 -1.5963671843158167 3.3389732837677 -0.05864133196297801 -0.7218874379527652 0.5444716337451387 -0.018576128174991175 2.84498183029657 -0.8971010378570755
4.919455051422119 -1.4690816712430497 -1.8571770191192627 2.384906454677246 -1.5963581244098108 3.339026927947998 -0.05866506873923607 -0.721877638885783 0.5445197814921023 -0.018479633948676466 2.844921149062763 -0.8972236629227279
4.919471740722656 -1.4691065114787598 -1.8571158647537231 2.384899063701294 -1.5963581244098108 3.339006185531616 -0.05864413931376171 -0.7219009063013586 0.5445479626756594 -0.018533698202062965 2.844903749277302 -0.897263288388168
4.919427394866943 -1.469061256652214 -1.85715651512146 2.384870691890381 -1.5963504950152796 3.3390390872955322 -0.05869055786619301 -0.7218691715657414 0.5445423165653964 -0.01842024408913427 2.8449282585770583 -0.8972376305523004
4.919471740722656 -1.4691098567894478 -1.8571770191192627 2.384885712260864 -1.596365753804342 3.339071750640869 -0.05865859080302479 -0.721886155626478 0.5444946571859237 -0.018442199098976347 2.844930051082444 -0.8971415851744299
4.919497013092041 -1.4690731403282662 -1.8571724891662598 2.384927435512207 -1.5963457266436976 3.3390390872955322 -0.05863983985997262 -0.7218814815261323 0.5445331753532466 -0.018516715669169247 2.8448961476094534 -0.8972653780508936
4.919450283050537 -1.4690697726658364 -1.8571983575820923 2.384910984630249 -1.596325699483053 3.3390018939971924 -0.05867276097604983 -0.7218691921233962 0.544514315689736 -0.018493470521304654 2.844957957769838 -0.897240362078948
4.919431686401367 -1.469114140873291 -1.8571397066116333 2.384943647975586 -1.5962994734393519 3.3389856815338135 -0.05868176672112131 -0.7219029410842772 0.5445353731467226 -0.018478702032832472 2.844958984429067 -0.897324474415005
4.919430255889893 -1.4690655034831543 -1.8571362495422363 2.3849243360706787 -1.59633714357485 3.3389689922332764 -0.05867492307089969 -0.7218825373671836 0.5445675574484761 -0.01851877404135972 2.8449122643770646 -0.8973518659531866
4.91947603225708 -1.4691184547594567 -1.8571770191192627 2.384915276164673 -1.5963581244098108 3.3390183448791504 -0.05864526420307114 -0.7218930564522236 0.5444962137413658 -0.01852086472816273 2.8449352087454 -0.8971836675414523
4.91947603225708 -1.4690936368754883 -1.8571397066116333 2.384894533748291 -1.5963013807879847 3.3390464782714844 -0.05866412933148489 -0.7218922436129367 0.5445381911064263 -0.01845614033539695 2.844948605674471 -0.897264023205264
4.919471740722656 -1.4691227611950417 -1.8571724891662598 2.384873791331909 -1.5963042418109339 3.339022636413574 -0.05866192461376993 -0.7218913007386469 0.5444897477211748 -0.018483703539690442 2.8450046414467374 -0.8971569668849566
4.919463634490967 -1.4691055578044434 -1.857181429862976 2.384873791331909 -1.5963457266436976 3.3389930725097656 -0.058654290893487025 -0.7218810812863623 0.5444947798030949 -0.018533472946554726 2.8449750775556937 -0.8971533096343945
4.91947603225708 -1.4691012439182778 -1.8571679592132568 2.3849286276051025 -1.5963547865497034 3.3389811515808105 -0.058639142792044296 -0.7218905719674256 0.5445187990348367 -0.018573016091674468 2.844922346211668 -0.8972460993054485
4.919492721557617 -1.4691022348454972 -1.85715651512146 2.3849033552357177 -1.5963433424579065 3.3389735221862793 -0.05862817441121792 -0.721891440849078 0.5445223392043115 -0.018602425191776708 2.8449382559198533 -0.8972304426895026
4.919443607330322 -1.4690611746958275 -1.8571317195892334 2.384927435512207 -1.5963495413409632 3.3390727043151855 -0.0586829707777748 -0.7218841819792386 0.5445712461917338 -0.018395956738222936 2.8448659692208547 -0.8973380954045828
4.919427394866943 -1.4691628378680726 -1.8571486473083496 2.384878082866333 -1.5963414351092737 3.3389647006988525 -0.058669772363525136 -0.7219075823777895 0.5444815802969036 -0.018519883618404627 2.845007581084668 -0.8971412710778024
4.919450283050537 -1.4690774020603676 -1.8571892976760864 2.384910984630249 -1.59633714357485 3.3389854431152344 -0.05866589263604596 -0.721873580348795 0.5445160740641193 -0.01852217342016582 2.8449517630493997 -0.897239411468089
4.919450283050537 -1.4691184547594567 -1.857161045074463 2.384857340449951 -1.5963791052447718 3.3389732837677 -0.05865089629192481 -0.7218864152955216 0.5444977960738899 -0.01855802917133466 2.8449617524127135 -0.8971298977489868
4.919467449188232 -1.469081701045372 -1.857181429862976 2.384915276164673 -1.5963628927813929 3.339031219482422 -0.05865588219216414 -0.7218784364929667 0.5445179032572379 -0.018493277200631222 2.8449102864801397 -0.8972237151977516
4.919492721557617 -1.4690979284099122 -1.8571724891662598 2.3849078851887207 -1.596320931111471 3.3390183448791504 -0.05864311575334633 -0.7218878220595604 0.5445133635438029 -0.018528086720924937 2.844950040443462 -0.8972239948118802
4.919480800628662 -1.4690644902041932 -1.8571397066116333 2.3848587709614257 -1.596325699483053 3.3389856815338135 -0.058646277069211425 -0.7218759145551226 0.5445526359714783 -0.018561065903786363 2.8449463488080733 -0.897253095267764
4.919480323791504 -1.469069780116417 -1.857161045074463 2.384873791331909 -1.596349064503805 3.3390018939971924 -0.05864484635562241 -0.7218742409285265 0.5445347033346298 -0.018547473184793304 2.844930829664953 -0.8972219161287278
4.919492721557617 -1.4691184398582955 -1.8571486473083496 2.3849033552357177 -1.5962994734393519 3.339055299758911 -0.05865263920804221 -0.7219012551893476 0.5445157144701416 -0.018465685225879276 2.8449592104123442 -0.8972265372522913
4.919439315795898 -1.469069780116417 -1.8572072982788086 2.384882612819336 -1.5962994734393519 3.3389570713043213 -0.05867895338030037 -0.7218627278986915 0.5445039668701724 -0.01852930499886297 2.845016217502179 -0.8972152373548222
4.919467449188232 -1.469086007480957 -1.8571521043777466 2.384915276164673 -1.5963133017169397 3.339022636413574 -0.058663583222088235 -0.7218882573777912 0.5445385666725145 -0.01848338756696024 2.8449371095585465 -0.8972855912935257
4.91947603225708 -1.4690774020603676 -1.8571442365646362 2.3849033552357177 -1.596325699483053 3.339022636413574 -0.05865512975774943 -0.7218856344763078 0.5445478626921342 -0.01850156394843755 2.84492188217538 -0.8972833245664766
4.919501304626465 -1.469086007480957 -1.8570955991744995 2.384894533748291 -1.596295181904928 3.3390183448791504 -0.05864004083960113 -0.7219014441643403 0.5445778348440603 -0.01853049603328509 2.844921615193597 -0.8973374094232234
4.9194231033325195 -1.4691184547594567 -1.857161045074463 2.3849078851887207 -1.5963457266436976 3.3390140533447266 -0.05868480441892632 -0.7218930718097266 0.5445072853429117 -0.018446423721446246 2.8449548232045485 -0.8972131536185932
4.919455051422119 -1.4691217702678223 -1.8571431636810303 2.384906454677246 -1.596353832875387 3.3390421867370605 -0.05866433860313575 -0.7219003435648195 0.5445172062272371 -0.018455798464217597 2.8449248040261073 -0.897214543331173
4.919443607330322 -1.4690936219743271 -1.85715651512146 2.384890003795288 -1.596349064503805 3.3390400409698486 -0.05867645852868059 -0.7218843147802385 0.5445236201196664 -0.01844064088657129 2.84493316442331 -0.8972175193044523
4.9194183349609375 -1.4691022348454972 -1.8571442365646362 2.3848811823078613 -1.5963223616229456 3.339031457901001 -0.05869800816767147 -0.7218882706729106 0.5445261132874089 -0.018404756560911062 2.844966767774073 -0.8972315766897533
4.91947603225708 -1.469090313916542 -1.8571486473083496 2.384901924724243 -1.5963447729693812 3.339050769805908 -0.058655674068205196 -0.7218887927163296 0.5445339868197858 -0.018469814653140633 2.844911198608208 -0.8972423321473139
4.919529914855957 -1.469090299015381 -1.8572027683258057 2.38493196546521 -1.5962923208819788 3.33904767036438 -0.058630020984678635 -0.721884402235617 0.5445002974617069 -0.018525701288588926 2.844955643620369 -0.8972281457723693
4.919471740722656 -1.4691260394505044 -1.8571397066116333 2.384931727046631 -1.5963085333453577 3.3390345573425293 -0.05865987928553698 -0.7219082404485475 0.5445231264440136 -0.018469793712394347 2.8449440005130167 -0.8972699585332108
4.919455051422119 -1.4690654811314126 -1.8571228981018066 2.384894533748291 -1.5963581244098108 3.338961362838745 -0.0586508640461978 -0.7218824870031854 0.5445715645357212 -0.018574583433362216 2.844900658170895 -0.8973150551878442
4.91947603225708 -1.4691022348454972 -1.8571139574050903 2.384861870402954 -1.59633714357485 3.3389976024627686 -0.05864527951877957 -0.7218955092659719 0.544545880678472 -0.018542298418849884 2.844940938225571 -0.8972336001159934
4.919492721557617 -1.4690979284099122 -1.857153058052063 2.384890242213867 -1.596295181904928 3.3390140533447266 -0.05864755652353261 -0.721890742119627 0.5445253767428943 -0.018522745917657978 2.844970828897756 -0.8972409829102685
4.91947603225708 -1.469114140873291 -1.857181429862976 2.384890242213867 -1.596267048512594 3.339038848876953 -0.05867111227890141 -0.7218897683175729 0.5444926186714373 -0.01844978989009054 2.8450198422173454 -0.897194555883658
4.91946268081665 -1.4690979284099122 -1.8571938276290894 2.3848561483570556 -1.596325699483053 3.338998556137085 -0.05866225309028213 -0.7218735409000401 0.544487584787508 -0.018514902745345466 2.8450041725838817 -0.8971329769350557
4.91948938369751 -1.4691055578044434 -1.8571521043777466 2.3848649698444824 -1.5963791052447718 3.339055299758911 -0.05863916894627002 -0.7218882755419498 0.5445125964504861 -0.018497352542220707 2.844913194162766 -0.8971455059063724
4.919471740722656 -1.4690774244121094 -1.85715651512146 2.384854479427002 -1.5963838736163538 3.3390345573425293 -0.058649320568650576 -0.7218743688168294 0.5445272391838566 -0.01850449078780998 2.844910698932324 -0.8971683036912782
4.919450283050537 -1.469118432407715 -1.8571698665618896 2.384861870402954 -1.5963342825519007 3.338994264602661 -0.05866551402367636 -0.7218863639167448 0.5444925060039765 -0.018507453844282352 2.84499578453797 -0.897144031739866
4.9194793701171875 -1.4691671294024964 -1.8571069240570068 2.384927435512207 -1.596374813710348 3.339059591293335 -0.05863970060202385 -0.7219291106129597 0.5445161937919549 -0.01847511069947498 2.844889817629265 -0.8972110282679839
4.91947603225708 -1.469118432407715 -1.85715651512146 2.384894533748291 -1.5963299910174769 3.339080333709717 -0.05866336056157713 -0.7218966550132869 0.5445065613962331 -0.01842004603260257 2.844943024077109 -0.897186094974823
4.919467449188232 -1.469081701045372 -1.8571982383728027 2.38491074621167 -1.5963957945453089 3.3390302658081055 -0.058649229837327496 -0.7218728794985526 0.5445035241344522 -0.01850926875968641 2.844897041721724 -0.8971775987369831
4.919484615325928 -1.4691098493388672 -1.8571442365646362 2.384910984630249 -1.5963457266436976 3.33901047706604 -0.05863939150748844 -0.7218980361281147 0.5445266867227628 -0.018539536262224064 2.8449218091383637 -0.8972399859992406
4.919434547424316 -1.4690936368754883 -1.857161045074463 2.384894533748291 -1.5963791052447718 3.339055299758911 -0.05867932973219779 -0.7218826827786522 0.5445198820963253 -0.018419716824216687 2.8449074186548002 -0.8972001921398021
4.919471740722656 -1.4690569204143067 -1.8571770191192627 2.384931727046631 -1.5963581244098108 3.3389899730682373 -0.05864690637834752 -0.7218728032383253 0.5445429868524873 -0.01855673219323753 2.8448947128927786 -0.897294964629259
4.9194746017456055 -1.4690979284099122 -1.8571724891662598 2.384899063701294 -1.596365753804342 3.3390183448791504 -0.05864628665464053 -0.7218843481630514 0.544510541689208 -0.018522800997994873 2.8449237911594865 -0.8971916927676873
4.91946268081665 -1.4690774244121094 -1.857184886932373 2.384906454677246 -1.596365753804342 3.338961601257324 -0.058645653406311705 -0.7218737034903946 0.5445185091228816 -0.018586912803716757 2.844931116055447 -0.8972261473021276
4.919440269470215 -1.4690774244121094 -1.8571202754974365 2.384873791331909 -1.5963495413409632 3.3390183448791504 -0.05867424616886041 -0.7218845916229948 0.544559743323437 -0.0184681393615645 2.844916275285797 -0.8972708338371848
4.919450283050537 -1.469064549808838 -1.85715651512146 2.3849078851887207 -1.596325699483053 3.339006185531616 -0.05867193525077709 -0.721877019212662 0.5445488654631502 -0.018488449661826 2.8449294827357896 -0.8972985613574965
4.919455051422119 -1.469102219944336 -1.8571139574050903 2.384901924724243 -1.5963414351092737 3.33904767036438 -0.05866830186451264 -0.7219001897805746 0.5445521356054913 -0.018443432017842466 2.844905956397441 -0.8972794955982915
4.919504642486572 -1.469086007480957 -1.8571654558181763 2.384894533748291 -1.59633714357485 3.3389363288879395 -0.058615519923534885 -0.7218827443699878 0.544526365032725 -0.018669600592213068 2.844950149977654 -0.8972366834967617
4.91947603225708 -1.4691109743765374 -1.8571983575820923 2.384923143977783 -1.59633714357485 3.3390190601348877 -0.0586515955410214 -0.7218869102134422 0.5444872952674675 -0.01850996642778217 2.8449558750008515 -0.8971867472656173
4.919508934020996 -1.4690979284099122 -1.8571397066116333 2.3848606783100585 -1.5964048544513147 3.3390259742736816 -0.05861348421565032 -0.7218880586286598 0.5445266649737581 -0.018579123096089376 2.8448844387439634 -0.8971547722529104
4.91948938369751 -1.469102219944336 -1.8571654558181763 2.3848976331898193 -1.5963457266436976 3.3389692306518555 -0.058629804909415335 -0.7218881984661731 0.5445145362573597 -0.018604634891210576 2.8449473430825987 -0.8972109816546265
4.919439315795898 -1.4690947619131585 -1.8571442365646362 2.38491074621167 -1.596325699483053 3.3389484882354736 -0.05866550945346666 -0.7218897846447494 0.544539427625859 -0.018554636241854144 2.844955818326816 -0.8972919256907249
4.919459342956543 -1.46913035333667 -1.857161045074463 2.38493196546521 -1.596320931111471 3.3390183448791504 -0.05866358894971642 -0.721903424684169 0.5445042064544409 -0.0184803391801903 2.84495696400539 -0.8972348478568413
4.919484615325928 -1.469090299015381 -1.85715651512146 2.384899063701294 -1.5963323752032679 3.3390345573425293 -0.058649559174064135 -0.7218871549113847 0.5445282667758686 -0.018499215592358193 2.844929649517644 -0.8972360851130725
4.919419765472412 -1.4690893453410645 -1.8571654558181763 2.384890242213867 -1.5963504950152796 3.33901047706604 -0.05868827706351058 -0.7218788885644246 0.5445207055039627 -0.018449413263901274 2.8449482144583493 -0.8972213934114323
4.919443607330322 -1.4690817159465333 -1.8571938276290894 2.384885712260864 -1.596325699483053 3.3389930725097656 -0.05867537524168665 -0.7218706028343473 0.544504774681928 -0.018496198586903764 2.8449821123249865 -0.8971994382428353
4.919541358947754 -1.4690817159465333 -1.8571655750274658 2.384898825282715 -1.5963414351092737 3.338998556137085 -0.05860054634019936 -0.7218845450760195 0.5445281608943714 -0.01863524066499421 2.844916621886953 -0.8972261603030807
4.919471740722656 -1.4690850538066407 -1.8571770191192627 2.3849240976520996 -1.5963323752032679 3.3390018939971924 -0.05865319173389209 -0.7218826180869516 0.5445222437777828 -0.018527252323973266 2.8449350083169427 -0.8972583261669325
4.919447898864746 -1.4690774244121094 -1.8571521043777466 2.3849186140247802 -1.5963719526873987 3.3390464782714844 -0.05866968891817731 -0.7218832042478118 0.5445430392254859 -0.01844873710191389 2.844881306804579 -0.8972693443468089
4.9194231033325195 -1.4690936368754883 -1.857161045074463 2.384915276164673 -1.5962966124164026 3.3389899730682373 -0.0586928112622533 -0.7218862866924255 0.5445278734448912 -0.018458863905469178 2.844980596844492 -0.8972875324935381
4.919483661651611 -1.469102219944336 -1.8571654558181763 2.384887142772339 -1.596402947102682 3.3389692306518555 -0.058621265145080564 -0.7218848888982786 0.5445110851722013 -0.018622626660127883 2.844908790961383 -0.8971673348260263
4.919467449188232 -1.4690817159465333 -1.8571892976760864 2.3848869043537597 -1.5963166395770472 3.3390345573425293 -0.058668143308624625 -0.7218739886746246 0.5445074388973629 -0.01846696195730943 2.844969563571908 -0.8971990375983441
4.91946268081665 -1.469114140873291 -1.8571521043777466 2.3848575788685302 -1.5963414351092737 3.338986396789551 -0.0586529137246803 -0.7218889636581169 0.5445081407022523 -0.018540039429703403 2.84497753905703 -0.8971631492568649
4.919475078582764 -1.4690774244121094 -1.857181429862976 2.3849186140247802 -1.5963433424579065 3.338994264602661 -0.058647730371116875 -0.72187790658626 0.5445230890704402 -0.018547917656764026 2.8449284596008533 -0.8972502415801509
4.919435977935791 -1.4690936368754883 -1.8571724891662598 2.3849565225788574 -1.5963504950152796 3.339014768600464 -0.0586757392044941 -0.7218887291246076 0.5445252186662674 -0.018466534154464427 2.844908970385261 -0.8972913741401208
4.919508934020996 -1.4690569204143067 -1.8571892976760864 2.384955568904541 -1.5962994734393519 3.3390140533447266 -0.05863808844064272 -0.7218771440934723 0.5445390846669895 -0.018548305339971715 2.844919703432779 -0.8973298562478591
4.919427394866943 -1.4691627782634278 -1.8572425842285156 2.384901924724243 -1.596320931111471 3.339006185531616 -0.058686797528028946 -0.7218892612506349 0.5444144999731425 -0.01844936177774262 2.8450579345637244 -0.8970500331870224
4.919455051422119 -1.469081663792469 -1.857161045074463 2.384923143977783 -1.5963504950152796 3.3390800952911377 -0.05867604278210131 -0.7218845777290238 0.5445337553618941 -0.018400921196056165 2.844894108051862 -0.8972611547061521
4.919455051422119 -1.469118432407715 -1.857181429862976 2.384901924724243 -1.5963323752032679 3.3390097618103027 -0.05866511427101127 -0.7218895395085745 0.5444911697286242 -0.018491292071733226 2.8449747395702487 -0.8971794456847397
4.919455051422119 -1.469126084153988 -1.8571476936340332 2.384873791331909 -1.596365753804342 3.339026927947998 -0.05865938927116443 -0.7218958505289523 0.544504562656811 -0.018482548483282683 2.8449445480080047 -0.8971553136795489
4.919455051422119 -1.4690655034831543 -1.8571001291275024 2.3848530489155273 -1.5963323752032679 3.339055061340332 -0.05867510333704365 -0.7218841390228781 0.5445785557007193 -0.018429605688620055 2.8449102578568457 -0.8972849686361241
4.919459342956543 -1.4691260692528267 -1.8571308851242065 2.3849186140247802 -1.5963085333453577 3.3390183448791504 -0.058665514759415796 -0.7219076711480991 0.5445276951303932 -0.018475383407434227 2.8449538316220706 -0.8972697791681865
4.919440746307373 -1.4691012439182778 -1.85713529586792 2.3849195676990966 -1.5963791052447718 3.3390183448791504 -0.058665022710653186 -0.721894904613699 0.5445400519712927 -0.018481758942968246 2.844887993448867 -0.8972643686025116
4.919485092163086 -1.4690979284099122 -1.85715651512146 2.3848575788685302 -1.596295181904928 3.339006185531616 -0.05865253673865258 -0.7218849344777546 0.5445166157259276 -0.01852280170244449 2.844997111430607 -0.897195422764133
4.919463634490967 -1.4690774244121094 -1.8571442365646362 2.384890242213867 -1.5963504950152796 3.3389692306518555 -0.05864826350323991 -0.7218818306263751 0.5445462466180431 -0.018571265275926604 2.8449261023354384 -0.8972653932671281
4.919467926025391 -1.4690774467638512 -1.8571442365646362 2.384955568904541 -1.5963628927813929 3.3389735221862793 -0.05864150863411958 -0.7218906768681417 0.5445585552596378 -0.01857738383514573 2.844873440950916 -0.8973449928498696
4.919467449188232 -1.469052643781044 -1.8571351766586304 2.3849195676990966 -1.5963414351092737 3.3389899730682373 -0.058652271549857096 -0.721879884684397 0.544575646532812 -0.01854399862470341 2.8448881774271 -0.8973503332691519
4.919471740722656 -1.4691141334227105 -1.8571770191192627 2.3848575788685302 -1.596353832875387 3.3390345573425293 -0.05865435612243726 -0.721883738610426 0.5444875800362255 -0.018489411205618422 2.844968879286951 -0.8971117106078682
4.919467449188232 -1.4691098493388672 -1.85715651512146 2.384878321284912 -1.5963323752032679 3.3389649391174316 -0.05864728892790126 -0.7218894640753171 0.5445126854009443 -0.01857336679243771 2.8449761272304883 -0.8971990841228682
4.919525146484375 -1.469069780116417 -1.857161045074463 2.3848976331898193 -1.596353832875387 3.338994264602661 -0.05860928464826913 -0.7218798871112428 0.5445394649883024 -0.018624372280083432 2.84490230692689 -0.8972440967098952
4.919431686401367 -1.4690979284099122 -1.8571892976760864 2.384873791331909 -1.5963671843158167 3.339043140411377 -0.05868335703358277 -0.7218746128222009 0.5444921291954952 -0.018426593317657548 2.844953951446794 -0.8971379050537471
4.919487953186035 -1.4691260618022461 -1.857161045074463 2.3848652082630615 -1.596325699483053 3.339043140411377 -0.05864880811385384 -0.7218946733824181 0.5444933091230724 -0.018487495199133588 2.8449781760893815 -0.8971375758847533
4.919447898864746 -1.469090299015381 -1.8571947813034058 2.384922905559204 -1.5963166395770472 3.339038848876953 -0.05868181045049229 -0.7218795183348483 0.5445042329799292 -0.01843299273546624 2.844960135706002 -0.8972316456960705
4.919487953186035 -1.4690654811314126 -1.8572052717208862 2.384915276164673 -1.59633714357485 3.338972806930542 -0.05863779681315713 -0.7218681410622794 0.5445134758988415 -0.018593623481263286 2.844944841380738 -0.8972347875078303
4.919493675231934 -1.4691098493388672 -1.857185959815979 2.384906454677246 -1.596353832875387 3.3390018939971924 -0.058631576958763816 -0.7218876027166814 0.5444942917225202 -0.018567324292021938 2.8449437513277633 -0.8971734020982576
4.919471740722656 -1.4691141706756135 -1.857122778892517 2.384861870402954 -1.5963433424579065 3.3389649391174316 -0.058640089285533534 -0.7218968307675557 0.5445317256725655 -0.018585066777056406 2.8449579173148876 -0.8972097169685167
4.919483661651611 -1.469086007480957 -1.8571680784225464 2.384890242213867 -1.596288029347555 3.3389976024627686 -0.05865412136507312 -0.7218823569129519 0.5445229497941304 -0.0185299514098272 2.8449849652048225 -0.8972457086688843
4.919430255889893 -1.4690979358604928 -1.8571521043777466 2.3849186140247802 -1.5963175932513636 3.3389933109283447 -0.05868269721973958 -0.721890310516353 0.5445316908989731 -0.01847401342011297 2.844955882860622 -0.8972849436340817
4.919529438018799 -1.4690947619131585 -1.8571274280548096 2.384894533748291 -1.5963414351092737 3.33901047706604 -0.058608693849631015 -0.7218972156849919 0.5445467727508216 -0.01860189256560483 2.84490384273336 -0.897254095874237
4.919487953186035 -1.4690936368754883 -1.8571397066116333 2.3848859506794433 -1.5963581244098108 3.339022636413574 -0.058638203157011404 -0.7218899591813226 0.5445358230095069 -0.018532951446066943 2.8449104482158636 -0.8972244264076028
4.919520854949951 -1.4690978911570092 -1.8571442365646362 2.384878321284912 -1.5963457266436976 3.3390302658081055 -0.05861887671892646 -0.721891703471651 0.5445280326291535 -0.0185628970391251 2.8449202460851115 -0.8972009611635747
4.919414043426514 -1.46907743186269 -1.8571654558181763 2.384862108821533 -1.596374813710348 3.339026927947998 -0.058691772173884646 -0.7218700285859714 0.5445224060436438 -0.018429071999914354 2.844935907127641 -0.8971843586388005
4.919467449188232 -1.469090299015381 -1.857161045074463 2.384878321284912 -1.596325699483053 3.3389933109283447 -0.058656087162748276 -0.7218819344137558 0.5445221649721135 -0.018530256876813544 2.8449652858191747 -0.8972172191539287
4.9194183349609375 -1.4691422891667862 -1.857181429862976 2.3849033552357177 -1.5962966124164026 3.33901047706604 -0.058698040165388064 -0.7218970448291613 0.5444757395847158 -0.01842118150732892 2.845027260477897 -0.8971756116212839
4.919439315795898 -1.469077394609787 -1.8571815490722656 2.384927435512207 -1.5963175932513636 3.3389976024627686 -0.05867980936256434 -0.7218777036875107 0.5445252755044792 -0.018480621632661273 2.844952561978042 -0.897282221456137
4.919443607330322 -1.4690979284099122 -1.8571815490722656 2.3848652082630615 -1.5963085333453577 3.339006185531616 -0.058680547161399324 -0.7218771586061434 0.5444988393694177 -0.018469431579083633 2.8450080145876395 -0.8971731355980299
4.919487953186035 -1.469097913508751 -1.8571486473083496 2.38491074621167 -1.5963953177081507 3.33901047706604 -0.058626883875776956 -0.7218915489790871 0.5445303752644992 -0.018567157467592216 2.844876057330988 -0.8972225457199715
4.919483661651611 -1.4691389364055176 -1.8571486473083496 2.384906454677246 -1.5963299910174769 3.339022636413574 -0.05864422169766606 -0.7219072264609888 0.544502296616967 -0.01851284188914866 2.844955578626751 -0.8971950925328016
4.91947603225708 -1.4690817159465333 -1.8571770191192627 2.38493458806958 -1.5963133017169397 3.339022636413574 -0.05865847978442826 -0.721883868377296 0.5445264686648175 -0.018495228887455913 2.844935771914337 -0.8972821948640294
4.919435977935791 -1.4690443736365815 -1.8571442365646362 2.384882612819336 -1.596320931111471 3.3390097618103027 -0.058685574961354264 -0.7218686883929202 0.5445672421916304 -0.018461435763641097 2.8449316442713166 -0.8973128087726773
4.919471740722656 -1.469106526379921 -1.85712730884552 2.3848413664051513 -1.5963504950152796 3.3390183448791504 -0.058650351270983905 -0.7218906758913356 0.5445278608398341 -0.018512213715081265 2.844949837166868 -0.8971718745392919
4.919487953186035 -1.4691379827312012 -1.8571486473083496 2.384890242213867 -1.5963504950152796 3.339038848876953 -0.05864017969502244 -0.7219045738814338 0.5444988147434907 -0.018505146985342398 2.8449432639721746 -0.8971594927747882
4.91947603225708 -1.4691218373230477 -1.8571407794952393 2.384922905559204 -1.5963628927813929 3.339031219482422 -0.058644422560868575 -0.7219040302204877 0.5445222747465768 -0.018505545153704797 2.8449029841815263 -0.8972329709820186
4.919497013092041 -1.4690893676928063 -1.8571938276290894 2.384861870402954 -1.5963671843158167 3.339026927947998 -0.058634176107187935 -0.7218724983528139 0.5444927954931078 -0.01854251025833198 2.8449456444819905 -0.8971175344715924
4.919483661651611 -1.4691184920123597 -1.8571397066116333 2.384882612819336 -1.5963504950152796 3.3389735221862793 -0.058631566775569584 -0.7218977245402722 0.5445195411303363 -0.018592698438156786 2.844947298688027 -0.8972012105948188
4.91947603225708 -1.4691260692528267 -1.8571654558181763 2.3848370748707275 -1.5963495413409632 3.3389813899993896 -0.05864078321668456 -0.7218877186739263 0.5444857028532168 -0.018569111773345776 2.8449971094314344 -0.8970955791732561
4.919471740722656 -1.4691184547594567 -1.857157588005066 2.384894533748291 -1.5963547865497034 3.3390140533447266 -0.05864781413767747 -0.721894697625431 0.5445070718301145 -0.01851966544562681 2.844940811396533 -0.8971853252737678
4.919443607330322 -1.469122753744461 -1.8572027683258057 2.3849186140247802 -1.5963547865497034 3.3390355110168457 -0.05867372857673876 -0.7218872416285532 0.5444739789337609 -0.01844813228990374 2.844958909967404 -0.8971526101390431
4.919389724731445 -1.4691141930273552 -1.857184886932373 2.3849076467701416 -1.5963628927813929 3.3390183448791504 -0.05870740787634146 -0.7218834191962501 0.5444916146559908 -0.018400279456403188 2.844960920114621 -0.8971830993110024
4.9194231033325195 -1.4690443661860009 -1.857181429862976 2.384906454677246 -1.5963342825519007 3.338982105255127 -0.05868767146597541 -0.7218615415120213 0.5445442490250354 -0.01848792938583161 2.8449393342707827 -0.8972958440307316
4.919455051422119 -1.4691012886217614 -1.85712730884552 2.3849186140247802 -1.5963342825519007 3.33901047706604 -0.05866289375401931 -0.7218986693502657 0.544547207536162 -0.01849294656293278 2.8449182544386256 -0.8972964902264148
4.919439315795898 -1.4690688115409394 -1.857153058052063 2.3849195676990966 -1.596374813710348 3.3389899730682373 -0.05866474348519932 -0.7218787888715446 0.5445500736569733 -0.018518507133227998 2.844889632346703 -0.8972922871526535
4.919487953186035 -1.4690816935947915 -1.85715651512146 2.3848694997974853 -1.5963504950152796 3.33901047706604 -0.05863970413874309 -0.7218794971880541 0.5445287329509162 -0.018546542266727976 2.8449328314958913 -0.8972022369945084
4.919471740722656 -1.469090313916542 -1.8571938276290894 2.3848575788685302 -1.5963881651507776 3.339022636413574 -0.05864686740406526 -0.7218701513533006 0.5444909120337686 -0.018522266563565357 2.8449394929759224 -0.8971051028515671
4.919497013092041 -1.4691141632250329 -1.85721755027771 2.3848740297504882 -1.5963342825519007 3.3389692306518555 -0.05862927982481457 -0.7218774778094699 0.5444625066937812 -0.018608559807132753 2.845009180729277 -0.8970977886449498
4.919450283050537 -1.4690850538066407 -1.8571577072143555 2.3849074083515625 -1.596328083668844 3.338998556137085 -0.05866843844365559 -0.7218838107633676 0.5445337984217182 -0.018499893592617722 2.8449432208108725 -0.8972690057731134
4.91947603225708 -1.4691551488688965 -1.857131838798523 2.38493458806958 -1.5963299910174769 3.3390018939971924 -0.05864283574645891 -0.7219201639198307 0.5445098553898833 -0.01853175508111182 2.844944847962096 -0.8972393988465824
4.919443607330322 -1.4690730956247826 -1.8571114540100098 2.38491074621167 -1.5963299910174769 3.3389856815338135 -0.058668718293204566 -0.7218905270488837 0.5445780762334971 -0.018511014929826732 2.8449081943745496 -0.8973545505614982
4.919406414031982 -1.4690654513290902 -1.8571486473083496 2.384850187892578 -1.5963042418109339 3.3390183448791504 -0.0587118881668065 -0.7218695446935772 0.5445430969597029 -0.01839873929351937 2.844986826372005 -0.8972479982999525
4.919463634490967 -1.469086007480957 -1.8571724891662598 2.384882612819336 -1.596353832875387 3.339063882827759 -0.058667206947912304 -0.7218780899852046 0.5445145630738821 -0.01843707462259253 2.8449280165546003 -0.8971850896345166
4.9194793701171875 -1.4691055578044434 -1.8571983575820923 2.384927197093628 -1.5964000860797327 3.33901047706604 -0.05863355065684518 -0.7218839233794472 0.5444905558210393 -0.018555903626031708 2.844900011475587 -0.8971668017382886
4.919487953186035 -1.4690409910729905 -1.8571274280548096 2.384878321284912 -1.596320931111471 3.3390097618103027 -0.058647558207135034 -0.721873989672075 0.5445814690929148 -0.018535729967656924 2.8449080847606965 -0.8973238515938268
4.919480323791504 -1.4691227239421387 -1.857131838798523 2.3849360185810546 -1.596320931111471 3.339022636413574 -0.05864825664551222 -0.721909561000664 0.5445322643716458 -0.018504935812329152 2.8449249430304167 -0.8972847799540286
4.919425964355469 -1.4690601241639634 -1.85713529586792 2.3849150377460937 -1.5963628927813929 3.3390302658081055 -0.058684889497118836 -0.7218793662769969 0.5445677683082815 -0.018437291908142247 2.8448793227232474 -0.897322763855477
4.919467449188232 -1.4691098493388672 -1.85715651512146 2.3848652082630615 -1.5963299910174769 3.339022636413574 -0.058659563214773836 -0.7218884310888027 0.5445084903735476 -0.018490015043256012 2.8449721250656896 -0.8971712691824651
4.919471740722656 -1.4690979284099122 -1.857122778892517 2.3848859506794433 -1.5963457266436976 3.339022636413574 -0.05865152544217578 -0.7218949394656937 0.5445459531587987 -0.018504540247492672 2.8449169007962216 -0.8972512547552435
4.919484615325928 -1.4690655034831543 -1.8571724891662598 2.384894533748291 -1.596374813710348 3.3389856815338135 -0.05863308690612895 -0.7218721479660947 0.5445329093149931 -0.01858842229456667 2.8449043466294923 -0.8972287899320147
4.919480323791504 -1.4691099014929314 -1.857214093208313 2.3848859506794433 -1.596325699483053 3.3390140533447266 -0.05865195023965892 -0.7218781963389649 0.5444693033127205 -0.01851734834846211 2.8449974330680647 -0.8971232360111159
4.9194183349609375 -1.4691465658000489 -1.8571486473083496 2.3848740297504882 -1.5963581244098108 3.3389933109283447 -0.05867950224800336 -0.7219005968213338 0.5444908393770003 -0.01847425995878617 2.844981777678109 -0.8971448610262892
4.919521808624268 -1.4691141259721299 -1.8571158647537231 2.3849031168171386 -1.5963457266436976 3.3390345573425293 -0.058615730674011324 -0.7219077741631919 0.5445429375637827 -0.01855860377373112 2.8448960350368946 -0.8972496120315697
4.919430255889893 -1.4690655034831543 -1.857131838798523 2.3848575788685302 -1.596353832875387 3.338988780975342 -0.058676565253207684 -0.721874314335303 0.5445568706882331 -0.018497871566552034 2.8449324237339058 -0.897255028391244
4.9194416999816895 -1.46908504635606 -1.8571442365646362 2.3849150377460937 -1.5962908903705042 3.339006185531616 -0.058683666917052194 -0.7218886744757629 0.544546172464145 -0.018460175393057835 2.844960737504943 -0.8973174996910398
4.919492721557617 -1.4690611746958275 -1.8571770191192627 2.3849031168171386 -1.5963323752032679 3.339022636413574 -0.05864446323818727 -0.7218727464577215 0.544534119844932 -0.01852793666622474 2.8449225535756226 -0.8972538842992445
4.919487953186035 -1.469056875710823 -1.857161045074463 2.3849195676990966 -1.5963133017169397 3.3389573097229004 -0.05863839321468589 -0.721876751646946 0.5445547867500978 -0.018606054566726735 2.844932410496347 -0.8973273813693131
4.919508934020996 -1.4691346374205132 -1.8571351766586304 2.3849150377460937 -1.596374813710348 3.3389692306518555 -0.05860469861542357 -0.7219097349605936 0.5445176164790679 -0.018645805146568706 2.844909114137919 -0.8972120839462927
4.91947603225708 -1.4690979358604928 -1.8571442365646362 2.3848859506794433 -1.5963581244098108 3.3390183448791504 -0.05864587357919966 -0.7218896506041825 0.5445295368961942 -0.01852191742909158 2.8449201226028578 -0.8972157790874242
4.919455051422119 -1.469090313916542 -1.8571938276290894 2.38491074621167 -1.5963414351092737 3.339043140411377 -0.05867215204581829 -0.7218779010987202 0.5445018358058404 -0.018448333497746668 2.844943986128327 -0.8972009803194597
4.919434547424316 -1.4690978911570092 -1.857161045074463 2.384894533748291 -1.5963495413409632 3.3389976024627686 -0.05867430696610986 -0.7218843137268472 0.544519347355988 -0.01848824796517408 2.844948173194603 -0.8972217493304774
4.919492721557617 -1.4691217479160805 -1.8571770191192627 2.3849517542072753 -1.5963791052447718 3.339050769805908 -0.05863368020405397 -0.7218999774665817 0.5444995816368882 -0.018508184800362773 2.844885353274846 -0.8972073914852489
4.919508934020996 -1.469086007480957 -1.8571228981018066 2.384898825282715 -1.5963910261737269 3.339014768600464 -0.058613433054445205 -0.7218932775593307 0.544555774232414 -0.018589696501294373 2.8448569009989724 -0.8972543650517711
4.919410705566406 -1.4690979284099122 -1.8571698665618896 2.3849360185810546 -1.59633714357485 3.338977813720703 -0.05868978504412527 -0.7218865428699098 0.5445216320234658 -0.01847695861608659 2.8449491841162904 -0.8972810040967348
4.919497013092041 -1.4690323782018204 -1.8571476936340332 2.384930296535156 -1.5963414351092737 3.3390259742736816 -0.05863990826845797 -0.721873280950843 0.5445812867416344 -0.018534988480970373 2.844860190541125 -0.8973621971201187
4.919517517089844 -1.469102219944336 -1.857181429862976 2.384922905559204 -1.59633714357485 3.3390140533447266 -0.05862044955120525 -0.7218902044324724 0.5445062804651951 -0.018576643520153785 2.8449303556650296 -0.8972136972764048
4.919455051422119 -1.4690486428192635 -1.8571654558181763 2.38491074621167 -1.5963705221759241 3.338994264602661 -0.05865756589039651 -0.7218685231175332 0.5445529561680839 -0.01853290624723723 2.844888570662563 -0.8972891796162425
4.919467926025391 -1.4691508573344727 -1.8571486473083496 2.384882612819336 -1.5963614622699183 3.339026927947998 -0.05864904377265271 -0.7219065067514971 0.5444884660727007 -0.018498333510357214 2.8449552408869874 -0.897132377369951
4.919501304626465 -1.4690817159465333 -1.8571442365646362 2.384882612819336 -1.596353832875387 3.3389976024627686 -0.05862579714321277 -0.7218847767550204 0.5445408623945599 -0.01858575683148431 2.8449139964870316 -0.8972344764847339
4.919439315795898 -1.4690893453410645 -1.857184886932373 2.3848869043537597 -1.5963504950152796 3.338977098464966 -0.058668654053767824 -0.7218745168985794 0.5445063340381455 -0.018524242777796972 2.8449654028882763 -0.8971935365173276
4.919430255889893 -1.4690817159465333 -1.8571486473083496 2.3848859506794433 -1.5963414351092737 3.339050769805908 -0.05869052883089228 -0.7218809676735647 0.544536920430148 -0.018403336320376645 2.8449304356309773 -0.8972432324632742
4.919497013092041 -1.4691217702678223 -1.857184886932373 2.384890242213867 -1.5963547865497034 3.338977813720703 -0.058623676738128766 -0.72188978524631 0.544484344070674 -0.01860642905050219 2.844964756906967 -0.8971405942696695
4.91951322555542 -1.4690936368754883 -1.8571680784225464 2.3849238592335205 -1.5963447729693812 3.3389856815338135 -0.05861614864471333 -0.721889693829588 0.5445231727910511 -0.01861496737725657 2.84491792011946 -0.8972468332258139
4.919463634490967 -1.4690817084959527 -1.8571442365646362 2.384894533748291 -1.5963581244098108 3.338982105255127 -0.05864865011393451 -0.72188388430018 0.5445435446080114 -0.01855635288476501 2.8449167755277647 -0.8972587781455268
4.919517517089844 -1.4691260618022461 -1.857151985168457 2.38493458806958 -1.5963414351092737 3.338994264602661 -0.05861198632094365 -0.7219070020739701 0.5445147562082121 -0.018607008046788113 2.8449209558343385 -0.897238573699751
4.919430255889893 -1.4690990534475823 -1.8571724891662598 2.384878321284912 -1.5963457266436976 3.3389573097229004 -0.058671231775367205 -0.7218791490867602 0.5445079940092721 -0.01853737428422742 2.8449801071491776 -0.897193859762732
4.919455051422119 -1.4690817159465333 -1.8571619987487793 2.384906454677246 -1.596353832875387 3.3390345573425293 -0.05866677382896937 -0.7218814712242261 0.5445309947483746 -0.018467158709853795 2.8449134425005775 -0.8972445664883383
4.919463634490967 -1.469114140873291 -1.8571351766586304 2.38491074621167 -1.596325699483053 3.339038848876953 -0.058663893831123394 -0.7219013559661298 0.5445301724655335 -0.018460264219130256 2.844933858582134 -0.8972553341273292
4.919414043426514 -1.4690893453410645 -1.8571770191192627 2.3848869043537597 -1.5963581244098108 3.339022636413574 -0.05869376177993414 -0.7218752576733083 0.5445107620384312 -0.018427162621226897 2.844949821334092 -0.8971960024874271
4.919467449188232 -1.4691065114787598 -1.8571724891662598 2.384898825282715 -1.5963671843158167 3.3390183448791504 -0.05865049452684874 -0.7218869121107709 0.5445045000903939 -0.018513090071290234 2.8449299994076678 -0.8971804916935471
4.919450283050537 -1.4691389364055176 -1.857185959815979 2.384882612819336 -1.5963414351092737 3.338977813720703 -0.05865940810277216 -0.7218922207594127 0.5444704504955911 -0.018533439501058277 2.845003953741969 -0.8971222274363845
4.919419765472412 -1.4690936368754883 -1.8571892976760864 2.384906454677246 -1.5963175932513636 3.3390018939971924 -0.058694504602828296 -0.7218776757858059 0.5445039133604748 -0.01844602086939708 2.844984577198681 -0.897224760036077
4.919455051422119 -1.4690817159465333 -1.8571476936340332 2.384882612819336 -1.5963414351092737 3.338977813720703 -0.058658260066842036 -0.7218813346199111 0.5445391320875859 -0.018542463186110476 2.8449431817143656 -0.8972495629293393
4.91947603225708 -1.469074086552002 -1.8571486473083496 2.3848816591450195 -1.5963504950152796 3.339055061340332 -0.05865696061845585 -0.7218801609995 0.544541031969481 -0.018466562213921518 2.8449079240424955 -0.8972329262475897
4.919443607330322 -1.4691055578044434 -1.8571770191192627 2.3848740297504882 -1.5963414351092737 3.339031219482422 -0.058677020070564245 -0.7218815667910368 0.5444971484941272 -0.018448832618375367 2.8449716267738685 -0.8971582641854826
4.919508934020996 -1.469086007480957 -1.8571521043777466 2.3848578172871093 -1.5963123480426233 3.3389976024627686 -0.058630402032797686 -0.7218826161790967 0.5445281073346959 -0.01857714487305495 2.8449686618699874 -0.8972054644241327
4.919410705566406 -1.4690936368754883 -1.8571982383728027 2.384890242213867 -1.5963705221759241 3.3390140533447266 -0.05869235243148054 -0.7218715050507508 0.544492329259348 -0.01843973914520196 2.8449565433367647 -0.8971619486377431
4.919450759887695 -1.4691109743765374 -1.8571815490722656 2.384915276164673 -1.5963504950152796 3.339014768600464 -0.05866531563982177 -0.7218879873275243 0.5444982733069214 -0.018486625686499565 2.844947071898171 -0.8971974367024659
4.919491291046143 -1.4690774244121094 -1.857131838798523 2.3849150377460937 -1.5963628927813929 3.3389856815338135 -0.05862746356613052 -0.7218896583441023 0.5445596797042591 -0.018593274919743136 2.844881687417889 -0.8973000540410744
4.919443607330322 -1.4690936368754883 -1.8571938276290894 2.3848587709614257 -1.596295181904928 3.3390097618103027 -0.058685388518911565 -0.7218722092099519 0.5444914966740648 -0.018457991424811873 2.8450269672606154 -0.8971601818981266
4.919487953186035 -1.469086007480957 -1.857185959815979 2.3849143224903564 -1.596374813710348 3.3389573097229004 -0.05862372531976925 -0.721878754411525 0.5445131774450083 -0.018632907454008456 2.84491931702173 -0.8972147586287944
4.919484615325928 -1.469114140873291 -1.8571158647537231 2.384906454677246 -1.5962908903705042 3.339043140411377 -0.05865659188151243 -0.7219076376657754 0.5445446726183254 -0.018468451399760943 2.8449462376046366 -0.8972891372733551
4.919443607330322 -1.4690979284099122 -1.8571698665618896 2.3848869043537597 -1.596374813710348 3.339014768600464 -0.05866608725431208 -0.7218812214995763 0.5445100346636191 -0.018487981166695158 2.844931304886045 -0.8971808389534273
4.919431686401367 -1.4690936368754883 -1.85713529586792 2.3848740297504882 -1.5962923208819788 3.339059352874756 -0.05870104128033331 -0.7218883140462131 0.5445373694029914 -0.018370609699667573 2.8449743962089626 -0.8972534264554751
4.9194722175598145 -1.4691508573344727 -1.857131838798523 2.3849403101154785 -1.596325699483053 3.339043140411377 -0.05865487596842435 -0.7219197946350222 0.5445128470613605 -0.018465771313730887 2.8449330744951125 -0.8972477511327563
4.919517517089844 -1.469142274265625 -1.857161045074463 2.3848413664051513 -1.596370045338766 3.3390345573425293 -0.05861515476147837 -0.7218976355141121 0.5444765608556057 -0.018561476927560626 2.8449613034812877 -0.8970557717579648
4.91947603225708 -1.4690936368754883 -1.8571486473083496 2.384927197093628 -1.5963581244098108 3.3390345573425293 -0.058648548202644896 -0.7218928541840298 0.5445367618078776 -0.01849911490246922 2.844890722837802 -0.8972679607500121
4.919480323791504 -1.4690569204143067 -1.857157588005066 2.3848575788685302 -1.596295181904928 3.3389813899993896 -0.058654186159023326 -0.721869508456636 0.5445450066702614 -0.01855227478260171 2.844979511042754 -0.8972549338626792
4.919450759887695 -1.4690697950175782 -1.8571397066116333 2.384870691890381 -1.59633714357485 3.3390140533447266 -0.058670272624369836 -0.7218776858565179 0.5445501661485441 -0.01848317693834192 2.8449339340685804 -0.8972562216331619
4.919471740722656 -1.469114140873291 -1.8571938276290894 2.384873791331909 -1.596325699483053 3.3389530181884766 -0.058645056199574955 -0.7218816984783408 0.5444811078917442 -0.01859237126068572 2.8450120781457575 -0.8971421825538255
4.919467449188232 -1.469090299015381 -1.85709810256958 2.384894533748291 -1.5963299910174769 3.3390259742736816 -0.05865792292549921 -0.7218995330154601 0.5445718828063738 -0.018487307588759327 2.8449045564869726 -0.8973148293301612
4.919497013092041 -1.4690893453410645 -1.8571938276290894 2.38491074621167 -1.5963414351092737 3.339026927947998 -0.05863873119457276 -0.7218798256960488 0.5445029843520486 -0.01853106489385694 2.844936333750503 -0.8971971786549702
4.919497013092041 -1.4691389364055176 -1.857161045074463 2.3849150377460937 -1.5963299910174769 3.3389735221862793 -0.05862529587560474 -0.7219056130558407 0.5444960350044645 -0.018601523797066876 2.844966462100497 -0.897197084101201
4.919447898864746 -1.4690785494497796 -1.857185959815979 2.384930296535156 -1.5962756315814417 3.3390259742736816 -0.05868877367704868 -0.7218794177547924 0.544521892436049 -0.018433087165166933 2.844979228633714 -0.897293755139201
4.919443607330322 -1.4691379752806206 -1.8571140766143799 2.384906454677246 -1.596353832875387 3.3389976024627686 -0.058661101981753366 -0.7219119024470768 0.5445292669021965 -0.018503339233199707 2.844930628088471 -0.8972429485416386
4.919480323791504 -1.46913035333667 -1.8571442365646362 2.3848694997974853 -1.596353832875387 3.339006185531616 -0.0586393627628858 -0.7218991770656134 0.5445042770323286 -0.018542489944391276 2.8449558332686355 -0.8971539312458819
4.919431686401367 -1.4690569204143067 -1.8571486473083496 2.384894533748291 -1.596288029347555 3.339050769805908 -0.05870319678622221 -0.7218748364579768 0.5445571243031788 -0.018381557016421128 2.8449527310765688 -0.8973164316363932
4.91945219039917 -1.4690947619131585 -1.8571407794952393 2.384906454677246 -1.5963581244098108 3.3389813899993896 -0.05865531288284185 -0.721890300230777 0.5445394441192619 -0.018540970304135977 2.8449185541474753 -0.8972643483188374
4.919459342956543 -1.4690979284099122 -1.8571486473083496 2.384866400355957 -1.596325699483053 3.3389899730682373 -0.05866038778085095 -0.72188549529345 0.544524016918298 -0.01852352375642794 2.844972624042255 -0.8972098370950675
4.919525146484375 -1.4690936368754883 -1.85715651512146 2.384878321284912 -1.596325699483053 3.339055061340332 -0.058626150601271784 -0.7218883260091103 0.5445214614166094 -0.018524323528394563 2.844934375457141 -0.897195148756581
4.919471740722656 -1.469086007480957 -1.8571486473083496 2.3848578172871093 -1.5963323752032679 3.3390302658081055 -0.05865899436805116 -0.7218811107227122 0.5445292724157078 -0.018487033192843387 2.8449520095154344 -0.8972002765163504
4.919487953186035 -1.4690936368754883 -1.8571397066116333 2.384902163142822 -1.596325699483053 3.339026927947998 -0.05864596362769607 -0.721893089410072 0.5445396576932753 -0.018512107604848668 2.844925743966207 -0.8972627802030998
4.919471740722656 -1.469102219944336 -1.8571680784225464 2.3849360185810546 -1.596370045338766 3.338994264602661 -0.05864112018170854 -0.7218913851429914 0.5445187148569901 -0.018555256299077155 2.8449039757131485 -0.8972446581273206
4.919471740722656 -1.469102219944336 -1.8571442365646362 2.384922905559204 -1.5963414351092737 3.338982105255127 -0.05864431085076217 -0.7218959646976851 0.5445352500558013 -0.018559945991413196 2.8449234546750954 -0.8972767629711688
4.919471740722656 -1.4691064965775986 -1.857161045074463 2.3848869043537597 -1.59633714357485 3.339006185531616 -0.058651515643637464 -0.7218889591402833 0.5445119345743993 -0.018522938503342974 2.8449565012351674 -0.897197483834458
4.919480323791504 -1.4690979284099122 -1.8571655750274658 2.3849150377460937 -1.5963671843158167 3.339031219482422 -0.05864360547043762 -0.7218886288141002 0.5445184777069753 -0.01851352687949801 2.8449037965906494 -0.8972180396881244
4.919467449188232 -1.4691098567894478 -1.8571815490722656 2.3848740297504882 -1.5963323752032679 3.339014768600464 -0.05865852209530022 -0.7218834569499338 0.5444914417073831 -0.018501780539417985 2.8449822587678315 -0.897149792345285
4.919459342956543 -1.469106489127018 -1.8572027683258057 2.384862108821533 -1.5963457266436976 3.339038848876953 -0.05866775593411924 -0.7218749869266265 0.5444743663001799 -0.01846157487539539 2.844986164700192 -0.8970994409831418
4.91947603225708 -1.469074086552002 -1.857122778892517 2.384878321284912 -1.5963133017169397 3.339038848876953 -0.05866093463877564 -0.7218867386123606 0.5445613388443151 -0.01847320961859343 2.8449280584332444 -0.8972863196289073
4.919504165649414 -1.4691141632250329 -1.8571654558181763 2.38491074621167 -1.59633714357485 3.3389530181884766 -0.05861664481346689 -0.7218951364565203 0.5445094893125123 -0.01864460799643212 2.8449537281104385 -0.8972174765172424
4.91945219039917 -1.46913035333667 -1.8571486473083496 2.384882612819336 -1.5963085333453577 3.339038848876953 -0.05867625426195548 -0.7218998602736212 0.5445036529303807 -0.018435248516811515 2.8449867322695765 -0.8971890359437918
4.919455051422119 -1.4691509318402787 -1.8571521043777466 2.384862108821533 -1.5963414351092737 3.339005470275879 -0.05865933536500516 -0.7219024500633852 0.5444829176266215 -0.01850120378455402 2.8449950193972677 -0.8971175528178833
4.91946268081665 -1.4690893825939675 -1.8571654558181763 2.3848413664051513 -1.5963457266436976 3.339059352874756 -0.05866929591279744 -0.7218754892987724 0.5445098199864074 -0.018438257322722803 2.8449592013549516 -0.8971398877833849
4.919488906860352 -1.4690936517766495 -1.8571983575820923 2.3848416048237304 -1.596370045338766 3.338986396789551 -0.05863181711628613 -0.7218691482957547 0.5444835574584662 -0.01858967416065592 2.844973345801202 -0.8970865081258406
4.919484615325928 -1.4691055801561852 -1.8571982383728027 2.3848911958881835 -1.5963581244098108 3.339038848876953 -0.05864578719494347 -0.7218808500262852 0.5444837984097021 -0.01850349101389871 2.8449480702347136 -0.8971342682613505
4.919492244720459 -1.469086007480957 -1.8571680784225464 2.3848370748707275 -1.596325699483053 3.339006185531616 -0.05864248200074185 -0.7218747214672202 0.5445113940696004 -0.018546798797972597 2.8449828808894964 -0.8971505264977082
4.919455051422119 -1.4690979284099122 -1.857122778892517 2.384850187892578 -1.5963581244098108 3.3390140533447266 -0.058660003762846136 -0.7218886663912233 0.544538919120983 -0.01849847669720061 2.844935410070017 -0.8972014611612352
4.919492244720459 -1.4691098418882866 -1.8571486473083496 2.384898825282715 -1.5963323752032679 3.3390183448791504 -0.058639000274151344 -0.7218962240370468 0.5445210778774302 -0.018532869714038662 2.8449390214618893 -0.8972217784270533
4.919497013092041 -1.4691141483238717 -1.8571789264678955 2.3848532873341064 -1.596320931111471 3.3390140533447266 -0.058639713852271534 -0.7218848323940638 0.5444866982528278 -0.01853938255575356 2.844997865365759 -0.8971200306970916
4.91945219039917 -1.4690979209593316 -1.8571442365646362 2.3849031168171386 -1.596353832875387 3.338965892791748 -0.058653252169866776 -0.7218900729380261 0.5445345437063689 -0.018560895847988385 2.8449320096923154 -0.897256335620179
4.919467449188232 -1.469109871690609 -1.8571770191192627 2.384898825282715 -1.5963581244098108 3.3390345573425293 -0.05865572765563598 -0.7218874563210589 0.5444984861295098 -0.01848566766922088 2.8449383379850817 -0.8971715329284149
4.919455051422119 -1.4690442842296143 -1.8571228981018066 2.384882612819336 -1.596288029347555 3.339043140411377 -0.05868475486482308 -0.7218761883106439 0.5445832748925934 -0.01842644211762542 2.8449319086067195 -0.8973488246389759
4.9194231033325195 -1.4690442991307755 -1.857131838798523 2.3848749834248046 -1.596328083668844 3.3390183448791504 -0.058694515127774294 -0.7218697573757287 0.5445747561160811 -0.018434436942451494 2.844924053238303 -0.8973163070993599
4.919427394866943 -1.4690399703434487 -1.8571351766586304 2.384850187892578 -1.5963705221759241 3.338994264602661 -0.05867819931003902 -0.7218628657850616 0.5445700617791761 -0.018494107818667532 2.8449090035247053 -0.8972654346445379
4.919447898864746 -1.4690970194390793 -1.8571938276290894 2.384878321284912 -1.596325699483053 3.338994264602661 -0.05867156736012604 -0.7218753110021163 0.5444926704727997 -0.01850018768076468 2.844994807715743 -0.8971678377370502
4.919425964355469 -1.469093644326069 -1.8571724891662598 2.384854479427002 -1.5963833967791956 3.3390345573425293 -0.05868208531173224 -0.72187362937657 0.544503903779221 -0.01843847220237663 2.8449431528731814 -0.8971343824668954
4.919447898864746 -1.4691098642400284 -1.857161045074463 2.384878321284912 -1.596353832875387 3.3389856815338135 -0.05866087537413885 -0.7218868988667622 0.544508112995268 -0.018525764961178293 2.8449615798606236 -0.8971812478437419
4.919471740722656 -1.4691099163940926 -1.8571983575820923 2.384894533748291 -1.5963085333453577 3.3390183448791504 -0.05866184652671184 -0.7218831619776627 0.5444831676442937 -0.018491614359819858 2.8449974870891004 -0.897165959357
4.919504165649414 -1.4690936145237465 -1.8571351766586304 2.384894533748291 -1.5963414351092737 3.338977813720703 -0.05862096966130971 -0.7218930765334082 0.5445426664347546 -0.0186123454447689 2.84492254097519 -0.8972567113681338
4.919508934020996 -1.4691184771111985 -1.8571983575820923 2.3848587709614257 -1.59633714357485 3.339038848876953 -0.058632868431967196 -0.7218830005301728 0.5444689378173196 -0.018527906707261482 2.844986935534496 -0.89707953680316
4.919521808624268 -1.4690902841142197 -1.8571397066116333 2.384862108821533 -1.5963133017169397 3.3390018939971924 -0.05862067530594421 -0.7218884804396551 0.5445352051530095 -0.018589984881150618 2.8449557450177405 -0.8972182392930532
4.919487953186035 -1.4690936368754883 -1.8571770191192627 2.3849314886280517 -1.5963457266436976 3.338977813720703 -0.05863288247283244 -0.7218869804439854 0.5445181061410062 -0.018590543301201252 2.844926541007578 -0.8972511545786708
4.919483661651611 -1.4690654587796708 -1.857184886932373 2.3848251539417724 -1.5963447729693812 3.339014768600464 -0.058648756856803416 -0.7218608315506526 0.5445098996842277 -0.0185311131774476 2.844972575164166 -0.8971292827506147
4.919495582580566 -1.4690762919238587 -1.85715651512146 2.3848492342182617 -1.5963547865497034 3.338977813720703 -0.05862770422332823 -0.7218747663799385 0.5445293810067241 -0.01860584863262307 2.844944468640822 -0.8971848651625195
4.919516086578369 -1.4690486428192635 -1.857181429862976 2.384922905559204 -1.5963175932513636 3.339022636413574 -0.05863158349366496 -0.7218716838362016 0.5445437108908577 -0.018554693694886434 2.844911145591658 -0.897294732842836
4.919483661651611 -1.4690850165537377 -1.8571521043777466 2.3848740297504882 -1.5963705221759241 3.338977813720703 -0.058631230979662004 -0.7218811741088603 0.5445311144125782 -0.01859618786449892 2.844922140749027 -0.8972063926695122
4.9194231033325195 -1.4690816935947915 -1.857130765914917 2.384894533748291 -1.5963504950152796 3.339006185531616 -0.05868370161678237 -0.7218852300925325 0.5445532258771604 -0.01846129889589805 2.8449193298319844 -0.8972842407759251
4.919480323791504 -1.4691141632250329 -1.8571442365646362 2.384938879604004 -1.5963085333453577 3.339014768600464 -0.05865070417575049 -0.7219041654758542 0.5445299236762462 -0.018510391574344618 2.8449375683500016 -0.8972916816281181
4.919431686401367 -1.469118432407715 -1.857161045074463 2.3849314886280517 -1.5963791052447718 3.3389692306518555 -0.05866159463267259 -0.7218953390858385 0.5445124061860451 -0.01853789955199479 2.844921726264881 -0.8972342710943327
4.919459342956543 -1.4690239441445847 -1.8571850061416626 2.3848869043537597 -1.596374813710348 3.33901047706604 -0.05866015567791475 -0.7218521240530003 0.5445500797878571 -0.018517830680855704 2.8448915542700752 -0.8972576302328711
4.919455051422119 -1.4690893304399033 -1.85715651512146 2.384906454677246 -1.596325699483053 3.339026927947998 -0.05867078421952803 -0.721886170029111 0.5445307700596658 -0.018465093461371634 2.844939510069202 -0.8972582869597487
4.919415473937988 -1.4691141632250329 -1.857131838798523 2.384898825282715 -1.5963085333453577 3.338998556137085 -0.05869472428785723 -0.7218977086152589 0.544531958762877 -0.01844135279060986 2.844975569649102 -0.8972704590878083
4.919488906860352 -1.4690808069757004 -1.85713529586792 2.384862108821533 -1.5963581244098108 3.3390018939971924 -0.05863476661302411 -0.7218830250416682 0.5445440230752238 -0.0185640846704051 2.844919255608819 -0.8972194031754042
4.919459342956543 -1.4691065561822434 -1.8571745157241821 2.3848740297504882 -1.5963833967791956 3.3389899730682373 -0.058647821362622615 -0.7218818227884781 0.544498530684992 -0.018549176364062087 2.844942480382092 -0.8971428618875458
4.919471740722656 -1.4690978911570092 -1.8571724891662598 2.3849074083515625 -1.596365753804342 3.339022636413574 -0.05864898526408388 -0.7218853512726737 0.5445120706432208 -0.01851268380414726 2.844918309422327 -0.8972026966872813
4.919463634490967 -1.4691098493388672 -1.8571698665618896 2.3849074083515625 -1.5963299910174769 3.338977813720703 -0.058653051832316484 -0.7218901988001266 0.5445079441420521 -0.01854840726151027 2.844966259144809 -0.8972198021524891
4.919471740722656 -1.4691303682378312 -1.857181429862976 2.3848859506794433 -1.5963133017169397 3.3389933109283447 -0.058653660240497396 -0.7218929177068885 0.5444807139941156 -0.018529309929517655 2.8450072088136937 -0.8971520682565426
4.91951322555542 -1.469114140873291 -1.8571351766586304 2.3849074083515625 -1.5963085333453577 3.3390345573425293 -0.05863121620640721 -0.7219042247702872 0.5445300680808408 -0.018528953116233985 2.8449379325604873 -0.8972510588328718
4.919487953186035 -1.4691465732506295 -1.8572264909744263 2.3848911958881835 -1.5963323752032679 3.339043140411377 -0.05864844937389738 -0.7218895881227558 0.5444344667334998 -0.018488702906603684 2.845010258614734 -0.897053525294254
4.919439315795898 -1.4691422966173668 -1.8571274280548096 2.3849031168171386 -1.5963133017169397 3.339026927947998 -0.05867960854259592 -0.7219109701339242 0.5445156475600846 -0.018436480636435874 2.8449706586601176 -0.8972314652246106
4.919508934020996 -1.4690528747490426 -1.8571274280548096 2.3849143224903564 -1.5963042418109339 3.3389649391174316 -0.05862551635753549 -0.7218842590406547 0.5445819712444278 -0.018621702136319612 2.8449122072956565 -0.897370033830081
4.919471740722656 -1.4690698695233841 -1.857181429862976 2.384906454677246 -1.5963457266436976 3.3389692306518555 -0.058645534729841214 -0.7218730095191945 0.5445266375201967 -0.018580010371103562 2.844936307990652 -0.8972483623545362
4.919467449188232 -1.469142274265625 -1.8571699857711792 2.384890242213867 -1.596374813710348 3.3389899730682373 -0.05864060244925317 -0.7218985321393825 0.5444805306836814 -0.018556146333261577 2.8449567426576237 -0.897125784252933
4.919467449188232 -1.4691065114787598 -1.8571724891662598 2.384890242213867 -1.596374813710348 3.33901047706604 -0.058647438201752264 -0.7218854466643636 0.544502868342637 -0.018527727327467828 2.844931020775064 -0.8971664051870574
4.919484615325928 -1.4690612492016335 -1.8571804761886597 2.384870691890381 -1.596320931111471 3.3389976024627686 -0.058648974468529916 -0.721867076275545 0.5445261382233736 -0.018546521228511463 2.8449623499810137 -0.8972181737076288
4.91945219039917 -1.4690979284099122 -1.857102394104004 2.3848869043537597 -1.5963414351092737 3.3389856815338135 -0.058658243383305705 -0.7218984992825517 0.5445627509432275 -0.018527914678207674 2.8449212174153895 -0.8972934194339325
4.919476509094238 -1.469102219944336 -1.8571114540100098 2.3848492342182617 -1.59633714357485 3.3390345573425293 -0.058652434594629536 -0.7218948551528526 0.5445442330606661 -0.01849031915463441 2.844938058976879 -0.897212548123742
4.919459342956543 -1.4690979284099122 -1.8571892976760864 2.3848859506794433 -1.5963414351092737 3.339043140411377 -0.05866890080677317 -0.7218785838269604 0.5444951347363423 -0.018454185666200912 2.844960124161736 -0.8971625935930785
4.919471740722656 -1.469114140873291 -1.8572007417678833 2.3848869043537597 -1.5963581244098108 3.3389899730682373 -0.058645032623190804 -0.7218813776601702 0.5444765573427388 -0.018554513289777166 2.844972901096484 -0.8971258616806503
4.91945219039917 -1.4691217702678223 -1.8571724891662598 2.384890003795288 -1.596325699483053 3.3389735221862793 -0.058661137122372434 -0.7218908409828384 0.5444945157971214 -0.01853583087329964 2.844993628413987 -0.897182241552426
4.919455051422119 -1.469114140873291 -1.857181429862976 2.384927435512207 -1.5963342825519007 3.339050769805908 -0.05867243678378557 -0.7218919109113457 0.5444978793309889 -0.01843404431858147 2.8449447386609004 -0.8972104178796095
4.919435977935791 -1.4691065114787598 -1.8571770191192627 2.384910984630249 -1.5963085333453577 3.339047431945801 -0.05869214006934482 -0.7218875595034239 0.5445040321613656 -0.01840007635424549 2.8449741667287034 -0.8972226749523896
4.919450759887695 -1.469102219944336 -1.8571903705596924 2.3848647314259033 -1.59633714357485 3.3389692306518555 -0.058661759477631525 -0.7218757085073016 0.544489475632623 -0.018545008582768568 2.84500034064702 -0.8971454559979751
4.919483661651611 -1.4691217702678223 -1.8571611642837524 2.3848320680805664 -1.5963042418109339 3.339043140411377 -0.05865794686793496 -0.7218889452177982 0.5444902561403078 -0.01847144089720201 2.84501465768104 -0.8971108982936645
4.919504165649414 -1.469090299015381 -1.857185959815979 2.384861870402954 -1.5963910261737269 3.3389856815338135 -0.05861500242822929 -0.7218740056790705 0.5444987270532107 -0.01862249109715634 2.84493009682333 -0.8971208360229391
4.91947603225708 -1.4690979284099122 -1.8571531772613525 2.38493196546521 -1.5963833967791956 3.3389735221862793 -0.05863056738570355 -0.7218925329540621 0.5445324580784106 -0.018597430968930323 2.844887584621649 -0.8972610898945254
4.919455051422119 -1.469142274265625 -1.8571184873580933 2.384923143977783 -1.5963543097125452 3.339014768600464 -0.05865559477835819 -0.7219155006386511 0.5445256874237219 -0.018495282633035615 2.844918162170833 -0.8972477972923806
4.919467449188232 -1.4690893453410645 -1.8571183681488037 2.384882612819336 -1.5963628927813929 3.33901047706604 -0.05864883838722332 -0.7218916308922969 0.544554534229859 -0.018523901164767233 2.844900990891734 -0.8972582796107581
4.919484615325928 -1.469086007480957 -1.8571521043777466 2.384878082866333 -1.596365753804342 3.3389856815338135 -0.05863299579613736 -0.721882355536263 0.5445311035649536 -0.01858416028450676 2.8449219628080247 -0.897211325763936
4.919455051422119 -1.469090299015381 -1.8571804761886597 2.38487355291333 -1.5963628927813929 3.339050769805908 -0.05866908943779013 -0.7218755631267955 0.5445039350059621 -0.01844734807313481 2.844939352345334 -0.8971558406380207
4.919459342956543 -1.4690893453410645 -1.8571158647537231 2.384882612819336 -1.5963414351092737 3.338965892791748 -0.058650611360775595 -0.7218918094815757 0.5445582632462337 -0.01856611132350853 2.8449298685819233 -0.89728358064489
4.919406890869141 -1.4690817233971138 -1.857181429862976 2.384910984630249 -1.5963457266436976 3.3389856815338135 -0.05869459794513995 -0.7218742336049448 0.5445188079465418 -0.01846419532699893 2.844953885000703 -0.8972481284269991
4.919526100158691 -1.4690979284099122 -1.8571486473083496 2.384894533748291 -1.5963414351092737 3.3390259742736816 -0.05861501496556856 -0.7218932312821713 0.544528066401356 -0.01857450437135963 2.844916149064233 -0.8972189289281053
4.919427394866943 -1.4691012886217614 -1.8571397066116333 2.384894533748291 -1.5963581244098108 3.339055061340332 -0.05868753084442501 -0.721890679559551 0.5445312332634147 -0.018400613334590893 2.844917879177456 -0.8972312808035907
4.919496536254883 -1.4691227611950417 -1.8571486473083496 2.384878082866333 -1.596365753804342 3.3390140533447266 -0.05862708333745338 -0.7218973018963458 0.5445073644689115 -0.01855991160646014 2.8449326790684255 -0.8971586062490956
4.919471740722656 -1.4690850910595437 -1.8571770191192627 2.384939118022583 -1.5963581244098108 3.339014768600464 -0.05864951640645433 -0.7218841268462876 0.5445241407189718 -0.01852081104506719 2.844901658101795 -0.8972621568496908
4.9194464683532715 -1.469090299015381 -1.857181429862976 2.384845419520996 -1.596309010182516 3.3390183448791504 -0.058681850717163336 -0.7218720832945891 0.5444999955038294 -0.018456442052587594 2.845011328580912 -0.8971536649407479
4.919414520263672 -1.4690526288798829 -1.8571724891662598 2.384887142772339 -1.59633714357485 3.33901047706604 -0.058698253126745384 -0.7218637630041187 0.5445406021117104 -0.018436522027705234 2.8449438679587984 -0.8972652919633622
4.919504165649414 -1.469065510933735 -1.8571699857711792 2.38483635961499 -1.5963414351092737 3.338994264602661 -0.0586296033503138 -0.7218670031858663 0.5445240075526528 -0.01858834786966459 2.844958717660392 -0.8971661080844372
4.919459342956543 -1.469118432407715 -1.8571351766586304 2.384939118022583 -1.596325699483053 3.3389692306518555 -0.05865218710786417 -0.7219056600732487 0.5445347751067818 -0.01855340831957434 2.8449370641256415 -0.8973024231200292
4.919480323791504 -1.46913035333667 -1.8571892976760864 2.384923143977783 -1.596309010182516 3.33901047706604 -0.0586512617597304 -0.7218968955788905 0.5444816347456609 -0.018515167030109844 2.84498615281204 -0.8971888043530984
4.919439315795898 -1.4691260394505044 -1.857181429862976 2.384885712260864 -1.596309010182516 3.33901047706604 -0.05868175619290539 -0.7218897619589794 0.5444832748112822 -0.018456926699082467 2.845012465897006 -0.8971628852782239
4.9195098876953125 -1.4690817159465333 -1.85715913772583 2.384890003795288 -1.596304718648092 3.3390183448791504 -0.05863537779267522 -0.7218842780023103 0.544531628541411 -0.01854562547543542 2.844951360198378 -0.8972449146930855
4.919455051422119 -1.4691098493388672 -1.8571938276290894 2.384861870402954 -1.5963133017169397 3.339031219482422 -0.058675980421474476 -0.7218788347859444 0.5444797697246898 -0.01845162960338818 2.845012188798534 -0.8971263483528163
4.919467926025391 -1.4691012886217614 -1.8571770191192627 2.384885712260864 -1.5963299910174769 3.339006185531616 -0.058657123413140375 -0.7218830742106425 0.5445034092957944 -0.01851397991027231 2.844970771045509 -0.8971860050640328
4.919480323791504 -1.4690569204143067 -1.8571362495422363 2.384901924724243 -1.5963905493365687 3.339059352874756 -0.05864576447763586 -0.7218790011468708 0.5445651786333873 -0.01848572750325203 2.84484220571267 -0.8972767699290519
4.919487953186035 -1.4691098493388672 -1.8571938276290894 2.384890003795288 -1.5963581244098108 3.33901047706604 -0.058637262578297586 -0.7218831271924044 0.544484770938649 -0.018548634252599623 2.8449547541696325 -0.8971378132788188
4.919480323791504 -1.4691065189293404 -1.857151985168457 2.38493196546521 -1.5963414351092737 3.339047431945801 -0.05865085692374671 -0.7218981401470742 0.5445262538373302 -0.018478887998369668 2.8449071958466217 -0.8972581311070416
4.919443607330322 -1.469086007480957 -1.8571442365646362 2.384910984630249 -1.5963171164142054 3.339014768600464 -0.05867808654637968 -0.7218879702015442 0.5445438182824561 -0.018462619835232265 2.844939922441944 -0.8972946211798211
4.9194464683532715 -1.4691597086242218 -1.8571938276290894 2.384869261378906 -1.5963743368731897 3.339043140411377 -0.058666826378288364 -0.7218955663828164 0.5444447432002273 -0.018449278284760572 2.8449883893254304 -0.8970359563597055
4.919425964355469 -1.469074123804905 -1.8571442365646362 2.384845419520996 -1.5963299910174769 3.339055061340332 -0.05869845514365818 -0.7218739293240066 0.544537771117819 -0.01838588578491995 2.8449574181918704 -0.8972109063604081
4.919439315795898 -1.4690936219743271 -1.8571521043777466 2.3849240976520996 -1.5963543097125452 3.3389856815338135 -0.058666523133444 -0.7218889676908825 0.5445350803175321 -0.018514701965002236 2.8449194213530125 -0.8972781710543835
4.919471740722656 -1.469086007480957 -1.8572027683258057 2.384878082866333 -1.5963500181781214 3.3390302658081055 -0.05865724770925113 -0.72187037762662 0.544491853264514 -0.01849397132535531 2.8449588676832627 -0.8971454150265381
4.919455051422119 -1.4690817531994362 -1.857157588005066 2.384890003795288 -1.5963171164142054 3.339059352874756 -0.05868017488277463 -0.7218815972020389 0.5445312669528575 -0.018415024343102118 2.844944715803322 -0.8972430444608196
4.919495582580566 -1.4691346895745774 -1.8571475744247437 2.384894533748291 -1.5963581244098108 3.338994264602661 -0.05862422010083656 -0.7219039551881977 0.5445038727407451 -0.018583105826791034 2.844940541529062 -0.897174373777221
4.91947603225708 -1.4690731328776856 -1.8571724891662598 2.384906454677246 -1.5963299910174769 3.339014768600464 -0.05865428858142084 -0.7218775368840153 0.544530184483977 -0.018514187048342543 2.844933347672294 -0.8972545429284217
4.919471740722656 -1.469118447308876 -1.8571158647537231 2.384910984630249 -1.5963175932513636 3.338998556137085 -0.05865060349612159 -0.7219077799053366 0.5445432199919478 -0.01852580894804509 2.8449386374973438 -0.8972865325229845
4.919443607330322 -1.4691022422960778 -1.8571654558181763 2.384901924724243 -1.596325699483053 3.339031219482422 -0.05867950871720831 -0.7218873805741518 0.5445140302025109 -0.018442175221734785 2.844957889760899 -0.8972242471678594
4.919455051422119 -1.4690773871592064 -1.8571892976760864 2.384923143977783 -1.596309010182516 3.3389856815338135 -0.05866854633350385 -0.7218762702516673 0.5445191414359736 -0.018515813422433646 2.844965805173598 -0.897269885580022
4.919439315795898 -1.4691346821239968 -1.8571476936340332 2.384923143977783 -1.5963581244098108 3.338961601257324 -0.05865765178506497 -0.7219041228889895 0.5445103320538638 -0.018549874867778128 2.8449456157203836 -0.8972303762349472
4.919439315795898 -1.469102219944336 -1.8571486473083496 2.384910984630249 -1.5963667074786585 3.3389856815338135 -0.05866324352281425 -0.7218907422638221 0.5445288611225665 -0.018520166283333982 2.8449206539761906 -0.8972469631389098
4.919463634490967 -1.4691346448710938 -1.8571351766586304 2.384906454677246 -1.596304718648092 3.338998556137085 -0.058659270010014794 -0.7219081610285351 0.5445167941916882 -0.01850752868808567 2.844976175365681 -0.8972412329472803
4.9194722175598145 -1.4691098493388672 -1.8571654558181763 2.384890003795288 -1.596309010182516 3.339031219482422 -0.058662374908826746 -0.7218905988871012 0.5445068302892108 -0.018474922925126692 2.844976082744848 -0.8972012452406649
4.919484615325928 -1.4690486055663605 -1.8571475744247437 2.384894533748291 -1.5963500181781214 3.339043140411377 -0.05865002336064745 -0.7218734731742087 0.5445624122399058 -0.01849622951376801 2.844884448351085 -0.8972868542182626
4.919480323791504 -1.4690817159465333 -1.8571654558181763 2.3848766523548584 -1.596325699483053 3.338965892791748 -0.058642286063280896 -0.7218780232117373 0.5445252670546308 -0.018587682038222676 2.8449670228736323 -0.8972234599484009
4.919487953186035 -1.4691098493388672 -1.8571486473083496 2.384915276164673 -1.5963624159442347 3.3389856815338135 -0.05862842447527699 -0.7218970089210819 0.5445245063857945 -0.018587156777484 2.8449134945114554 -0.897235151967899
4.919430732727051 -1.4690936368754883 -1.8571680784225464 2.384899063701294 -1.5963299910174769 3.3390345573425293 -0.05868933938446112 -0.7218824669549249 0.5445172598238152 -0.018421213891601826 2.844955002168824 -0.8972280234399659
4.919427394866943 -1.4690936368754883 -1.85715651512146 2.384910984630249 -1.596325699483053 3.339038848876953 -0.05869266537235166 -0.7218868360570609 0.5445283141361177 -0.018408752000118916 2.8449437353346543 -0.8972617200757586
4.9193854331970215 -1.4690731328776856 -1.857161045074463 2.3848976331898193 -1.596370045338766 3.339083671569824 -0.058723879772776266 -0.721873503848182 0.5445341137943226 -0.018305886538283134 2.844906046479728 -0.8972408773802328
4.919467449188232 -1.4690936368754883 -1.8572098016738892 2.384936495418213 -1.596332852040426 3.3389813899993896 -0.05865285088931907 -0.7218789694058917 0.5444944942909884 -0.018549683081678914 2.844958861007226 -0.8972241122010873
4.919504165649414 -1.4690936368754883 -1.85715651512146 2.384899063701294 -1.596325699483053 3.3390018939971924 -0.05863025758066775 -0.7218892829694334 0.5445270716850867 -0.018570374722670917 2.844939991695128 -0.8972377760894567
4.9194231033325195 -1.4690774244121094 -1.8571938276290894 2.3849186140247802 -1.5963457266436976 3.338994264602661 -0.05868534540534291 -0.7218718131259119 0.5445136515913451 -0.01847486816664685 2.844947875192303 -0.8972426107483391
4.919480323791504 -1.4691260394505044 -1.8571724891662598 2.384899063701294 -1.5963667074786585 3.338977813720703 -0.058631846406146805 -0.7218941814920874 0.5444921882149698 -0.018588428370349856 2.8449489080954775 -0.8971603135082425
4.919471740722656 -1.4691217702678223 -1.8571654558181763 2.384923143977783 -1.596353832875387 3.3389856815338135 -0.05864183952418366 -0.721897561765042 0.5445052593089236 -0.018559569783967455 2.8449377688516906 -0.8972149642582984
4.919487953186035 -1.469102219944336 -1.8571442365646362 2.3849186140247802 -1.5963299910174769 3.3390018939971924 -0.058639215222703545 -0.7218968768816785 0.544534112037802 -0.01854952988031479 2.8449263475191273 -0.8972699798692968
4.91947603225708 -1.469118395154812 -1.8571351766586304 2.3849198061176757 -1.5963581244098108 3.338998556137085 -0.058639100509421005 -0.7219034728588405 0.5445293744954429 -0.018550069659202535 2.844911097922299 -0.8972499761540307
4.919426441192627 -1.46913035333667 -1.857181429862976 2.384923143977783 -1.596309010182516 3.3390183448791504 -0.058691310278773515 -0.721895718618039 0.544487355766288 -0.01842758898278566 2.8449934525878273 -0.897208490908959
4.919459342956543 -1.4691260618022461 -1.8571892976760864 2.384927435512207 -1.5963743368731897 3.339002847671509 -0.05865033156667923 -0.7218928622977265 0.5444840738881805 -0.01852626002483824 2.8449350455221025 -0.8971710218644448
4.919463634490967 -1.4691098493388672 -1.8571699857711792 2.384894533748291 -1.5962961355792444 3.3390464782714844 -0.05867461066533377 -0.7218901506850206 0.544504155842787 -0.018435027162489407 2.844985108174963 -0.8972068352468935
4.919450759887695 -1.4690893453410645 -1.8571892976760864 2.384885712260864 -1.5963013807879847 3.339026927947998 -0.05868159965998074 -0.7218758851899056 0.5445025069705769 -0.01844694083844945 2.844993700143712 -0.8972001755748956
4.919419765472412 -1.4690774244121094 -1.8572072982788086 2.384899063701294 -1.5962970892535608 3.3390345573425293 -0.05870791156966765 -0.7218675166392099 0.5444996549856957 -0.01839001915470434 2.844998988147963 -0.8972169198406276
4.919414520263672 -1.4691055578044434 -1.85712730884552 2.3849186140247802 -1.5963299910174769 3.3390140533447266 -0.05869351277039643 -0.7218979689766529 0.5445442433148628 -0.018428200710123643 2.8449341583558443 -0.8973003776257941
4.919475078582764 -1.4691055578044434 -1.8571938276290894 2.384878082866333 -1.596332852040426 3.33901047706604 -0.058652902160314754 -0.7218799099464878 0.5444860437168789 -0.018518789518213348 2.844983385675914 -0.8971436155313389
4.9194111824035645 -1.4690817159465333 -1.8571770191192627 2.384849949473999 -1.5964110533343714 3.3389813899993896 -0.05867723679808289 -0.7218654348307872 0.5445087582853726 -0.018505988548083472 2.8449356759902744 -0.8971368737784509
4.919496536254883 -1.469102219944336 -1.85715651512146 2.384869261378906 -1.5963862578021448 3.338994264602661 -0.05862069706821732 -0.7218861127546655 0.5445140321078458 -0.01859771403209721 2.844918382520604 -0.8971566919355448
4.91945219039917 -1.469114140873291 -1.85715651512146 2.384948177928589 -1.596304718648092 3.3390018939971924 -0.058669722725689856 -0.7219007697012485 0.5445229371877659 -0.01848678223123297 2.8449530719249045 -0.8972979100297704
4.91947603225708 -1.469102219944336 -1.8571228981018066 2.384901924724243 -1.596332852040426 3.339038848876953 -0.058653812966146066 -0.7218993997457236 0.5445458414649081 -0.018481662901979005 2.8449151627511977 -0.8972696744009594
4.919500827789307 -1.469126084153988 -1.8571983575820923 2.38493196546521 -1.5963171164142054 3.3390183448791504 -0.058636732081397774 -0.7218954728824823 0.5444790377680825 -0.01853675371733995 2.8449697987547355 -0.8971842846741717
4.91949987411499 -1.4690979284099122 -1.8571654558181763 2.3849186140247802 -1.5963171164142054 3.3389856815338135 -0.058631725803865054 -0.7218911051623154 0.5445218312255121 -0.018583260420252865 2.8449482003519715 -0.8972549899464407
4.91949987411499 -1.4690979284099122 -1.857161045074463 2.384857340449951 -1.5963667074786585 3.339022636413574 -0.058629173667267886 -0.7218829389860031 0.5445109044016421 -0.018553011937319182 2.844934024802178 -0.8971445083679439
4.919480323791504 -1.469089337890484 -1.857189416885376 2.384927435512207 -1.5963743368731897 3.33901047706604 -0.05863942850354255 -0.7218810855823772 0.544509260351888 -0.018546064996708283 2.844904873405553 -0.897214529278173
4.919467449188232 -1.469102219944336 -1.8571724891662598 2.384915276164673 -1.5963495413409632 3.338977813720703 -0.05864637264789519 -0.7218876163995088 0.5445123143872783 -0.0185629498094762 2.844941369525646 -0.897225895437773
4.919512748718262 -1.4690979284099122 -1.8571770191192627 2.384894533748291 -1.5963342825519007 3.3389246463775635 -0.058607714034442274 -0.7218846216964638 0.5445097526269739 -0.01869589331596573 2.844967836750402 -0.8972073759325433
4.919447898864746 -1.4691551488688965 -1.8571724891662598 2.3848811823078613 -1.5963414351092737 3.339031219482422 -0.05866981819682133 -0.7219015263058072 0.5444675360261861 -0.0184539225377796 2.8449941592934778 -0.8971065051912458
4.919455051422119 -1.4691012662700196 -1.85715651512146 2.3849198061176757 -1.59633714357485 3.339005470275879 -0.05866272370233471 -0.7218916674875766 0.5445254376930666 -0.018500704495694582 2.8449346081433253 -0.8972583527279495
4.919435024261475 -1.4691098493388672 -1.8571654558181763 2.384890003795288 -1.5963214079486292 3.338994264602661 -0.058679122114228814 -0.7218876438001778 0.5445076107827429 -0.018480381644674287 2.8449847504014922 -0.8972092960062346
4.919467449188232 -1.469126084153988 -1.8571654558181763 2.384890003795288 -1.5963171164142054 3.338961362838745 -0.05864898136520982 -0.7218950500058703 0.544497408359372 -0.018570963761732007 2.8449978748999594 -0.8971898776465715
4.919427394866943 -1.4690526288798829 -1.8571486473083496 2.384943647975586 -1.5963581244098108 3.338956832885742 -0.0586709309512764 -0.7218767184258447 0.5445707310583883 -0.018541776253868596 2.844886668924175 -0.8973702530376584
4.919443607330322 -1.4690611970475693 -1.8571982383728027 2.384873791331909 -1.596325699483053 3.339015007019043 -0.0586817677927301 -0.7218608809990513 0.5445127144961243 -0.018465254977616155 2.844974105948801 -0.8972006803628991
4.919414520263672 -1.4690979358604928 -1.8571045398712158 2.3848365980335693 -1.5963004271136683 3.3389687538146973 -0.058692787351648755 -0.7218898530771027 0.5445528039498994 -0.01847932090255498 2.845001039497427 -0.897255567276977
4.919492244720459 -1.4691347044757386 -1.8571228981018066 2.3848914343067626 -1.5963285605060022 3.3390510082244873 -0.058643338588674224 -0.7219107473726873 0.544520984426837 -0.018484580773969285 2.844938180351124 -0.8972085821430109
4.919471740722656 -1.4691304129413147 -1.8571442365646362 2.384899063701294 -1.596353832875387 3.3389732837677 -0.05863828832619414 -0.7219023203470611 0.5445109730702135 -0.0185773565049419 2.8449478429442805 -0.8972018853276332
4.919447898864746 -1.4690903213671227 -1.8571113348007202 2.384906454677246 -1.5962970892535608 3.33903169631958 -0.058680974471717634 -0.721897791021691 0.5445648236320216 -0.018436085422426 2.844935935945971 -0.8973334460358116
4.919455051422119 -1.4690902766636391 -1.8572336435317993 2.384857340449951 -1.5963991324054163 3.3389973640441895 -0.058653491150372626 -0.72185895937942 0.544461244143753 -0.018538620813167487 2.844966050602777 -0.8970537871438302
4.919435977935791 -1.4690774020603676 -1.8571274280548096 2.384894533748291 -1.5963581244098108 3.3389854431152344 -0.058668733840295625 -0.7218848080815503 0.5445591528625805 -0.018512803784432957 2.844910047070502 -0.8972919622736114
4.919500827789307 -1.4690655183843155 -1.8572027683258057 2.384943647975586 -1.5963457266436976 3.3390228748321533 -0.058635580142203894 -0.72187372510494 0.54451920254808 -0.018544799573957677 2.8449031964845757 -0.8972592345333589
4.919480323791504 -1.4690774020603676 -1.8571983575820923 2.384894533748291 -1.5963948408709925 3.339006185531616 -0.05863614370152434 -0.721869614486653 0.544503984492001 -0.01856140140233187 2.8449077339662945 -0.8971641135176439
4.919467449188232 -1.469090299015381 -1.8571442365646362 2.384878082866333 -1.5963133017169397 3.3389973640441895 -0.05865883758176198 -0.7218863252142396 0.5445350193770765 -0.018519204384192023 2.8449640487880985 -0.8972453156753066
4.919450759887695 -1.4691303011826058 -1.8571521043777466 2.384885473842285 -1.5963667074786585 3.3390183448791504 -0.05866018524497573 -0.7218974986210442 0.5445008069359002 -0.018488989227206338 2.844945138444045 -0.8971614962601727
4.919487953186035 -1.4691337284496804 -1.8571724891662598 2.384878082866333 -1.5963948408709925 3.339027166366577 -0.05862969505765987 -0.7218943385807133 0.5444806141033975 -0.018541535302289507 2.8449297774393076 -0.8970953647680674
4.919456481933594 -1.4691141185215493 -1.857161045074463 2.384828968639038 -1.5963299910174769 3.339010715484619 -0.05866598307305969 -0.7218831548401186 0.5444953743435399 -0.0184909485138494 2.8450058101061715 -0.8971151799233942
4.919467449188232 -1.4690816935947915 -1.857161045074463 2.384906454677246 -1.59633714357485 3.339043617248535 -0.05866334122814055 -0.7218829786449257 0.5445318752096872 -0.018464253141909047 2.844920951182482 -0.897250566129968
4.919492244720459 -1.4691141855767746 -1.857181429862976 2.3848647314259033 -1.5963342825519007 3.3390228748321533 -0.05864170584775867 -0.7218852617594543 0.5444864260985679 -0.01852617617538894 2.8449806103319437 -0.8971240734551218
4.919443607330322 -1.4690979284099122 -1.8571983575820923 2.384869261378906 -1.5963004271136683 3.339027166366577 -0.05868727932347678 -0.7218741364123794 0.544486498242678 -0.018435471419904557 2.8450174694276593 -0.8971562002098824
4.919467926025391 -1.4691141557744523 -1.8571476936340332 2.38493196546521 -1.5963342825519007 3.3389732837677 -0.05864599460266762 -0.7219004775413675 0.5445265496775326 -0.018563515443337158 2.8449364107304156 -0.8972746202458232
4.9194111824035645 -1.469073050921299 -1.8571397066116333 2.384923143977783 -1.5963495413409632 3.339006185531616 -0.058692879271828785 -0.7218832168826543 0.5445580725522923 -0.01844411679942086 2.844905715948541 -0.8973252440224667
4.919484615325928 -1.4690979284099122 -1.8572310209274292 2.384890003795288 -1.5963171164142054 3.3390016555786133 -0.05864999705522762 -0.7218707542181151 0.5444661772248638 -0.018537082014329756 2.8450068945432756 -0.8971282452475979
4.919439315795898 -1.4690892931870003 -1.8571486473083496 2.384869022960327 -1.596309010182516 3.338994264602661 -0.05868004142097511 -0.7218821056083161 0.5445308085845076 -0.018481536565738154 2.844983398024632 -0.8972370291272571
4.919492244720459 -1.4690655034831543 -1.8571351766586304 2.384910984630249 -1.5963500181781214 3.339006185531616 -0.058634899145792625 -0.7218847103612243 0.5445643547357508 -0.018559708069290852 2.844884073205994 -0.8973087720035802
4.9194793701171875 -1.4691141632250329 -1.8571770191192627 2.384901924724243 -1.5963133017169397 3.338989734649658 -0.058648009820561314 -0.7218907858896755 0.5444985267246243 -0.01854583890314091 2.8449833466496526 -0.8972004740322298
4.919459342956543 -1.4690654662302514 -1.8572142124176025 2.384899063701294 -1.5963128248797815 3.339027166366577 -0.058675565764217535 -0.7218634088998466 0.5445025585262262 -0.01846410042192591 2.8449744759513513 -0.8972088902326774
4.919427394866943 -1.469142274265625 -1.8571770191192627 2.384943647975586 -1.596309010182516 3.339010715484619 -0.058687470364325846 -0.7219037715526544 0.5444866413635892 -0.018439777070203608 2.844987054939205 -0.8972273354373685
4.91947603225708 -1.4691141557744523 -1.857122778892517 2.384869261378906 -1.596325699483053 3.339006185531616 -0.0586489363121496 -0.721899047213155 0.5445324010199709 -0.018524398829576075 2.844956513415784 -0.8972201178984144
4.91947603225708 -1.4691141557744523 -1.857131838798523 2.384890003795288 -1.5963667074786585 3.338998794555664 -0.058638125265776 -0.7218984893439655 0.5445288076365857 -0.018553629635417356 2.844917774662898 -0.8972153763569205
4.91947603225708 -1.4690399926951905 -1.857161045074463 2.384915514583252 -1.596325699483053 3.339010715484619 -0.058656101478854764 -0.7218697903678561 0.5445638467979635 -0.018519105851065813 2.8449044263178775 -0.8973297412190055
4.919450759887695 -1.4691465658000489 -1.8571938276290894 2.38487355291333 -1.59633714357485 3.3389973640441895 -0.0586639668327396 -0.7218921891908865 0.5444569636327531 -0.018503881231330156 2.8450178227339267 -0.897087537652138
4.919406890869141 -1.4690979284099122 -1.857184886932373 2.384887142772339 -1.596365753804342 3.3390183448791504 -0.05869611042838739 -0.7218757764923177 0.544498835524821 -0.0184262180512294 2.844956643378087 -0.8971724040354756
4.919459342956543 -1.4690442991307755 -1.8571566343307495 2.384882612819336 -1.596309010182516 3.3390555381774902 -0.05868108505165341 -0.7218679181181105 0.5445568634927361 -0.018423692981847196 2.8449317465220485 -0.8972889393440207
4.919439315795898 -1.4690612119487305 -1.8571158647537231 2.384882612819336 -1.5963457266436976 3.3389523029327393 -0.05866350582550271 -0.7218803437385161 0.5445780924310633 -0.01855963522723581 2.84491740385023 -0.8973257410031944
4.919467449188232 -1.4691433993032952 -1.8571486473083496 2.384910984630249 -1.5963385740863245 3.3389809131622314 -0.05864529507033939 -0.7219077525598434 0.5445010960923709 -0.018553082259296787 2.8449629893805306 -0.8972020796798367
4.919463634490967 -1.469114140873291 -1.8571892976760864 2.384861631984375 -1.596365753804342 3.3390302658081055 -0.058657186662054925 -0.7218804913259081 0.5444789110158466 -0.018489199914613282 2.8449675057297816 -0.8970967354334562
4.91947603225708 -1.4690936368754883 -1.8571982383728027 2.384964867229126 -1.596370045338766 3.338998794555664 -0.05864034905008234 -0.7218853048066654 0.5445073577857241 -0.01855459233054536 2.8448973545963807 -0.8972527766912691
4.919455051422119 -1.4690936368754883 -1.857130765914917 2.384890003795288 -1.596309010182516 3.3390722274780273 -0.058682294440591476 -0.7218926443586826 0.5445431272435273 -0.018393333548267297 2.8449388527492925 -0.8972649002091024
4.919467449188232 -1.4690731328776856 -1.8571680784225464 2.384878082866333 -1.5963414351092737 3.339048147201538 -0.05866499923920335 -0.7218743258548511 0.5445267215289317 -0.01845960280398204 2.8449329621017423 -0.8972112155580613
4.919467449188232 -1.4691184547594567 -1.8571724891662598 2.3848752218433837 -1.5963495413409632 3.3389971256256104 -0.058650020927453146 -0.7218881827444483 0.5444926546484135 -0.018534785927099413 2.84497156567879 -0.8971463164756706
4.919471740722656 -1.4690979284099122 -1.8571654558181763 2.384899063701294 -1.596325699483053 3.3390016555786133 -0.05865375639334108 -0.7218867571999166 0.544517335013061 -0.018524332017611007 2.84495679972938 -0.8972264734525746
4.919463634490967 -1.4690731328776856 -1.857174038887024 2.384857340449951 -1.5963624159442347 3.339003086090088 -0.058654952956164644 -0.7218687509507131 0.5445189712446442 -0.018527674051376414 2.844944424617386 -0.8971737218390002
4.919418811798096 -1.469118432407715 -1.8571475744247437 2.3849186140247802 -1.5963133017169397 3.339027166366577 -0.058696859818836364 -0.7218985390619727 0.5445199966538867 -0.018407200022029672 2.8449640741195608 -0.8972613496017874
4.919467449188232 -1.469074086552002 -1.8571158647537231 2.3849033552357177 -1.5963414351092737 3.3389766216278076 -0.05864747351086326 -0.721889797729329 0.5445725935594823 -0.018562852652356153 2.8449027846301296 -0.8973282806456784
4.91945219039917 -1.4691012662700196 -1.8571897745132446 2.384894533748291 -1.5963133017169397 3.3389644622802734 -0.058664443700168725 -0.7218802328416722 0.5444971315598166 -0.018543161657433273 2.845001115850217 -0.8972011062605301
4.919443607330322 -1.4691882219961663 -1.8571442365646362 2.38487355291333 -1.5963342825519007 3.339010715484619 -0.058666778635811566 -0.7219187498072914 0.5444652303641702 -0.01847358966862359 2.8450138130059113 -0.8970984933171542
4.91947603225708 -1.469074086552002 -1.8571770191192627 2.384901924724243 -1.5963457266436976 3.3389809131622314 -0.058644322261313386 -0.7218753453487167 0.5445258187770021 -0.018569444289661736 2.844935018105455 -0.8972393556804561
4.91945219039917 -1.469102219944336 -1.8571399450302124 2.384910984630249 -1.5963342825519007 3.3390228748321533 -0.058668183394062684 -0.7218949069107354 0.5445351479189826 -0.018470851577647166 2.844929164762143 -0.8972661008185291
4.919467926025391 -1.4690817159465333 -1.8571486473083496 2.3849186140247802 -1.5963299910174769 3.338989734649658 -0.05865302175012941 -0.7218872007045192 0.5445453699859754 -0.018538768073697972 2.844924530046825 -0.8972979804690211
4.919467926025391 -1.4690936368754883 -1.8571768999099731 2.384894533748291 -1.596304718648092 3.3389854431152344 -0.058659077178613565 -0.7218820161109922 0.5445117637472889 -0.01853219357986033 2.84498607841862 -0.8972259742285982
4.919455051422119 -1.4690936368754883 -1.8572142124176025 2.384901924724243 -1.5962885061847132 3.3389642238616943 -0.05866956627333906 -0.7218734834645181 0.5444860002716091 -0.0185358676324595 2.845026502518076 -0.8972012448844013
4.919443607330322 -1.469118432407715 -1.8571529388427734 2.384901924724243 -1.596332852040426 3.3390016555786133 -0.058670208270157204 -0.7218956074086731 0.5445129494129439 -0.018487468617227235 2.844961560730637 -0.8972213366387288
4.919447898864746 -1.4690893453410645 -1.8572049140930176 2.38487355291333 -1.596370045338766 3.3390183448791504 -0.05866755366488911 -0.7218683525867768 0.5444868866404172 -0.01848608024473346 2.84495795139514 -0.8971283058937858
4.919418811798096 -1.4690936368754883 -1.857161045074463 2.384923143977783 -1.59633714357485 3.338989734649658 -0.05868648946391934 -0.7218860040915331 0.544528422105313 -0.018471718893054333 2.8449439452325715 -0.8972773129479009
4.9194231033325195 -1.4691065114787598 -1.8571653366088867 2.384882612819336 -1.59633714357485 3.3389854431152344 -0.05868286030505595 -0.7218842510375082 0.5445084487405006 -0.018483240534947428 2.8449796431363645 -0.8971996678125385
4.919483661651611 -1.469142274265625 -1.8571763038635254 2.384894533748291 -1.5963624159442347 3.338977575302124 -0.05862946673276331 -0.7218987355785116 0.5444772568984254 -0.01859104268015082 2.8449668811266036 -0.8971289620016888
4.919426441192627 -1.469102219944336 -1.8571653366088867 2.384927673930786 -1.5963414351092737 3.3390510082244873 -0.05869157537168565 -0.721889699397413 0.5445181957183487 -0.018396992311129904 2.844928748150563 -0.8972501630894305
4.919463634490967 -1.4690936368754883 -1.8571653366088867 2.384861631984375 -1.5963500181781214 3.339006185531616 -0.058656288007929325 -0.7218790947758418 0.544512368003731 -0.018517338700009565 2.844958451472045 -0.8971696713836623
4.919487953186035 -1.4690817159465333 -1.857181191444397 2.3849243360706787 -1.5963085333453577 3.339043617248535 -0.0586555763505805 -0.7218825500510615 0.5445208118917617 -0.018479933945072847 2.844940359348049 -0.8972588187693583
