gadestri/Universal-robots-Hand-tracking-to-move-the-robot/RTDE/2022_03_18_12_38_38.csv
actual_q_0 actual_q_1 actual_q_2 actual_q_3 actual_q_4 actual_q_5 actual_TCP_pose_0 actual_TCP_pose_1 actual_TCP_pose_2 actual_TCP_pose_3 actual_TCP_pose_4 actual_TCP_pose_5
4.919419765472412 -1.4690612492016335 -1.8571770191192627 2.384873791331909 -1.5963214079486292 3.338998794555664 -0.05869565735070152 -0.7218645243929395 0.5445293119188023 -0.01845300399048236 2.8449745967354216 -0.8972393504401631
4.919418811798096 -1.4691345703652878 -1.8571654558181763 2.384901924724243 -1.5963581244098108 3.3389854431152344 -0.058678631140920486 -0.7218960112620643 0.5444921301367939 -0.018486221748422047 2.8449693158776936 -0.8971774286752432
4.919435024261475 -1.4691226494363328 -1.8571486473083496 2.3848694997974853 -1.5963133017169397 3.339006185531616 -0.058682031022122404 -0.7218938147891796 0.5445072842885559 -0.018459647277140064 2.8449986224930246 -0.8971890458781955
4.919508457183838 -1.4691098493388672 -1.8571442365646362 2.384906454677246 -1.5963299910174769 3.3390016555786133 -0.058624115243059306 -0.7218991402237326 0.5445264473458062 -0.018578738014981225 2.844933309484458 -0.8972393392822599
4.919447898864746 -1.4691313591650506 -1.8571397066116333 2.384885712260864 -1.596292797719137 3.3390347957611084 -0.05868149824086205 -0.7219029140556608 0.5445108283780254 -0.018427928080578828 2.8449947773357733 -0.8972139522730114
4.919418811798096 -1.4691021975925942 -1.8571724891662598 2.3848294454761962 -1.5963709990130823 3.3390138149261475 -0.05868597188957726 -0.7218729431892292 0.5444939906789119 -0.01845179610958284 2.8449809827607777 -0.8971013472202272
4.919471740722656 -1.4691183877042313 -1.8571521043777466 2.3849143224903564 -1.596309010182516 3.339043617248535 -0.05866321673155485 -0.7219002681847491 0.5445153853481196 -0.018456874568519042 2.844955136352028 -0.8972380959066725
4.919471740722656 -1.4691021975925942 -1.8571724891662598 2.384901924724243 -1.596309010182516 3.3390138149261475 -0.058659901098664965 -0.7218875702839862 0.544509660947371 -0.018499128131258005 2.8449726884852042 -0.8972216743150361
4.919471740722656 -1.4691108998707314 -1.8571892976760864 2.3849238592335205 -1.5963414351092737 3.339015007019043 -0.05865244539758697 -0.7218887427310443 0.5444943541262811 -0.01851182689792791 2.84494835830059 -0.8971993352495301
4.919443607330322 -1.4690979284099122 -1.8571982383728027 2.3849186140247802 -1.596332852040426 3.3390138149261475 -0.05867601891455637 -0.7218798328874617 0.5444958192659074 -0.01846967840598827 2.844963739438443 -0.8972080981899857
4.919471740722656 -1.4691098493388672 -1.8571892976760864 2.3848978716083984 -1.59633714357485 3.339006185531616 -0.05865242790790398 -0.7218848509865683 0.5444903744726062 -0.018522268034560477 2.844969422018735 -0.8971697969249048
4.919419765472412 -1.46906981736932 -1.8571938276290894 2.384915276164673 -1.5963171164142054 3.339006185531616 -0.058697232889718634 -0.7218693717078878 0.544518634026044 -0.018440204554816694 2.8449664400875223 -0.8972619615582029
4.919471740722656 -1.4690602284720917 -1.8571903705596924 2.384898825282715 -1.5963981787311 3.339006185531616 -0.05864234071553766 -0.7218654115131838 0.5445227074984523 -0.018551357938333624 2.844888929929036 -0.8972036067821072
4.919455051422119 -1.4691141185215493 -1.857153058052063 2.384878321284912 -1.596332852040426 3.3389809131622314 -0.058658791075106735 -0.7218912635149073 0.5445118556497783 -0.018533202213954734 2.844975603437597 -0.8971970282773319
4.919450759887695 -1.4691260394505044 -1.85713529586792 2.384906454677246 -1.5963013807879847 3.339010715484619 -0.0586723663396903 -0.7219045487515389 0.5445224046881534 -0.01847059017422812 2.8449740132369024 -0.897254564113005
4.919378280639648 -1.4691422295621415 -1.8571892976760864 2.384882612819336 -1.5963133017169397 3.3389854431152344 -0.05871918260187971 -0.7218892158591323 0.5444661049679622 -0.01840723229325663 2.8450479830842577 -0.8971411428449032
4.919463157653809 -1.4690936592272301 -1.857161045074463 2.384878321284912 -1.5963013807879847 3.3390016555786133 -0.058666084141052816 -0.7218836354561132 0.5445201834676284 -0.01850106276533411 2.844986252352279 -0.8972249296540203
4.919504165649414 -1.469133698647358 -1.8571486473083496 2.384894533748291 -1.5963175932513636 3.3389687538146973 -0.05862228283045727 -0.7219046427478953 0.5445054922168845 -0.018613074645558975 2.844977523612199 -0.8971993320165517
4.919483661651611 -1.4691013109735032 -1.857161045074463 2.384898825282715 -1.596309010182516 3.3390138149261475 -0.05865085603670721 -0.7218902836074937 0.5445183289969556 -0.018516335580542016 2.8449637926591875 -0.8972317021513644
4.919463634490967 -1.4691595521620293 -1.8571521043777466 2.384915276164673 -1.596325699483053 3.338989734649658 -0.05865156793333265 -0.721913481939306 0.5444881588052695 -0.018528774225975878 2.844981880269247 -0.8971874185577248
4.919427394866943 -1.4690817159465333 -1.857184886932373 2.384943409557007 -1.596325699483053 3.339019536972046 -0.058690347232235845 -0.7218799495558639 0.5445220255949631 -0.01843608966790919 2.844938639939853 -0.897287116753486
4.919430255889893 -1.4691021901420136 -1.8571158647537231 2.384878321284912 -1.5963833967791956 3.339048147201538 -0.05867751743971559 -0.7218939308004663 0.5445450617470697 -0.018426526109223323 2.8448939852197284 -0.8972275273653438
4.9194231033325195 -1.4690979284099122 -1.8571475744247437 2.384894533748291 -1.5963133017169397 3.338977575302124 -0.05868611845629932 -0.7218876363463228 0.5445309889742602 -0.01848423454737843 2.8449771520564435 -0.8972654445817521
4.919463157653809 -1.469133698647358 -1.8571069240570068 2.384902163142822 -1.5963667074786585 3.3390390872955322 -0.05865233177534565 -0.7219128062281934 0.5445352759251633 -0.018478172467717328 2.844900455270853 -0.8972335287050542
4.919439315795898 -1.4690611895969887 -1.8571114540100098 2.3848911958881835 -1.5963495413409632 3.3389973640441895 -0.058671094363373553 -0.7218829918360503 0.5445817041613398 -0.018497375322705716 2.8448952478553733 -0.8973322799048983
4.919425964355469 -1.4691183877042313 -1.8571577072143555 2.3848740297504882 -1.5963414351092737 3.3390555381774902 -0.05869261641682019 -0.721890026898379 0.5445021349785519 -0.018389287744137135 2.8449662798845727 -0.8971656461923384
4.919439315795898 -1.4691141185215493 -1.8571442365646362 2.3848578172871093 -1.5963876883136194 3.338994264602661 -0.058660464537984666 -0.7218883499400478 0.5445127893720346 -0.01851700006080233 2.8449390577070397 -0.8971523626134237
4.919459342956543 -1.4690979284099122 -1.857161045074463 2.384906454677246 -1.5963581244098108 3.338977575302124 -0.05865019831191563 -0.7218869310187005 0.5445220261980652 -0.01855601127472728 2.844932218641543 -0.8972322099551533
4.919440269470215 -1.469081738298275 -1.8571635484695435 2.384931727046631 -1.596370045338766 3.338994264602661 -0.05866524112042379 -0.7218827557488146 0.544535526210841 -0.018511100295814407 2.844899290304227 -0.8972787181215551
4.919398784637451 -1.4690774467638512 -1.8571982383728027 2.384898825282715 -1.5963299910174769 3.3389928340911865 -0.05870691573505239 -0.7218670546991148 0.5445068640388031 -0.018434904215963683 2.8449824041603082 -0.897223538130759
4.919439315795898 -1.4690979433110734 -1.85719633102417 2.38491074621167 -1.5963543097125452 3.338989734649658 -0.05866961355962469 -0.7218781105255591 0.5444958963451194 -0.018507687788237723 2.8449569653230693 -0.8971941721065071
4.919443607330322 -1.4691064742258568 -1.857131838798523 2.3848859506794433 -1.596370045338766 3.3390302658081055 -0.05866766897799345 -0.721893585657992 0.5445323444731627 -0.018464421876299184 2.844913612330796 -0.8972186389992208
4.919455051422119 -1.4691141185215493 -1.8571699857711792 2.384906454677246 -1.5963414351092737 3.3390016555786133 -0.0586610810274272 -0.7218910291849359 0.5445037227221339 -0.018507387973468493 2.8449567179697426 -0.8972034675853487
4.919398784637451 -1.4691345554641266 -1.8571140766143799 2.384938879604004 -1.5963128248797815 3.339027166366577 -0.05870798581042588 -0.7219139176201416 0.5445381102149253 -0.018379082238446847 2.8449463323666917 -0.8973162014316346
4.919450759887695 -1.4691013109735032 -1.8571397066116333 2.384906454677246 -1.5963500181781214 3.339010715484619 -0.05866342856742851 -0.721893371810441 0.5445350460231239 -0.01849333531414781 2.8449217912154183 -0.8972558051652217
4.919439315795898 -1.4691627335599442 -1.8571892976760864 2.384927197093628 -1.5963414351092737 3.33903169631958 -0.0586752091270288 -0.7219059365053566 0.5444585226063134 -0.018440794481822044 2.844983031152516 -0.8971373099708195
4.919471740722656 -1.46908604473386 -1.8571743965148926 2.3848740297504882 -1.5963004271136683 3.339027166366577 -0.058666503040550766 -0.7218779651025631 0.544513807267006 -0.01847632364938615 2.844984798131819 -0.8972052006022729
4.9194722175598145 -1.4691141259721299 -1.8571654558181763 2.384890242213867 -1.596358601246969 3.3389644622802734 -0.05863765011569831 -0.7218900201865206 0.5445046501431727 -0.018592598533326284 2.8449545258945363 -0.8971824823308032
4.919467449188232 -1.4690612492016335 -1.8571938276290894 2.3849193292805175 -1.596292797719137 3.3389809131622314 -0.05866385312399011 -0.7218700295961944 0.5445267132225924 -0.018533041286540416 2.8449720298697265 -0.8972875182108699
4.91947603225708 -1.4691303309849282 -1.857161045074463 2.384906454677246 -1.596370045338766 3.3390302658081055 -0.05864345030826279 -0.7218997429019082 0.5444976866553672 -0.018509382958114533 2.8449255082697995 -0.8971685412248528
4.919418811798096 -1.4690936517766495 -1.8571892976760864 2.384890242213867 -1.5963214079486292 3.33901047706604 -0.05869644545900403 -0.7218754215618755 0.5445003924310498 -0.018434075218686938 2.844989673207235 -0.8971993514143356
4.919424057006836 -1.4690785345486184 -1.85715651512146 2.3849150377460937 -1.596309010182516 3.3389809131622314 -0.05868842614924093 -0.7218815813089045 0.5445417024090639 -0.01847925777083263 2.8449603801812393 -0.8973085514266737
4.919455051422119 -1.4691141110709687 -1.8571521043777466 2.384882612819336 -1.5963175932513636 3.338982105255127 -0.05866231817935401 -0.7218924999952137 0.5445137594246554 -0.018524571458850423 2.8449844698039204 -0.8972120367549867
4.919414043426514 -1.4691098493388672 -1.8571158647537231 2.38491074621167 -1.5963414351092737 3.339010715484619 -0.05868990893495369 -0.7219008011529714 0.5445482020591268 -0.018437631834265656 2.844926195465804 -0.8972940146719875
4.919504165649414 -1.4691098493388672 -1.857122778892517 2.38491074621167 -1.596309010182516 3.3389899730682373 -0.05862844174584492 -0.7219050577681633 0.5445443757917199 -0.018580209013154252 2.8449383088867455 -0.8972883484500535
4.919455051422119 -1.4691303309849282 -1.857185959815979 2.384882612819336 -1.5963428656207483 3.33901047706604 -0.05866273223337777 -0.7218897863729439 0.5444754321732016 -0.018494554293919507 2.8449882210030197 -0.8971256058826904
4.919455051422119 -1.4690979284099122 -1.857161045074463 2.3849193292805175 -1.5963667074786585 3.3390016555786133 -0.05865577543803084 -0.721888480818507 0.5445236222431797 -0.01851964070384709 2.8449125306881697 -0.8972410277840218
4.919402122497559 -1.4691141259721299 -1.8571292161941528 2.3849236208149414 -1.5963500181781214 3.339019536972046 -0.058698346068038344 -0.7219000355836875 0.5445371757906734 -0.01841173529524127 2.8449232143922116 -0.8972836881815397
4.9195170402526855 -1.4691226866892357 -1.8571680784225464 2.3848740297504882 -1.5963743368731897 3.338977575302124 -0.05860424261284287 -0.7218925912962599 0.544492785793743 -0.01864443583543484 2.844943783735851 -0.8971257140112886
4.919480323791504 -1.46909702688966 -1.8571815490722656 2.384902163142822 -1.596309010182516 3.339015007019043 -0.05865478263060525 -0.7218841025064497 0.5445064091287477 -0.01850953438705536 2.8449724274197075 -0.897214835006225
4.919484615325928 -1.4690979284099122 -1.857131838798523 2.3849193292805175 -1.5963624159442347 3.339027166366577 -0.0586389467310018 -0.7218976521923839 0.5445450733526223 -0.018524042084377502 2.8448838446745546 -0.897271642876576
4.919398784637451 -1.4690731179765244 -1.857185959815979 2.384894533748291 -1.5963743368731897 3.3390016555786133 -0.05869843142606665 -0.7218667872640769 0.5445169740468263 -0.01844300766744728 2.8449364862705626 -0.897214565195694
4.919439315795898 -1.4691022050431748 -1.857218623161316 2.3849477010914306 -1.5963218847857874 3.33903169631958 -0.05868509856550563 -0.7218806617861042 0.5444828513086184 -0.018432714872629714 2.8449668075852887 -0.8972173229402105
4.919504165649414 -1.4691226866892357 -1.857184886932373 2.3848416048237304 -1.5963624159442347 3.339027166366577 -0.0586277305450721 -0.7218843028123957 0.5444725769402601 -0.01854943749743275 2.844975319192331 -0.8970585795676295
4.919418811798096 -1.4691303682378312 -1.8571442365646362 2.384861870402954 -1.5963299910174769 3.339006185531616 -0.058689358402850694 -0.7218951827598252 0.5445033621849529 -0.018444122224346014 2.8449960775123753 -0.8971685979596
4.919459342956543 -1.4691346672228356 -1.8571397066116333 2.3849031168171386 -1.596309010182516 3.339043617248535 -0.05867061306798296 -0.7219067924378201 0.544511272140671 -0.01843909223909774 2.8449677352061813 -0.897220244945675
4.9194793701171875 -1.4690936368754883 -1.8571919202804565 2.384894533748291 -1.596325699483053 3.338989734649658 -0.05864768665514237 -0.7218785601103164 0.5444997601277644 -0.018551592391808206 2.8449743337247657 -0.8971914392783369
4.919504165649414 -1.4690979433110734 -1.8571274280548096 2.384850187892578 -1.5963342825519007 3.3390228748321533 -0.05863192072243937 -0.7218911845467395 0.544535717587302 -0.018544670796623496 2.844942687889019 -0.8971964873999138
4.919443607330322 -1.469130316083767 -1.8571654558181763 2.384906454677246 -1.5963457266436976 3.339006185531616 -0.05866783034808701 -0.7218971484541176 0.5444956638515482 -0.018486368164552052 2.8449623939816924 -0.8971868623730883
4.919471740722656 -1.4691141259721299 -1.8571938276290894 2.384833975429199 -1.5963175932513636 3.3390183448791504 -0.05866082703449471 -0.7218772782637823 0.5444716272569197 -0.018495347718312242 2.845027384068181 -0.8970799814531928
4.919459342956543 -1.4691433396986504 -1.8571938276290894 2.384927197093628 -1.596332852040426 3.3390347957611084 -0.05866497844740816 -0.7218993903407159 0.5444686825279327 -0.01846125493842164 2.8449747461515607 -0.8971572960740175
4.919492244720459 -1.4690730956247826 -1.8572026491165161 2.384882612819336 -1.596280876790182 3.338982105255127 -0.05864941155423663 -0.7218689300707652 0.5445049035009563 -0.01856037562881468 2.84501053811409 -0.8972115439386226
4.919467449188232 -1.4691022050431748 -1.8572142124176025 2.384894533748291 -1.596292797719137 3.338989734649658 -0.058664239070426755 -0.7218764419562551 0.5444777540137261 -0.018518864246022407 2.845023460552802 -0.897169970259122
4.919443607330322 -1.469114103620388 -1.8571069240570068 2.384906454677246 -1.5963862578021448 3.338989734649658 -0.058653622123434224 -0.7219041544384303 0.5445506904706573 -0.018530120079155946 2.844886832938083 -0.8972688165138408
4.919459342956543 -1.469146528547146 -1.8571397066116333 2.384902163142822 -1.5963543097125452 3.339040517807007 -0.05865889722011977 -0.721909621750844 0.5445018287187399 -0.018463960945938038 2.8449396287917184 -0.8971793705074914
4.919528961181641 -1.469118432407715 -1.8571724891662598 2.3849150377460937 -1.5963500181781214 3.3389732837677 -0.05859976598641922 -0.7218968930475274 0.5445011313121751 -0.01865663440391256 2.844936210929173 -0.897192245096368
4.9195380210876465 -1.4691055727056046 -1.857181429862976 2.3849143224903564 -1.596309010182516 3.3390228748321533 -0.058613727625472206 -0.721892300033939 0.5445027080926242 -0.018580194917181492 2.8449531149975926 -0.897206896012751
4.919455051422119 -1.4690774095109482 -1.8571892976760864 2.3848859506794433 -1.5963342825519007 3.3390016555786133 -0.05866694955919771 -0.7218707322532559 0.5445107758933534 -0.018504374888353624 2.8449643843478354 -0.8972030636824554
4.919443607330322 -1.469122664337494 -1.8571654558181763 2.3849074083515625 -1.5963581244098108 3.339010715484619 -0.05866646448079091 -0.721894273091152 0.5445007262668193 -0.018485779441957853 2.8449458473998024 -0.8971908874911698
4.919450759887695 -1.4690731775811692 -1.8571858406066895 2.384922905559204 -1.5963342825519007 3.338998556137085 -0.05866861226803703 -0.7218747874461224 0.5445236353069434 -0.018503130812858093 2.8449386059972572 -0.8972646241104881
4.9195380210876465 -1.4691055578044434 -1.8572096824645996 2.3848869043537597 -1.596292797719137 3.33903169631958 -0.058621298413539163 -0.721882323267969 0.5444761319444213 -0.01855935242822708 2.844998726396621 -0.8971389800501685
4.919492244720459 -1.4691098493388672 -1.857181429862976 2.384938879604004 -1.5962970892535608 3.3389928340911865 -0.05864258072418897 -0.721894439974238 0.5445057068782581 -0.018552549247142856 2.8449695995979702 -0.8972556314188161
4.919435024261475 -1.4691346523216744 -1.8571521043777466 2.3848578172871093 -1.5963428656207483 3.3390183448791504 -0.058677333430290204 -0.7218950126444873 0.544492971315097 -0.018455420124547574 2.8449884775687106 -0.8971342961780158
4.919496536254883 -1.4691132393530388 -1.85713529586792 2.384906454677246 -1.5963667074786585 3.339006185531616 -0.05862460037691633 -0.721900856307685 0.5445298233856438 -0.018572291191058448 2.844902005235024 -0.8972285886545186
4.919418811798096 -1.4691422519138833 -1.85715651512146 2.384866400355957 -1.596325699483053 3.3389599323272705 -0.0586808226890876 -0.7218966443023944 0.544488168655686 -0.018507491008044556 2.8450230955979543 -0.8971537011405026
4.9194231033325195 -1.4691065114787598 -1.857161045074463 2.3848370748707275 -1.5963175932513636 3.339006185531616 -0.05869234293854339 -0.7218798719429385 0.5445026761721524 -0.01844453296208795 2.845015989679946 -0.8971504693410978
4.9195170402526855 -1.4691141259721299 -1.85715651512146 2.3848859506794433 -1.5963175932513636 3.338970184326172 -0.05861535263162941 -0.7218953921807469 0.5445114138378551 -0.018629543270949577 2.844971817327318 -0.897200665727658
4.9194464683532715 -1.469114140873291 -1.857161045074463 2.38491074621167 -1.5963261763202112 3.338989734649658 -0.05866780350497468 -0.7218935371544419 0.5445120329266054 -0.018505424784157638 2.8449660666663266 -0.8972334644882966
4.919487953186035 -1.4691098493388672 -1.8571858406066895 2.384894533748291 -1.59633714357485 3.339060068130493 -0.0586512747950652 -0.7218868175957485 0.5444907562349948 -0.018468626245737595 2.8449519564518053 -0.8971560553826567
4.919418811798096 -1.4691098120859643 -1.8571770191192627 2.384927197093628 -1.596292797719137 3.339027166366577 -0.05870342274124937 -0.7218901142606708 0.544505886420405 -0.01839737743369076 2.8449884281995907 -0.8972559207389208
4.919455051422119 -1.4690979284099122 -1.8571486473083496 2.3849150377460937 -1.596309010182516 3.3389763832092285 -0.05866331270303838 -0.7218921396247988 0.5445343205898107 -0.018529478028646313 2.844960540794514 -0.8972878204098454
4.919516086578369 -1.4691098493388672 -1.8571724891662598 2.3849193292805175 -1.596365753804342 3.338998794555664 -0.05861106514832023 -0.7218935433533941 0.5445067943189519 -0.018609446718874694 2.844912569482754 -0.8971986208058561
4.919504165649414 -1.4691227239421387 -1.8571892976760864 2.3849360185810546 -1.5963414351092737 3.3389687538146973 -0.05861870883660373 -0.7218959549633788 0.5444898751372356 -0.01862357479389277 2.8449509707814884 -0.8972025647493946
4.919443607330322 -1.4691260394505044 -1.8571486473083496 2.38491074621167 -1.596332852040426 3.339010715484619 -0.05867098292409001 -0.721900651474226 0.5445123698740277 -0.018474550845690576 2.844955960683515 -0.8972269658118839
4.919458866119385 -1.469106489127018 -1.85715651512146 2.384866400355957 -1.59633714357485 3.3390555381774902 -0.05867085751347467 -0.7218870895688148 0.5445099149300704 -0.018434325560266005 2.8449577095018013 -0.8971687380192958
4.919419765472412 -1.46914645404134 -1.857151985168457 2.3849186140247802 -1.5963342825519007 3.3390228748321533 -0.058688721101601886 -0.721906889045802 0.5444968127216128 -0.018423510504072472 2.8449680203746017 -0.8972071991416978
4.919415473937988 -1.469105565255024 -1.85719633102417 2.384898825282715 -1.596288029347555 3.3390347957611084 -0.05871045931949962 -0.7218801308202105 0.5444885802633678 -0.018379031043894146 2.845018271756787 -0.8971991801813248
4.919450759887695 -1.469102219944336 -1.8572142124176025 2.3849150377460937 -1.5963414351092737 3.339006185531616 -0.05866799938492589 -0.7218771316635957 0.5444800702288083 -0.01849413195381372 2.844971589987742 -0.897171554667416
4.919471740722656 -1.469118432407715 -1.8572096824645996 2.3848859506794433 -1.5963414351092737 3.339006185531616 -0.05865217302229306 -0.721881269796785 0.5444665611594851 -0.018523465513200763 2.8449913665000373 -0.8971125294637479
4.919406890869141 -1.4690893602422257 -1.8571724891662598 2.3849031168171386 -1.5963414351092737 3.339043617248535 -0.058706189099301906 -0.7218788334597375 0.544517137155235 -0.01837970047212215 2.8449473117616577 -0.8972301008358952
4.91947603225708 -1.469134659772255 -1.8571770191192627 2.3849519926258544 -1.5963581244098108 3.3390302658081055 -0.05864545895293888 -0.7219039510818701 0.5444917789864636 -0.018503764611239502 2.8449196875081255 -0.8972089784543789
4.919459342956543 -1.4691508573344727 -1.8571184873580933 2.384898825282715 -1.5963786284076136 3.339006185531616 -0.05864529496805417 -0.7219147443912328 0.5445146350142825 -0.018524365016743264 2.84491974431609 -0.8971913394535188
4.919450759887695 -1.4691141483238717 -1.85713529586792 2.384927197093628 -1.5963500181781214 3.338994264602661 -0.05865846052110879 -0.7219016228343307 0.5445340011031808 -0.018516711227236665 2.844918215775955 -0.8972756767529282
4.919528961181641 -1.469114140873291 -1.857184886932373 2.384878321284912 -1.5963543097125452 3.338989734649658 -0.058603953062623323 -0.7218874780495786 0.54448697638878 -0.01863472223158486 2.8449564869147768 -0.8971263527922334
4.919459342956543 -1.4690893602422257 -1.8571486473083496 2.3849150377460937 -1.596292797719137 3.339006185531616 -0.058670404289414224 -0.7218901334995588 0.5445397933618386 -0.01848591114062973 2.84496000088253 -0.8973012610981547
4.919435024261475 -1.4691422444633027 -1.8571442365646362 2.384898825282715 -1.5963299910174769 3.3390347957611084 -0.058681461180769896 -0.7219057184391329 0.5445014898120907 -0.01842639288608513 2.8449693958277353 -0.8971935274284996
4.919524669647217 -1.4691346448710938 -1.8571476936340332 2.384882612819336 -1.5963581244098108 3.3390390872955322 -0.058612392977294946 -0.7219045278887577 0.5445001703996504 -0.018560515262712355 2.8449294221423127 -0.8971435726976935
4.919458866119385 -1.4690936368754883 -1.8571698665618896 2.384866400355957 -1.596304718648092 3.3390228748321533 -0.05867338073879261 -0.721879797332592 0.5445104935872392 -0.018465983052661065 2.8449923553537104 -0.8971919135637766
4.919435024261475 -1.4691346448710938 -1.8571397066116333 2.384866400355957 -1.5963624159442347 3.3390393257141113 -0.058676197058869686 -0.7218988751568373 0.5445029352593502 -0.018434845290796295 2.844954419298289 -0.8971478882290648
4.919480323791504 -1.469114140873291 -1.8571654558181763 2.3848869043537597 -1.5963624159442347 3.3390302658081055 -0.05864401587766532 -0.7218907240241526 0.5445019627613792 -0.018512126503166054 2.8449353446600263 -0.8971612766000517
4.919520378112793 -1.4690655034831543 -1.8572008609771729 2.384878321284912 -1.5963414351092737 3.3390228748321533 -0.0586240404036727 -0.7218665686101711 0.5445080075624676 -0.018570201225474505 2.8449407844145735 -0.8971722693976889
4.919471740722656 -1.4691433993032952 -1.857153058052063 2.3848859506794433 -1.5963175932513636 3.3390257358551025 -0.058656671198893735 -0.7219046427038845 0.544492071281672 -0.018485461976887375 2.8449862502900674 -0.8971639494788572
4.919480323791504 -1.4691109743765374 -1.8572051525115967 2.3848869043537597 -1.596332852040426 3.3390390872955322 -0.058654713577321674 -0.7218809597648224 0.544474597642045 -0.01848516388121943 2.844980021119198 -0.8971262967606406
4.919524669647217 -1.4690569204143067 -1.8571983575820923 2.38491074621167 -1.5963500181781214 3.338998794555664 -0.058613912405954496 -0.7218682530584384 0.544522687732708 -0.018615008104882126 2.844911569672828 -0.8972301515327498
4.919508457183838 -1.469090299015381 -1.8571407794952393 2.384870691890381 -1.5962923208819788 3.339048147201538 -0.05864402409089696 -0.721889726636441 0.5445352160634918 -0.01849557273174376 2.8449604100843087 -0.8972330574641687
4.9195451736450195 -1.4690936368754883 -1.8571362495422363 2.384894533748291 -1.5963414351092737 3.339027166366577 -0.058601165557356526 -0.7218958154183075 0.5445403904242561 -0.018600300219159205 2.8449004522872876 -0.897237331150018
4.919450759887695 -1.4691098493388672 -1.8571770191192627 2.384898825282715 -1.5963385740863245 3.3390302658081055 -0.05867135193801037 -0.7218869475465516 0.5444991073275476 -0.018459116479790334 2.8449596451373695 -0.8971861945183356
4.9195170402526855 -1.469086007480957 -1.85713529586792 2.384870691890381 -1.5963299910174769 3.339006185531616 -0.058621058860990366 -0.7218885035306833 0.5445426517432255 -0.01858500309986521 2.844931648450393 -0.8972326211579097
4.9195051193237305 -1.469035768215992 -1.857190489768982 2.3849281507679443 -1.5963414351092737 3.3390228748321533 -0.058635439354317476 -0.7218643510934531 0.5445462286517131 -0.018549812609137923 2.8448889503342367 -0.8972962752652034
4.91947603225708 -1.469114140873291 -1.8572098016738892 2.384894533748291 -1.5963624159442347 3.338994264602661 -0.05864207696529406 -0.7218804223636172 0.5444709617666404 -0.018556302654604312 2.8449681690199466 -0.8971199659756615
4.919480323791504 -1.4691551488688965 -1.857161045074463 2.384931727046631 -1.5963414351092737 3.3389642238616943 -0.058631279883523915 -0.7219122505998319 0.544488027293573 -0.01859602832696505 2.844963572221532 -0.8971967967995075
4.919454574584961 -1.469130427842476 -1.8571441173553467 2.3848911958881835 -1.5963175932513636 3.339006185531616 -0.05866557277467908 -0.7219016494804729 0.5445094401330837 -0.01848946627214602 2.8449786074163725 -0.8972077258488782
4.9194231033325195 -1.4691065114787598 -1.857218623161316 2.3848859506794433 -1.5963175932513636 3.339006185531616 -0.05869402011463627 -0.721872669967393 0.5444686602470903 -0.01844351230464244 2.8450216516483033 -0.8971389440864191
4.919487953186035 -1.4690731328776856 -1.8571724891662598 2.384922905559204 -1.5963624159442347 3.339043617248535 -0.05864361779601457 -0.7218799343488362 0.5445317536545695 -0.018505002085515365 2.8448866432403945 -0.8972512441061705
4.919508457183838 -1.469118432407715 -1.857102394104004 2.3848954874226074 -1.5963500181781214 3.3390302658081055 -0.05862273934809581 -0.7219105582978241 0.5445486690915102 -0.01854787475569833 2.8448960947559407 -0.8972528447250187
4.919467926025391 -1.4691260618022461 -1.857153058052063 2.3849193292805175 -1.5963214079486292 3.339015007019043 -0.05865686439400487 -0.721902552077556 0.54451084806681 -0.01849770752926437 2.844955302808816 -0.8972330307615287
4.919480323791504 -1.4691389364055176 -1.85715651512146 2.384866400355957 -1.5963457266436976 3.339027166366577 -0.05864541094795923 -0.7218993271092986 0.5444880061590808 -0.018508385716209937 2.8449722392549317 -0.8971219172284514
4.919458866119385 -1.469114140873291 -1.857122778892517 2.384894533748291 -1.5963457266436976 3.3389928340911865 -0.05865350579218146 -0.7219007671639008 0.5445372458620412 -0.018528368866024658 2.8449323301217904 -0.8972494901346146
4.919410228729248 -1.4691293996623536 -1.8571759462356567 2.38493458806958 -1.5963833967791956 3.3390302658081055 -0.05868803434451256 -0.7218954289496108 0.5444922254781307 -0.018421867215829824 2.8449231992960002 -0.8971935510208358
4.9195170402526855 -1.4690687593868752 -1.8571442365646362 2.384878321284912 -1.5963414351092737 3.3390347957611084 -0.05862566216861191 -0.7218812815629453 0.5445482335133721 -0.018549744965808593 2.844905475127271 -0.897242255866677
4.919492244720459 -1.4691064816764374 -1.8571531772613525 2.384898825282715 -1.5963457266436976 3.339010715484619 -0.058634955329241414 -0.7218934876331349 0.5445198806676276 -0.018549819206336596 2.8449307507597217 -0.8972145667614955
4.91947603225708 -1.4690816786936303 -1.857122778892517 2.384890242213867 -1.5963385740863245 3.3389642238616943 -0.05863960670863935 -0.7218894916906506 0.5445599649078099 -0.018590960148585092 2.8449230390305686 -0.8972934231342048
4.91947603225708 -1.469118432407715 -1.8571655750274658 2.3849031168171386 -1.5963214079486292 3.3390302658081055 -0.058655655449178085 -0.7218952826955586 0.5445030638027867 -0.018487264543576135 2.8449625419252484 -0.8972000038094241
4.919463634490967 -1.469118447308876 -1.8571699857711792 2.3848859506794433 -1.5963500181781214 3.33903169631958 -0.05865908723085464 -0.7218904118228671 0.5444956215088853 -0.01848048567553768 2.84495555299041 -0.8971577874678214
4.919488906860352 -1.469048650269844 -1.8571724891662598 2.384866400355957 -1.5963414351092737 3.339027166366577 -0.0586477161859917 -0.7218639759276639 0.5445387199475966 -0.018520358130913257 2.844927168337626 -0.8972223555781482
4.919463634490967 -1.4691227835467835 -1.8571397066116333 2.384906454677246 -1.5963133017169397 3.339006185531616 -0.058659948875947 -0.7219027090337918 0.5445211692854691 -0.0185007642793807 2.844962767278409 -0.897244973478022
4.919471740722656 -1.4690655034831543 -1.857184886932373 2.384878321284912 -1.59633714357485 3.338994264602661 -0.05865365297094215 -0.7218673329882209 0.5445210371330198 -0.018540253641238968 2.8449540325974456 -0.8972113347292076
4.919447898864746 -1.4690238547376175 -1.8571680784225464 2.384882612819336 -1.5963457266436976 3.3390228748321533 -0.05867669618155576 -0.7218558397865749 0.5445624596048152 -0.018470970096743845 2.8449072353448797 -0.8972901037436762
4.919450759887695 -1.4691303682378312 -1.8571486473083496 2.384866400355957 -1.596325699483053 3.338982105255127 -0.058662618632231885 -0.7218964434758268 0.5445017218911892 -0.01852177214683812 2.8449970085432157 -0.897169513387597
4.919450759887695 -1.4690936517766495 -1.8571486473083496 2.3848694997974853 -1.5963299910174769 3.3390274047851562 -0.05867324234941809 -0.7218842177588705 0.5445263875601208 -0.018460107966911384 2.8449576809361483 -0.8972117409695439
4.9194231033325195 -1.4690774169615288 -1.8571486473083496 2.384906454677246 -1.596309010182516 3.338989734649658 -0.05869076011478935 -0.7218819571837302 0.5445464959461951 -0.018465492270700982 2.8449581887496134 -0.8973075040410073
4.919483661651611 -1.4691217851689835 -1.8571521043777466 2.384894533748291 -1.59629995027651 3.3389523029327393 -0.05863888958516456 -0.7218986525146598 0.544512065234833 -0.018599490855456723 2.8449959869901753 -0.8972274680488136
4.919443607330322 -1.469130427842476 -1.8571892976760864 2.3848869043537597 -1.5963299910174769 3.3389852046966553 -0.05866896720075387 -0.7218889791366385 0.5444747353100242 -0.01850834026193923 2.845007335265846 -0.8971409432729535
4.919447898864746 -1.469114178126194 -1.8571770191192627 2.3848816591450195 -1.5963414351092737 3.3389732837677 -0.05866164187410579 -0.7218852365151652 0.5444943527732672 -0.018537289327993638 2.844985267653726 -0.8971675869192186
4.919414520263672 -1.4691098493388672 -1.85715651512146 2.3848892885395507 -1.5963123480426233 3.339060068130493 -0.058708528869925336 -0.7218895156976546 0.5445125254913681 -0.01835359436237347 2.844976327003421 -0.8972162203523492
4.919471740722656 -1.469122753744461 -1.857181429862976 2.3849193292805175 -1.59633714357485 3.3389687538146973 -0.05864311580914475 -0.721893805212328 0.5444926535156059 -0.018575608865620336 2.844968400534855 -0.8971993429199986
4.919467926025391 -1.4691423636725922 -1.8572007417678833 2.384898825282715 -1.5963214079486292 3.3389973640441895 -0.05865514337958007 -0.7218938972857525 0.5444599707199702 -0.01852118022888871 2.845012179815452 -0.8971229583132045
4.919455051422119 -1.469109834437706 -1.8572096824645996 2.3848532873341064 -1.596309010182516 3.3389687538146973 -0.058665651578483385 -0.7218732289601932 0.544468049147604 -0.018538191617391807 2.8450460824443233 -0.8971081856640646
4.919450759887695 -1.4690654438785096 -1.8571442365646362 2.3848740297504882 -1.5963414351092737 3.3390347957611084 -0.058673866643766046 -0.7218756313634078 0.5445496978884674 -0.018455620817958172 2.8449234373785726 -0.8972540672883769
4.919455051422119 -1.469139003460743 -1.8571699857711792 2.384878321284912 -1.5963166395770472 3.339010715484619 -0.058667360666800006 -0.72189684205531 0.5444812929710761 -0.01848235295108712 2.845007594877055 -0.8971436354590309
4.919430732727051 -1.4690730807236214 -1.8571654558181763 2.384890242213867 -1.596365753804342 3.3390228748321533 -0.05868056570743952 -0.7218734775145683 0.5445312609971187 -0.018454708728006253 2.844919771449822 -0.8972304399864971
4.919467449188232 -1.4691184920123597 -1.8571397066116333 2.384870691890381 -1.5963175932513636 3.339010715484619 -0.05865836775117828 -0.7218964859425399 0.5445169292690037 -0.01850154911871631 2.8449766260150406 -0.8971986254881948
4.919447898864746 -1.4690773797086258 -1.857184886932373 2.384951038951538 -1.5963714758502405 3.3389973640441895 -0.05866093643810998 -0.721879144375564 0.5445260541771544 -0.018517913768415318 2.844894012116213 -0.8972790238495858
4.919467449188232 -1.469126084153988 -1.8571442365646362 2.384922905559204 -1.5963299910174769 3.3390016555786133 -0.05865208417747018 -0.7219047476025662 0.5445183855629915 -0.018520206872780248 2.844943999628237 -0.8972478087605261
4.919443607330322 -1.4691185069135209 -1.857181429862976 2.384878321284912 -1.5963414351092737 3.3390302658081055 -0.058675983516870714 -0.7218856863082428 0.5444856859268143 -0.018449812177816858 2.8449800245987205 -0.8971409102995143
4.919480323791504 -1.4691184398582955 -1.8571442365646362 2.384894533748291 -1.5963457266436976 3.338977575302124 -0.05863578123270839 -0.7218982176658909 0.5445184756720426 -0.018579978127653152 2.844946481491322 -0.8972136619592478
4.9194793701171875 -1.4690611597946663 -1.857130765914917 2.3848492342182617 -1.5963500181781214 3.339006185531616 -0.05864589580512244 -0.7218750833565926 0.5445586519766289 -0.018541190361467084 2.844920199034033 -0.8972399283704091
4.919443607330322 -1.4691508573344727 -1.8571770191192627 2.3848740297504882 -1.596325699483053 3.339052677154541 -0.058681450033739674 -0.721898366496347 0.544465449193006 -0.01841000589060673 2.8450074304484465 -0.8971015819137548
4.9195170402526855 -1.4691585463336487 -1.8571183681488037 2.3848869043537597 -1.59629995027651 3.339036226272583 -0.058627103899760155 -0.7219217589876308 0.5445081070508153 -0.018527280073939525 2.844973390939497 -0.8971898801234144
4.9194464683532715 -1.4691065338305016 -1.857181429862976 2.3849150377460937 -1.596386734639303 3.33898663520813 -0.05865499062887432 -0.7218848375374801 0.544501337567006 -0.018537290154585495 2.8449228791575853 -0.8971902537254054
4.919463634490967 -1.4690486428192635 -1.8571770191192627 2.384862108821533 -1.5963671843158167 3.3389971256256104 -0.05865454652977055 -0.7218597666528301 0.5445347106753681 -0.018538883706393176 2.8449256425492124 -0.8972076688336547
4.919427394866943 -1.4690935847214242 -1.8572142124176025 2.384878321284912 -1.5963414351092737 3.3390228748321533 -0.05868975811966372 -0.7218678983683724 0.54447840861395 -0.01843711166374027 2.8449909820845196 -0.897135033107704
4.919459342956543 -1.4690978911570092 -1.8571397066116333 2.384902163142822 -1.5963166395770472 3.339027166366577 -0.058668397302890876 -0.7218931733311861 0.544536918876656 -0.01846686994208304 2.844943205742924 -0.8972675412912059
4.919450759887695 -1.4691628229669114 -1.857153058052063 2.38491074621167 -1.59629995027651 3.339015007019043 -0.05867160104988707 -0.7219140421126735 0.5444841717924032 -0.018462570589014158 2.84500547793082 -0.8971869803292212
4.919492244720459 -1.4690936368754883 -1.8571397066116333 2.384878321284912 -1.5963342825519007 3.3390228748321533 -0.058640743655330174 -0.7218898228549828 0.5445349114681348 -0.018527740397197182 2.8449333777330557 -0.8972260278648837
4.919427394866943 -1.4690816786936303 -1.8571724891662598 2.384894533748291 -1.59633714357485 3.338944673538208 -0.05867361315802201 -0.7218750821722502 0.5445238051747167 -0.018547896533259573 2.8449700576349937 -0.8972467052354219
4.919467449188232 -1.4690773797086258 -1.8571654558181763 2.3848458963581542 -1.5963671843158167 3.338989734649658 -0.058648026412075796 -0.7218707073851633 0.5445205563546768 -0.01855431436340893 2.84494717378479 -0.8971634698639958
4.919480323791504 -1.4691260916045685 -1.8572006225585938 2.384902163142822 -1.5963342825519007 3.339027166366577 -0.0586502832984907 -0.7218893207430948 0.5444708209810695 -0.01850265471050321 2.8449789180084197 -0.8971342164172419
4.919471740722656 -1.4690936145237465 -1.8571804761886597 2.3848859506794433 -1.596325699483053 3.338989734649658 -0.05865283299679855 -0.7218796896602622 0.544506757480931 -0.018540963499014056 2.8449744942807924 -0.8971967953964853
4.919439315795898 -1.4690936666778107 -1.85715913772583 2.384890242213867 -1.5963833967791956 3.338998794555664 -0.058663769957929116 -0.7218820635310881 0.5445220205240161 -0.018508939885729096 2.8449179287985404 -0.897204889957325
4.919406890869141 -1.4690936145237465 -1.8571068048477173 2.384866400355957 -1.5963042418109339 3.339010715484619 -0.05870538117609538 -0.7218917636477563 0.5445585843000372 -0.018410724132675582 2.84496999146603 -0.8972896190004261
4.919467926025391 -1.4691141632250329 -1.857181429862976 2.384882612819336 -1.5963042418109339 3.3390228748321533 -0.05866559307560555 -0.721887069128144 0.5444906695831165 -0.018477995677369533 2.845000341331252 -0.897169096564756
4.91947603225708 -1.4691141557744523 -1.8571442365646362 2.3849033552357177 -1.596370045338766 3.339015007019043 -0.05864085946927354 -0.7218974247267911 0.5445214773308085 -0.018531869564574945 2.844910580424675 -0.8972117010397213
4.91947603225708 -1.4691260767034073 -1.8571982383728027 2.384882612819336 -1.5962966124164026 3.338982105255127 -0.05865339102541762 -0.721887467328202 0.5444710652956684 -0.01854340636158033 2.845032259423719 -0.8971410699345939
4.919439315795898 -1.4691336911967774 -1.85715651512146 2.384873791331909 -1.5963581244098108 3.3390016555786133 -0.05866737000087528 -0.7218954213811699 0.5444935360549684 -0.01849230115621872 2.844971275477709 -0.8971454571837749
4.919504165649414 -1.4691422966173668 -1.857222080230713 2.384930296535156 -1.596325699483053 3.338982105255127 -0.058625277634396386 -0.72189484621791 0.5444503613170173 -0.018596083281447844 2.844996698566013 -0.8971303101357281
4.919415473937988 -1.4690654811314126 -1.857218623161316 2.384906454677246 -1.5963342825519007 3.338998794555664 -0.05869680907238287 -0.7218598670049954 0.5445009606687778 -0.01845194553627003 2.8449736198675737 -0.8972157182439501
4.919463634490967 -1.469109834437706 -1.8572072982788086 2.384890003795288 -1.59633714357485 3.3389642238616943 -0.05865112054247569 -0.721878477518449 0.5444764631894141 -0.018570029269449513 2.8449978500078177 -0.897144961722882
4.919414520263672 -1.4690850761583825 -1.8571724891662598 2.384906454677246 -1.596325699483053 3.339015007019043 -0.05869882275650655 -0.7218782971078406 0.5445219896291255 -0.01842420397258038 2.8449603470179734 -0.8972529390410386
4.919471740722656 -1.4691271495870133 -1.8571654558181763 2.3848976331898193 -1.5963671843158167 3.3390467166900635 -0.05865113595585815 -0.7218963730130841 0.5444944240732502 -0.018478456176214898 2.84493117813442 -0.8971541338910596
4.919455051422119 -1.4690979433110734 -1.857181429862976 2.384890003795288 -1.5963881651507776 3.3390138149261475 -0.0586551278815276 -0.72187916709692 0.5445015822929681 -0.018511459218870836 2.844922979690704 -0.8971602283052695
4.919443607330322 -1.469097913508751 -1.8571113348007202 2.384857340449951 -1.5963299910174769 3.339019536972046 -0.05867494118704629 -0.721892537539752 0.5445495126200097 -0.01846184795370104 2.8449483854907056 -0.8972427391249539
4.919496536254883 -1.4691260767034073 -1.8571724891662598 2.384923143977783 -1.596353832875387 3.338973045349121 -0.05862148430838103 -0.7218987077621983 0.5444973191242807 -0.018612527704630673 2.844941416059171 -0.8971973210095276
4.919443607330322 -1.4690936145237465 -1.8572310209274292 2.384866161937378 -1.5964043776141565 3.339010715484619 -0.058662590569762835 -0.7218613207209998 0.544462111831547 -0.01850579329328617 2.844956519181486 -0.8970615178019616
4.919443607330322 -1.4690697950175782 -1.8571680784225464 2.384906454677246 -1.5963123480426233 3.338998794555664 -0.0586785540294441 -0.7218757949176646 0.5445367407689633 -0.01848297035420389 2.844955257921444 -0.8972839955282923
4.919504165649414 -1.4691184547594567 -1.8572072982788086 2.38493196546521 -1.5963133017169397 3.339027166366577 -0.0586379525823267 -0.7218910122543208 0.544477406640323 -0.018527154512479653 2.8449706975858673 -0.897182158938497
4.919455051422119 -1.4691022348454972 -1.8571451902389526 2.384873791331909 -1.59633714357485 3.339060068130493 -0.05867405013969763 -0.7218891310427804 0.5445227462035437 -0.018422874254290032 2.84494331920951 -0.8971994775702767
4.919492244720459 -1.469086007480957 -1.8571680784225464 2.384899063701294 -1.5964162985431116 3.339010715484619 -0.05862127104744763 -0.721880741399713 0.5445211405960828 -0.018582258036388823 2.8448697331369477 -0.8971845695069248
4.919431686401367 -1.469122753744461 -1.857161045074463 2.384852810496948 -1.5963133017169397 3.339052677154541 -0.05869468262081256 -0.7218889592471094 0.5444932102907196 -0.018388281621644006 2.8450062910100904 -0.897141225630468
4.919463634490967 -1.469106563632824 -1.8572096824645996 2.3849078851887207 -1.596353832875387 3.3389687538146973 -0.05864814027404322 -0.7218787710705377 0.5444798792796628 -0.018571363290930457 2.844971556749994 -0.8971603964241849
4.919431686401367 -1.4691184547594567 -1.857181429862976 2.3848439890095214 -1.5963495413409632 3.339043617248535 -0.05868628851605015 -0.72188024358965 0.5444784290680915 -0.018417331493223804 2.844994510624155 -0.8970901192057472
4.919435024261475 -1.46905721098695 -1.857181429862976 2.384882612819336 -1.59633714357485 3.3390510082244873 -0.058691690891754425 -0.7218643129924609 0.5445285824062466 -0.018407582887336578 2.8449398522320912 -0.897228929908674
4.919496536254883 -1.4690979209593316 -1.85715651512146 2.384885712260864 -1.596386734639303 3.3390016555786133 -0.0586219405890494 -0.7218868918112673 0.5445200001909738 -0.018587623155633747 2.844903336929407 -0.8971829008560211
4.919459342956543 -1.4690773797086258 -1.8572072982788086 2.384943647975586 -1.5963042418109339 3.339015007019043 -0.05867270728367567 -0.7218754538300174 0.5445087883028183 -0.018477682150936425 2.844959947310686 -0.8972692205864969
4.919415473937988 -1.4691227611950417 -1.8572072982788086 2.384894533748291 -1.596353832875387 3.339006185531616 -0.058689319592052716 -0.721880912413029 0.5444667303356285 -0.018449209137836913 2.844991929930404 -0.8971259828650989
4.919487953186035 -1.46913035333667 -1.8571815490722656 2.384899063701294 -1.5962923208819788 3.3390347957611084 -0.05865456106699153 -0.7218966747054261 0.5444824913960193 -0.018483748856278792 2.845001870842383 -0.8971693954970038
4.919467449188232 -1.4691260767034073 -1.8571654558181763 2.384894533748291 -1.5963214079486292 3.3390390872955322 -0.058663242392111556 -0.7218964669639496 0.544495911269427 -0.018462269868801458 2.8449726431914866 -0.8971782880865694
4.919471740722656 -1.46906981736932 -1.8571397066116333 2.384894533748291 -1.5963614622699183 3.3389883041381836 -0.05864391966403147 -0.7218811991387116 0.5445549647514204 -0.01856095710629425 2.8449001892478933 -0.8972762151975666
4.919418811798096 -1.4690688413432618 -1.8571486473083496 2.384885712260864 -1.5963323752032679 3.3390228748321533 -0.05869629395946599 -0.7218755963253225 0.5445468550431954 -0.01842295406436673 2.844939723758669 -0.897272858079496
4.91945219039917 -1.46913035333667 -1.857181429862976 2.384915276164673 -1.5963671843158167 3.3390228748321533 -0.05866066207653117 -0.7218946405348653 0.5444842594687075 -0.018484302154558055 2.8449431512685153 -0.897160730620758
4.91947603225708 -1.4690893453410645 -1.8571724891662598 2.384976549739502 -1.5963342825519007 3.33898663520813 -0.058644734312464954 -0.7218923764821883 0.5445333323178497 -0.018556325870764865 2.8449034439448377 -0.8973304322139126
4.919483661651611 -1.4690936368754883 -1.8571770191192627 2.384845419520996 -1.596309010182516 3.338973045349121 -0.05864558210573745 -0.7218759768011644 0.5445023439548563 -0.018573827894090185 2.845011944664703 -0.8971567116371263
4.919508457183838 -1.4691552084735413 -1.8571635484695435 2.384936495418213 -1.596386734639303 3.3390302658081055 -0.05861376489415799 -0.72191352333597 0.5444839730438327 -0.01856265988823973 2.844901914297691 -0.8971568429958817
4.919381618499756 -1.4690979284099122 -1.8571486473083496 2.384963198299072 -1.5963457266436976 3.338956832885742 -0.05870290555288492 -0.7218931457735829 0.5445433964913537 -0.018470132710383887 2.8449248913040517 -0.8973514353892433
4.919463634490967 -1.46913035333667 -1.857181429862976 2.384910984630249 -1.5963414351092737 3.3390183448791504 -0.058657442160154276 -0.7218953721595504 0.5444841863652534 -0.01849519507559874 2.8449648542817054 -0.8971673755276369
4.919463634490967 -1.4690655034831543 -1.857184886932373 2.38493458806958 -1.5963504950152796 3.339027166366577 -0.05866151899892412 -0.7218745274180702 0.5445307285837959 -0.018488386968527035 2.8449024681499284 -0.8972750400280928
4.919450759887695 -1.4690936219743271 -1.8572052717208862 2.3849097925373535 -1.5963323752032679 3.339048147201538 -0.058678652965714014 -0.7218762506052367 0.5444907704913828 -0.018430602326268718 2.844961047820129 -0.8971845909318561
4.919492244720459 -1.4691346448710938 -1.8571815490722656 2.3849198061176757 -1.59633714357485 3.338989734649658 -0.05863156702875503 -0.7218995238443218 0.5444837834348788 -0.018574583586311876 2.844965105752908 -0.8971756285277003
4.919471740722656 -1.4690936219743271 -1.8571699857711792 2.3849691587635498 -1.5963414351092737 3.339048147201538 -0.05865810773582608 -0.7218937799515834 0.5445288321000834 -0.018465811801164234 2.8448894432933156 -0.8973029231872107
4.919512748718262 -1.469114140873291 -1.8571724891662598 2.3849469858356933 -1.5962923208819788 3.3389718532562256 -0.05862372650936132 -0.7219002996615109 0.5445118058231437 -0.018609545268142926 2.84496529699164 -0.8972754413474696
4.9194231033325195 -1.469086007480957 -1.8571486473083496 2.384873791331909 -1.59633714357485 3.3389642238616943 -0.05867956892424507 -0.7218795155689433 0.5445342125973673 -0.018514274214370192 2.844967085129155 -0.8972419593643937
4.919455051422119 -1.4690774020603676 -1.8571724891662598 2.384923143977783 -1.5963457266436976 3.33903169631958 -0.05866846635314756 -0.7218798667078112 0.544529595264846 -0.018467491467842437 2.844914258981013 -0.8972636550927261
4.9195170402526855 -1.4691227239421387 -1.8571442365646362 2.384899063701294 -1.596353832875387 3.338982105255127 -0.05860790022253796 -0.7219023441544214 0.5445160533785001 -0.01862933637346863 2.8449290264339617 -0.8972014897852482
4.919456481933594 -1.469081701045372 -1.8571770191192627 2.384915276164673 -1.5963581244098108 3.339043617248535 -0.058667100296840205 -0.7218791290816104 0.5445209929550049 -0.018457960415364585 2.844911268536866 -0.897231911149002
4.919414520263672 -1.4691098493388672 -1.8571397066116333 2.3849186140247802 -1.596325699483053 3.338994264602661 -0.058690891238217385 -0.721896398736885 0.544532570402596 -0.018454022809757362 2.844952876413831 -0.897284178599545
4.919439315795898 -1.4690936368754883 -1.8571745157241821 2.384923143977783 -1.5964043776141565 3.33901047706604 -0.05866126523525657 -0.7218823959180369 0.5445159734797096 -0.018501776345271156 2.8448872313368625 -0.8972150253835813
4.919492244720459 -1.4690936219743271 -1.8571892976760864 2.3849569994160156 -1.5963833967791956 3.338994264602661 -0.05862447869618356 -0.7218869153407668 0.544512401371624 -0.018590347675721652 2.844882632018567 -0.8972447428697035
4.919463634490967 -1.4690774244121094 -1.8572072982788086 2.384964867229126 -1.596309010182516 3.339048147201538 -0.058674520236109765 -0.7218788665183978 0.5445118100416487 -0.018438914655227175 2.8449337675725848 -0.8972877630940687
4.919467449188232 -1.4690936368754883 -1.8571317195892334 2.384878082866333 -1.5963791052447718 3.338982105255127 -0.058640050541231475 -0.7218885594784079 0.5445410046971009 -0.01857127943915813 2.844908518443367 -0.8972254168468643
4.919459342956543 -1.469102219944336 -1.85715651512146 2.384943647975586 -1.59633714357485 3.3390512466430664 -0.05866797480346401 -0.7218960385393222 0.544528086169733 -0.01844175624022171 2.844908172477801 -0.8972792553356371
4.919512748718262 -1.4690774244121094 -1.8571068048477173 2.384901924724243 -1.5963457266436976 3.339007616043091 -0.05861924724939749 -0.7218958758738384 0.5445758353396195 -0.018585165848184055 2.8448771834357363 -0.8973166186363232
4.919439315795898 -1.4690688413432618 -1.857151985168457 2.384910984630249 -1.5963056723224085 3.3389732837677 -0.05867725352584954 -0.721879564897292 0.5445513746753189 -0.018510581067092035 2.8449545953312523 -0.8973224774046475
4.919463157653809 -1.4690936219743271 -1.857153058052063 2.384894533748291 -1.5963457266436976 3.33903169631958 -0.05866115781554179 -0.7218868993870845 0.5445274466867561 -0.018478887506379684 2.8449278297579816 -0.8972278308801129
4.919484615325928 -1.4690817159465333 -1.8571521043777466 2.384894533748291 -1.5963628927813929 3.339006185531616 -0.058637583368713844 -0.7218833828466693 0.5445367634130762 -0.018553866490019735 2.844906442094643 -0.8972367139870844
4.9195170402526855 -1.4690443512848397 -1.857193946838379 2.384890003795288 -1.596374813710348 3.339015007019043 -0.058618260895240804 -0.7218610964737119 0.5445296183056986 -0.018592686220873796 2.844891703055359 -0.8972100441931332
4.919463634490967 -1.4691098493388672 -1.8571815490722656 2.384927673930786 -1.5963414351092737 3.338998794555664 -0.05865467772642141 -0.7218900819585214 0.5445021660885595 -0.018523632520557103 2.844946585817782 -0.8972211117494492
4.919516086578369 -1.4690936368754883 -1.8571442365646362 2.384923143977783 -1.596320931111471 3.3389718532562256 -0.05861554319205295 -0.7218959757995592 0.5445420605041497 -0.018628368409656166 2.844925505192923 -0.8972928430977375
4.919463634490967 -1.4690774244121094 -1.857193946838379 2.384906454677246 -1.596374813710348 3.339006185531616 -0.058652183907298566 -0.7218718650502306 0.5445101241424518 -0.01852870810459633 2.8449182862764264 -0.8972000986134274
4.919431686401367 -1.4690774020603676 -1.857185959815979 2.384890003795288 -1.5963457266436976 3.338977575302124 -0.0586761963569718 -0.7218701166018524 0.5445145235641464 -0.018510817302892623 2.844962472888705 -0.8972162869997304
4.919435977935791 -1.469086007480957 -1.8571654558181763 2.384890003795288 -1.5963166395770472 3.3390228748321533 -0.05868693439143027 -0.7218796823339568 0.5445234434027051 -0.018439368527582503 2.8449665484868043 -0.8972380240183607
4.91947603225708 -1.4691098493388672 -1.8571138381958008 2.3848811823078613 -1.5963791052447718 3.3390228748321533 -0.05863970412749692 -0.7219000344244528 0.5445426823177418 -0.018525478611845853 2.844893374679744 -0.897222047597585
4.919471740722656 -1.469114140873291 -1.8571486473083496 2.3848365980335693 -1.596374813710348 3.339010715484619 -0.058643994205457316 -0.7218868608703893 0.5445051274352707 -0.018533494306253027 2.8449529160988067 -0.897115042933749
4.919471740722656 -1.4691055503538628 -1.857153058052063 2.3849186140247802 -1.5963581244098108 3.3389523029327393 -0.05863496604349219 -0.7218936420214724 0.5445258915693635 -0.018609712044174335 2.844927371186517 -0.8972516251179614
4.919520378112793 -1.4690529343536873 -1.8571680784225464 2.384840889567993 -1.5963299910174769 3.3390049934387207 -0.05862332719415327 -0.7218649883506272 0.5445350333514494 -0.018591236392254133 2.8449493320753243 -0.8971924591692595
4.919463634490967 -1.4690655034831543 -1.857193946838379 2.384915276164673 -1.596328083668844 3.339010715484619 -0.058664305702398244 -0.7218701389524944 0.5445211372138101 -0.0185012039378031 2.8449423031108863 -0.8972521306447359
4.919459342956543 -1.4690774467638512 -1.8571804761886597 2.384939118022583 -1.59633714357485 3.3390467166900635 -0.058670266382130964 -0.7218807942654698 0.5445264101733427 -0.018448190268271512 2.8449115798058653 -0.8972751485791907
4.919439315795898 -1.469118432407715 -1.8571351766586304 2.384869261378906 -1.596320931111471 3.3389928340911865 -0.05867420059454294 -0.7218954066760517 0.5445205612604352 -0.01848866810383096 2.8449836646568065 -0.897210194003295
4.919504165649414 -1.4690979284099122 -1.857161045074463 2.384861631984375 -1.5963457266436976 3.338977575302124 -0.058621811338143266 -0.7218838073516993 0.5445135797106287 -0.01861370736342513 2.8449582848883868 -0.8971696072962821
4.919435977935791 -1.469102219944336 -1.857193946838379 2.384869261378906 -1.5963085333453577 3.3390228748321533 -0.05868956085521848 -0.7218760060231755 0.544486782007473 -0.018434457596657346 2.8450138454808553 -0.8971543788008123
4.9194231033325195 -1.469114140873291 -1.8571655750274658 2.384885712260864 -1.596353832875387 3.339015245437622 -0.058684335096060344 -0.7218872310881381 0.5445022914198863 -0.01844827592907687 2.84496179377428 -0.8971784254261428
4.919450759887695 -1.4691065114787598 -1.857122778892517 2.3849186140247802 -1.5963042418109339 3.3389809131622314 -0.058666328622931765 -0.7219018278179208 0.5445486125631847 -0.01851518100628735 2.844951446484988 -0.8973183616125859
4.919463634490967 -1.46913035333667 -1.857193946838379 2.384906454677246 -1.5963085333453577 3.3390016555786133 -0.05866234751674442 -0.7218924407578565 0.5444751302233274 -0.018503572526283003 2.8450062889544494 -0.8971653938852897
4.919524669647217 -1.4690612119487305 -1.8571770191192627 2.384923143977783 -1.596365753804342 3.338982105255127 -0.058605322931877674 -0.7218759682002185 0.5445383750926818 -0.018646469998946896 2.8448845329635937 -0.8972646219038857
4.919487953186035 -1.4690936368754883 -1.857130765914917 2.384906454677246 -1.596374813710348 3.3389732837677 -0.058623691078225404 -0.7218938555066079 0.5445476294875249 -0.018611230703584645 2.8448906332336708 -0.8972648885344016
4.919439315795898 -1.4691012662700196 -1.8570741415023804 2.384923143977783 -1.596353832875387 3.3389909267425537 -0.058663132808984546 -0.7219103688579336 0.5445884241895556 -0.018508673393468806 2.844875269616124 -0.8973705587883802
4.919487953186035 -1.469090299015381 -1.8571654558181763 2.384857340449951 -1.5963504950152796 3.3390302658081055 -0.05864374617383213 -0.7218789939872158 0.5445130391057927 -0.01851786202089119 2.844946473019353 -0.8971583696277768
4.9194231033325195 -1.469114140873291 -1.8571654558181763 2.384873791331909 -1.596374813710348 3.3389854431152344 -0.05867400765890355 -0.7218847200811359 0.5445004147068858 -0.018500242617760204 2.8449592894273397 -0.8971571982857347
4.919463157653809 -1.4690569204143067 -1.85715651512146 2.384943647975586 -1.5963714758502405 3.339027166366577 -0.05865606744488349 -0.7218789253690199 0.544559406383516 -0.018498253443074923 2.84485688017155 -0.8973257359316578
4.919487953186035 -1.4690731328776856 -1.85715651512146 2.3848976331898193 -1.5963581244098108 3.3390467166900635 -0.0586450398519756 -0.7218804940469026 0.5445389185310628 -0.01849882437998736 2.844895054948932 -0.8972403537345801
4.91945219039917 -1.4691389364055176 -1.8571815490722656 2.384882612819336 -1.596353832875387 3.3390722274780273 -0.05867364569631058 -0.7218941751381438 0.5444707112378229 -0.018407471717572448 2.844967620166323 -0.8971024248106872
4.919414520263672 -1.4690774244121094 -1.857161045074463 2.384894533748291 -1.596353832875387 3.3390228748321533 -0.05869430543635808 -0.7218760373842839 0.5445327118719764 -0.018426248035563253 2.8449310181621494 -0.897245907827077
4.919471740722656 -1.4690979209593316 -1.857126235961914 2.384882612819336 -1.596328083668844 3.338994264602661 -0.058650177793371755 -0.7218937940881871 0.54454395710476 -0.018536762099352053 2.8449423789035317 -0.8972572008317682
4.919455051422119 -1.4691065114787598 -1.857193946838379 2.3849033552357177 -1.5963447729693812 3.3389732837677 -0.05865659605096947 -0.7218817152470665 0.5444910243113139 -0.018548911178351803 2.8449730312785313 -0.8971811605433426
4.91947603225708 -1.469074086552002 -1.857184886932373 2.384899063701294 -1.5963414351092737 3.339010715484619 -0.05865165556239846 -0.7218735351522192 0.5445185385678541 -0.018524831380833034 2.8449379253612794 -0.8972213269721462
4.91949987411499 -1.4690893453410645 -1.8571654558181763 2.384894533748291 -1.5963085333453577 3.3390722274780273 -0.058652022682484095 -0.721886037679107 0.5445207601493094 -0.01845611249903951 2.8449436480285524 -0.8972215407585743
4.919480323791504 -1.4690979284099122 -1.857153058052063 2.384906454677246 -1.5963323752032679 3.3390228748321533 -0.05864941371522907 -0.721891314741997 0.544527370225145 -0.018509709616454838 2.844931646890369 -0.8972435979085835
4.919447898864746 -1.4690979284099122 -1.8571351766586304 2.384901924724243 -1.5963166395770472 3.339043617248535 -0.05867967895408639 -0.7218937661206755 0.5445397904733451 -0.018427286582295213 2.8449395428396587 -0.8972722629721787
4.9194231033325195 -1.4690774244121094 -1.8571654558181763 2.384943647975586 -1.5963791052447718 3.339043617248535 -0.05868543816075819 -0.721881712958234 0.5445377347077843 -0.01842071666703749 2.8448755210499117 -0.8972867715593308
4.919492244720459 -1.4691227239421387 -1.8571770191192627 2.384906454677246 -1.5963414351092737 3.338998794555664 -0.05863338688870052 -0.7218945484079893 0.5444925104491596 -0.018563939409164544 2.8449574146440826 -0.8971756548080325
4.919450759887695 -1.4690774244121094 -1.8571441173553467 2.3849033552357177 -1.5964000860797327 3.339010715484619 -0.05865418523410317 -0.7218820343387873 0.544546462752042 -0.018516694536924574 2.844870848318156 -0.8972509745380338
4.919456481933594 -1.4691423189691086 -1.857130765914917 2.3849469858356933 -1.596320931111471 3.3389928340911865 -0.05865778622063354 -0.7219165307072145 0.5445224849786309 -0.01851314475108487 2.8449432120649165 -0.8972852959807078
4.919406890869141 -1.469086007480957 -1.8571442365646362 2.384923143977783 -1.5963581244098108 3.3389809131622314 -0.05868831380214163 -0.7218859565949002 0.5445461801196348 -0.01847752796762649 2.844916917952582 -0.8973030133721036
4.919500827789307 -1.4690688413432618 -1.8571680784225464 2.384861631984375 -1.5963323752032679 3.339003086090088 -0.05863480171418097 -0.7218722333668951 0.5445280350125157 -0.018567038092818556 2.8449500629378064 -0.8972019964340248
4.919467449188232 -1.4690731328776856 -1.8571395874023438 2.3849143224903564 -1.596320931111471 3.339043617248535 -0.058666341909268505 -0.7218865955717308 0.5445559865273019 -0.01845759364233721 2.844910551784823 -0.8973101716847867
4.919487953186035 -1.4690697950175782 -1.857161045074463 2.38493196546521 -1.5963833967791956 3.3390390872955322 -0.05863740399833947 -0.7218821054462174 0.544544116160229 -0.018521472585788575 2.8448558593893596 -0.8972729578639095
4.919455051422119 -1.469114140873291 -1.8571563959121704 2.384901924724243 -1.596374813710348 3.3390016555786133 -0.05865295107256962 -0.7218927849544784 0.5445122848630964 -0.018522959010657508 2.844923911508011 -0.897197711026622
4.919447898864746 -1.4691141930273552 -1.8572027683258057 2.384910984630249 -1.5963085333453577 3.33903169631958 -0.058681174452953955 -0.7218846171336584 0.5444796809689774 -0.018438634325057088 2.8449957203861147 -0.8971785214722519
4.919480323791504 -1.469142274265625 -1.857181429862976 2.3848976331898193 -1.596320931111471 3.338965654373169 -0.05863908793814342 -0.7218987104205112 0.5444753516224843 -0.018584187125658996 2.8450056820071135 -0.8971514971427225
4.9194722175598145 -1.4691098567894478 -1.85712730884552 2.384901924724243 -1.596328083668844 3.339010715484619 -0.05865174768776324 -0.7219006298894928 0.5445381446057355 -0.018513840980489478 2.844934405616094 -0.8972623760244675
4.919422149658203 -1.4690979060581704 -1.8571442365646362 2.384890003795288 -1.596398655568258 3.3390138149261475 -0.058674604831136956 -0.7218858791211633 0.5445294877906005 -0.01847039751255113 2.8448998562220287 -0.8972111410600456
4.919431686401367 -1.4690893453410645 -1.85715651512146 2.384861631984375 -1.5963223616229456 3.338989734649658 -0.05868222526666948 -0.7218783668853042 0.5445231828102675 -0.018483021506006628 2.8449851530118266 -0.8972116935636077
4.919471740722656 -1.4691584718278428 -1.857151985168457 2.384901924724243 -1.5962966124164026 3.338994264602661 -0.058653611369361466 -0.7219126290409295 0.5444869734425541 -0.01852045951120889 2.845009823921989 -0.8971841284152418
4.919435977935791 -1.4690936592272301 -1.8572027683258057 2.384910984630249 -1.5963323752032679 3.3390183448791504 -0.058683276425443465 -0.7218758073933005 0.544493746076244 -0.01845210835449851 2.844969907480238 -0.8971983439579545
4.919512748718262 -1.4691141185215493 -1.8571655750274658 2.384885473842285 -1.5963085333453577 3.3390016555786133 -0.05862719187984917 -0.7218935139680979 0.5445037707420961 -0.018574261500523125 2.8449785862431147 -0.8971873313880356
4.9195051193237305 -1.4690611597946663 -1.8571351766586304 2.384927673930786 -1.5963323752032679 3.339019536972046 -0.05863212168578298 -0.7218868213175949 0.5445706701245829 -0.018551126729633403 2.8448787602024836 -0.8973413360091973
4.919467926025391 -1.469090299015381 -1.8571475744247437 2.3848976331898193 -1.5963166395770472 3.339048147201538 -0.05866742954482769 -0.7218887170934362 0.5445347383921655 -0.018449146417779505 2.8449388211950564 -0.8972552133171232
4.91947603225708 -1.4690979284099122 -1.8571654558181763 2.384878082866333 -1.5963042418109339 3.338977575302124 -0.05865130228317202 -0.7218844549045729 0.5445144722452353 -0.01855475318597006 2.844991975219118 -0.8972136354948423
4.919456481933594 -1.469114140873291 -1.85715651512146 2.384857340449951 -1.596365753804342 3.3390631675720215 -0.05866728033452043 -0.72188775840015 0.5445019068869323 -0.018432927903546496 2.8449435797382736 -0.8971298902063476
4.91947603225708 -1.4690936592272301 -1.8571815490722656 2.38487355291333 -1.5963323752032679 3.3389809131622314 -0.05864685690402542 -0.7218777303559891 0.544503589634692 -0.018562567340968405 2.8449784556033135 -0.8971759195233667
4.919439315795898 -1.4690774244121094 -1.8571680784225464 2.384894533748291 -1.5963628927813929 3.338961362838745 -0.05866256949509041 -0.7218748284118873 0.5445289747384211 -0.018553059493999064 2.8449365212619417 -0.897238882988476
4.919459342956543 -1.4690936517766495 -1.8571635484695435 2.384887142772339 -1.5963085333453577 3.33898663520813 -0.058664153142266875 -0.7218836339986605 0.5445202823175177 -0.018520310864264256 2.844981192057531 -0.8972333569701699
4.919440269470215 -1.4691337060979386 -1.8571815490722656 2.384915514583252 -1.5962875525103968 3.338989734649658 -0.05868048673436617 -0.7218969002943604 0.5444848142645524 -0.018478023376915637 2.845021136407624 -0.8972079754988737
4.919487953186035 -1.4691466105035325 -1.8571680784225464 2.384901924724243 -1.5963390509234827 3.338998794555664 -0.05863490836188366 -0.7219043954150848 0.5444818613866816 -0.018556369634753954 2.8449725941292914 -0.8971516006730472
4.919483661651611 -1.4691012439182778 -1.8571698665618896 2.384901924724243 -1.5963414351092737 3.3390347957611084 -0.058648040865440745 -0.721887931428342 0.5445108956115742 -0.018501116130983708 2.8449358498104287 -0.8972025869223375
4.9194231033325195 -1.4691271868399163 -1.8571983575820923 2.384906454677246 -1.5963175932513636 3.339006185531616 -0.05869091296994433 -0.721887683922621 0.5444736370578678 -0.01844364975024349 2.845009215817984 -0.8971660026963213
4.91947603225708 -1.4691423636725922 -1.8571680784225464 2.384861631984375 -1.5963457266436976 3.3390016555786133 -0.05864393254577885 -0.7218965655893901 0.5444766967877119 -0.018538231489846627 2.8449918738747826 -0.8971012634157017
4.919463634490967 -1.4691304129413147 -1.8571983575820923 2.384894533748291 -1.5963628927813929 3.339048147201538 -0.05865976390167139 -0.7218888618743039 0.5444667263415943 -0.018462058712124283 2.8449609114476817 -0.8971050011213405
4.919471740722656 -1.4690979284099122 -1.8572142124176025 2.3848914343067626 -1.5963447729693812 3.3389766216278076 -0.05864719327518896 -0.721873188809336 0.5444792282232374 -0.01856750917852084 2.844982505525924 -0.8971454464445346
4.919450759887695 -1.4691055503538628 -1.857122778892517 2.384861631984375 -1.5963085333453577 3.3390390872955322 -0.05867839889751024 -0.72189431977255 0.544536342568159 -0.018433923978539605 2.8449684408667024 -0.8972290895997401
4.919443607330322 -1.469056875710823 -1.857184886932373 2.384878082866333 -1.596283260975973 3.339006185531616 -0.05868915150999867 -0.7218641785123047 0.5445279536407852 -0.018458834719404026 2.8449970991011932 -0.8972546837798648
4.9194231033325195 -1.4691184547594567 -1.8571743965148926 2.38487355291333 -1.596353832875387 3.3389732837677 -0.058676495625190034 -0.7218844975819627 0.5444914805353583 -0.018507639248431393 2.844987727706028 -0.8971527193975112
4.919447898864746 -1.4691227686456223 -1.8572052717208862 2.3848976331898193 -1.5963581244098108 3.338998794555664 -0.058663297400694814 -0.7218835221767721 0.5444689749929784 -0.018507840056490688 2.8449785652905804 -0.8971256098261818
4.919435977935791 -1.4691141557744523 -1.8572098016738892 2.384878082866333 -1.5962994734393519 3.338965654373169 -0.05868000560860251 -0.7218772082307898 0.5444701237022869 -0.018511207510609706 2.845047021407498 -0.8971451138469472
4.91947603225708 -1.4690697950175782 -1.8571442365646362 2.384910984630249 -1.5962966124164026 3.339006185531616 -0.058658827808819966 -0.7218845552785853 0.544555831041364 -0.018511905232648042 2.844940085260403 -0.897322662341084
4.9194231033325195 -1.469069780116417 -1.8571094274520874 2.384923143977783 -1.5963414351092737 3.3389854431152344 -0.05868070470603394 -0.7218900018515351 0.544584058491514 -0.018487675088020825 2.8448933178757767 -0.897376402853232
4.9194231033325195 -1.4690731030753632 -1.857153058052063 2.384910984630249 -1.5963299910174769 3.33898663520813 -0.058685830814641966 -0.7218793727221339 0.5445466153024092 -0.01847954154045795 2.8449391377785256 -0.8973028497623625
4.919435977935791 -1.4690936219743271 -1.8571395874023438 2.384899063701294 -1.596365753804342 3.338998794555664 -0.05866894358366033 -0.7218882259197397 0.5445389964740418 -0.018496645869312194 2.8449154776579175 -0.8972532045262026
4.919447898864746 -1.4690612193993111 -1.8571486473083496 2.3849078851887207 -1.5963671843158167 3.3389732837677 -0.05865761988121318 -0.7218760722806107 0.544557078544144 -0.018551176773139742 2.844897399444704 -0.8972983734247828
4.919508457183838 -1.4690850761583825 -1.8571680784225464 2.384915514583252 -1.5963166395770472 3.3390886783599854 -0.05864714786428572 -0.7218872161854147 0.5445251545624716 -0.01844877597217493 2.844916789232365 -0.8972427021715883
4.919443607330322 -1.4690612119487305 -1.8571815490722656 2.384861631984375 -1.5963581244098108 3.3390183448791504 -0.058674552992531534 -0.7218624082065219 0.544522062350502 -0.01847565622124293 2.844944045299062 -0.8971886724180869
4.919483661651611 -1.4691098493388672 -1.8571724891662598 2.384899063701294 -1.5963085333453577 3.3390183448791504 -0.05865180348277912 -0.7218906705822898 0.544503667876636 -0.018509196904197656 2.844975387516427 -0.8972045370108125
4.919463634490967 -1.4691141557744523 -1.8571724891662598 2.384927673930786 -1.596374813710348 3.339015007019043 -0.05864954504598743 -0.7218930808231554 0.5445047348337135 -0.01851593925785098 2.844912522135788 -0.8972064013824337
4.919439315795898 -1.4691260767034073 -1.857161045074463 2.3848647314259033 -1.5963414351092737 3.3389809131622314 -0.05866808237024245 -0.7218905982171526 0.5444946462350608 -0.018514209011528695 2.8449935873357335 -0.8971504516164013
4.919484615325928 -1.4690774020603676 -1.8572232723236084 2.384927435512207 -1.59633714357485 3.339027166366577 -0.058650660474824534 -0.7218701566092374 0.5444923590031531 -0.01851084594918209 2.844943606296759 -0.8972008552813279
4.919459342956543 -1.4690936219743271 -1.8571486473083496 2.384852810496948 -1.5963628927813929 3.339006185531616 -0.058655849733393994 -0.7218813023688182 0.5445229658697127 -0.01851746895054791 2.8449441466699756 -0.8971741838295424
4.919480323791504 -1.4691389811090012 -1.857161045074463 2.384923143977783 -1.596320931111471 3.3389809131622314 -0.05864063877291851 -0.7219060842105012 0.5444975918199502 -0.01856319310222593 2.844971418580975 -0.8972146366941723
4.919467449188232 -1.4690443512848397 -1.8571770191192627 2.3849186140247802 -1.596374813710348 3.3390018939971924 -0.05864985869755359 -0.7218659867801422 0.5445483950420421 -0.018541503098274327 2.844879639079736 -0.897283738896712
4.919431686401367 -1.4691141632250329 -1.8571680784225464 2.384910984630249 -1.5963414351092737 3.338944911956787 -0.058666523578935016 -0.7218900759127346 0.5445076845186498 -0.018555076136138077 2.8449727012426953 -0.8972279445608359
4.919487953186035 -1.469114140873291 -1.857181429862976 2.3849198061176757 -1.5963390509234827 3.338994264602661 -0.0586366464458906 -0.7218920063417194 0.5444979317299096 -0.018563391953008476 2.844950722215497 -0.8972022665825475
4.919467449188232 -1.469081701045372 -1.8571771383285522 2.384915514583252 -1.5963042418109339 3.338982105255127 -0.05865922413853671 -0.7218805057699802 0.5445240770721481 -0.018536471590150025 2.844967132040753 -0.897270955728413
4.919480323791504 -1.4690569204143067 -1.8571654558181763 2.384906454677246 -1.5963175932513636 3.339064359664917 -0.058664633494093205 -0.7218746314477993 0.5445456111072159 -0.018444532083914306 2.844915732685308 -0.8972817349636977
4.919487953186035 -1.4690817159465333 -1.85715651512146 2.384882612819336 -1.5963085333453577 3.338974714279175 -0.058641790817922604 -0.7218819980558818 0.5445333566047962 -0.01857835292936776 2.844967573581582 -0.8972494333075064
4.919508457183838 -1.4691141557744523 -1.8571546077728271 2.384882612819336 -1.5964120070086878 3.339035987854004 -0.05861317401074412 -0.7218931284750161 0.5445079367192487 -0.018566879158581847 2.844882141469708 -0.8971367708455593
4.919463634490967 -1.469086007480957 -1.8571635484695435 2.3849004942127685 -1.5963414351092737 3.338977575302124 -0.05865204478736834 -0.7218819806765614 0.5445276557519466 -0.018554646873020553 2.8449424872531934 -0.8972449261923012
4.919496536254883 -1.4691012662700196 -1.857161045074463 2.384845181102417 -1.5964072386371058 3.3389899730682373 -0.05861603284904966 -0.7218807949279067 0.5445061779472796 -0.018613176223157505 2.8449194903144113 -0.8971090707704575
4.91949987411499 -1.4691670697978516 -1.8572052717208862 2.3848587709614257 -1.5963166395770472 3.339043617248535 -0.05864173010680673 -0.7218987087774528 0.5444303285702613 -0.018497553312254857 2.8450394216720047 -0.897016799303672
4.919458866119385 -1.4691098493388672 -1.8571654558181763 2.384887142772339 -1.5963133017169397 3.339052438735962 -0.058675307188803684 -0.721889562025009 0.5445055435316745 -0.01842767849641153 2.844972691902698 -0.8971935341592928
4.919540882110596 -1.4691098493388672 -1.857185959815979 2.384910984630249 -1.5963628927813929 3.339003086090088 -0.058595567077489384 -0.7218907537259054 0.5444949188490019 -0.018636877919509492 2.844920913871373 -0.897165056693615
4.91947603225708 -1.4690893453410645 -1.857122778892517 2.384899063701294 -1.5963085333453577 3.3390049934387207 -0.058653653674088486 -0.7218947146079832 0.544555903739825 -0.018519026865044502 2.8449368613506176 -0.8973030168736504
4.919459342956543 -1.4690817159465333 -1.857184886932373 2.384903593654297 -1.596320931111471 3.338961362838745 -0.058657910068038395 -0.7218758568899957 0.5445160768884958 -0.018561868394288986 2.844972952252569 -0.8972412489846113
4.919443607330322 -1.469090299015381 -1.8571892976760864 2.384894533748291 -1.5963705221759241 3.339027166366577 -0.058670869862572715 -0.721875135082704 0.544501863390939 -0.018468133177791356 2.8449344158414585 -0.8971751034983158
4.919435977935791 -1.4691465732506295 -1.8571699857711792 2.384894533748291 -1.5963881651507776 3.3390016555786133 -0.05866217731938929 -0.7218985760081663 0.5444777128174354 -0.018500834843208483 2.844951309886874 -0.8971225571564401
4.919467449188232 -1.469114140873291 -1.85715651512146 2.38493196546521 -1.5963457266436976 3.3389973640441895 -0.058648958285594216 -0.7218982997099045 0.5445188989162735 -0.018533576163902953 2.8449268530570206 -0.8972519817796651
4.9195051193237305 -1.4691012662700196 -1.8572142124176025 2.384906454677246 -1.5963166395770472 3.3389854431152344 -0.05863056512131061 -0.7218792400957561 0.5444802740039008 -0.018589519304239098 2.844987277877456 -0.897167899377794
4.919467926025391 -1.4690655034831543 -1.8571442365646362 2.384869022960327 -1.5963175932513636 3.3390183448791504 -0.05866374492060038 -0.7218764300577262 0.5445497469981616 -0.01849248604022276 2.844945472775093 -0.8972598761561433
4.919463634490967 -1.4690979284099122 -1.85715651512146 2.384915514583252 -1.5963838736163538 3.3389809131622314 -0.05864146751292444 -0.7218888443943179 0.5445264924958013 -0.01856931471121638 2.8449009066140762 -0.8972351894531243
4.919471740722656 -1.4690979284099122 -1.857161045074463 2.384910984630249 -1.596325699483053 3.3389687538146973 -0.05864672319233763 -0.7218890464334381 0.544523964790121 -0.018571375720069352 2.844954688260029 -0.897254972066894
4.919504165649414 -1.4690697950175782 -1.8571654558181763 2.3849198061176757 -1.596325699483053 3.339015007019043 -0.0586345383870712 -0.7218816212431747 0.5445405279355364 -0.018552192790282564 2.8449146772523264 -0.8972831309607576
4.919467449188232 -1.4690688413432618 -1.8571397066116333 2.384939118022583 -1.5962994734393519 3.3389811515808105 -0.058658540561623604 -0.721888247349513 0.5445660774871164 -0.018536996571907393 2.844925279603851 -0.8973730439291877
4.919443607330322 -1.4691227239421387 -1.8571395874023438 2.384861631984375 -1.5963457266436976 3.3390345573425293 -0.058673838415160745 -0.7218949124685596 0.5445109219135714 -0.01844643998684366 2.8449623524141177 -0.8971658274603905
4.919467449188232 -1.4690979284099122 -1.8571654558181763 2.384882612819336 -1.5963085333453577 3.339027166366577 -0.058666202979682176 -0.7218850378233523 0.5445137957958174 -0.018473929792405905 2.844975850788884 -0.8972093111605497
4.919455051422119 -1.469102219944336 -1.85715651512146 2.384857340449951 -1.5963547865497034 3.3390018939971924 -0.058659579746699206 -0.7218830033864007 0.5445122527461039 -0.018513415426058145 2.844960372114977 -0.8971642074948867
4.919398307800293 -1.469114140873291 -1.8571654558181763 2.3848752218433837 -1.5963166395770472 3.339031457901001 -0.05871411609223371 -0.7218855772888494 0.5445007703148356 -0.018372857151457624 2.845001009579313 -0.897186083269915
4.919435024261475 -1.4691109743765374 -1.8571442365646362 2.384899063701294 -1.5963166395770472 3.33901047706604 -0.05868199693445145 -0.7218946955989667 0.5445242918361256 -0.01845564868572963 2.844966543293286 -0.8972478315027383
4.9194464683532715 -1.4691465658000489 -1.8571362495422363 2.384882612819336 -1.596325699483053 3.339047908782959 -0.05867645129201493 -0.7219079169192696 0.5445010865405538 -0.018421987843915532 2.8449744363147054 -0.8971740506387885
4.919394493103027 -1.4690774244121094 -1.8571274280548096 2.384915514583252 -1.5963581244098108 3.339031457901001 -0.05870722109445434 -0.7218857753630537 0.5445618824973485 -0.0183884791521871 2.844896740875046 -0.8973192884758225
4.919459342956543 -1.4691227239421387 -1.85719633102417 2.384885473842285 -1.596320931111471 3.33901047706604 -0.05866561794401325 -0.7218858202310235 0.5444739654156048 -0.01849056369472468 2.845004893097682 -0.8971366472808516
4.919447898864746 -1.4690400597504158 -1.8571949005126953 2.384894533748291 -1.5963457266436976 3.3389482498168945 -0.05866181771186616 -0.7218558966867581 0.5445354342396366 -0.01857631241846787 2.8449448649618816 -0.897263145607854
4.919467449188232 -1.4690400597504158 -1.85715651512146 2.384903593654297 -1.5963175932513636 3.3390018939971924 -0.05866246195006378 -0.7218688953121183 0.5445653576834318 -0.01851578428523817 2.844920011998056 -0.8973274752046384
4.919463634490967 -1.4690979284099122 -1.857153058052063 2.38487355291333 -1.596325699483053 3.339031457901001 -0.058665522038056354 -0.7218861496339589 0.544520858777954 -0.018470487287822343 2.8449597177589903 -0.8972044732659381
4.919467926025391 -1.4691098493388672 -1.8571486473083496 2.384936495418213 -1.5963323752032679 3.3389525413513184 -0.05864258106214318 -0.7218991366316402 0.5445303586002 -0.01859229193767507 2.8449381224804453 -0.8972903576667499
4.9194231033325195 -1.469090299015381 -1.8571699857711792 2.384903593654297 -1.596325699483053 3.3390464782714844 -0.05869839977892517 -0.721881245150665 0.5445187743568973 -0.018391497021085588 2.8449538935079395 -0.8972374947097429
4.919484615325928 -1.4691346448710938 -1.857122778892517 2.384852810496948 -1.5963504950152796 3.3390347957611084 -0.05864168579224496 -0.7219042759895783 0.544513513512109 -0.01850660521259212 2.844950075264179 -0.8971497826779189
4.91947603225708 -1.4690893453410645 -1.8571521043777466 2.384840889567993 -1.5963085333453577 3.338961362838745 -0.05864805149502998 -0.7218792495260913 0.5445236420571855 -0.018580064764479577 2.8450017709257955 -0.8971939274527286
4.919455051422119 -1.4691098418882866 -1.857193946838379 2.3849243360706787 -1.5963323752032679 3.3390345573425293 -0.05867070764621933 -0.7218868111079141 0.54449131313404 -0.018456042427369753 2.844957283341103 -0.8971994403073061
4.919480323791504 -1.4690774244121094 -1.8571938276290894 2.384890003795288 -1.596320931111471 3.338998556137085 -0.058651239634736674 -0.7218720063217493 0.5445085484409358 -0.01853850506275031 2.8449697008182215 -0.8972051756919532
4.919480323791504 -1.4690893453410645 -1.8571362495422363 2.384890003795288 -1.5963133017169397 3.3389732837677 -0.05864414023718385 -0.7218899940230525 0.5445447579329156 -0.01857208457942198 2.844953588843615 -0.8972756000883232
4.919463634490967 -1.4690979284099122 -1.8571847677230835 2.384878082866333 -1.5963175932513636 3.33901047706604 -0.05866471818402649 -0.7218791143003269 0.544498569570789 -0.018495937033914587 2.844988392216128 -0.8971764780836922
4.919463157653809 -1.4690612119487305 -1.8571577072143555 2.384840889567993 -1.5963671843158167 3.339015007019043 -0.05865705051120921 -0.7218661832441506 0.544535925186705 -0.018512754327787095 2.8449303324387363 -0.897184699331929
4.9194722175598145 -1.4690773722580452 -1.8571157455444336 2.384894533748291 -1.5963323752032679 3.3389732837677 -0.05864540039688456 -0.7218902832527333 0.5445690000867353 -0.01857009695201116 2.8449171486297575 -0.8973167171748153
4.919528961181641 -1.4691098493388672 -1.8571442365646362 2.384833498592041 -1.5962923208819788 3.339015007019043 -0.05862236852419802 -0.7218916118083705 0.5445127371231642 -0.018571103459287516 2.845000463183721 -0.897154565134276
4.919418811798096 -1.4690697503140946 -1.8571486473083496 2.384894533748291 -1.596328083668844 3.3390345573425293 -0.058699274916299005 -0.7218773721726451 0.5445477084215122 -0.018404392349533373 2.8449354758254075 -0.8972835003865862
4.919484615325928 -1.469102219944336 -1.8571202754974365 2.384890003795288 -1.5963791052447718 3.339043378829956 -0.05863822455757592 -0.7218977162890274 0.5445442303581067 -0.018508562688480085 2.844879930708893 -0.8972297642640008
4.919431686401367 -1.4691141557744523 -1.8571486473083496 2.384899063701294 -1.5963628927813929 3.3390018939971924 -0.05867223830713249 -0.7218932188537797 0.544517863198564 -0.01848412731026077 2.8449366216840346 -0.8972152163190571
4.919480323791504 -1.469086007480957 -1.8571577072143555 2.384899063701294 -1.5963628927813929 3.33901047706604 -0.05864137884709603 -0.7218839781111086 0.5445303032173353 -0.01854145575326495 2.8449098874331584 -0.8972295225563739
4.919484615325928 -1.46906120449815 -1.8571407794952393 2.384857340449951 -1.596365753804342 3.339015007019043 -0.05864059061921589 -0.721873780035117 0.5445519831059171 -0.01854310308231556 2.844905132895956 -0.8972261153646565
4.919459342956543 -1.4690850538066407 -1.8571475744247437 2.384899063701294 -1.5963414351092737 3.338994264602661 -0.058657728848104156 -0.7218852320380231 0.5445396333101082 -0.01852517217848203 2.844929876564461 -0.8972632819310964
4.919443607330322 -1.4691346448710938 -1.8571475744247437 2.384901924724243 -1.5963628927813929 3.3389689922332764 -0.058655482968389225 -0.7219014666707575 0.5445059716376196 -0.01854748490596166 2.844951842570224 -0.8971971411274965
4.919443607330322 -1.4691184398582955 -1.8571699857711792 2.38487355291333 -1.5963547865497034 3.3390345573425293 -0.058673353894936164 -0.7218874551989652 0.5444930054005473 -0.018450052117151904 2.844963892093344 -0.897141948899658
4.919487953186035 -1.4690817159465333 -1.857161045074463 2.384845419520996 -1.5963762442218226 3.3390235900878906 -0.0586373256638681 -0.7218746042696316 0.54451957281305 -0.01853937956523777 2.844926431307454 -0.8971473003454054
4.9194231033325195 -1.4691141632250329 -1.8571182489395142 2.384910984630249 -1.5963299910174769 3.3389899730682373 -0.058681656234663385 -0.7219023916929885 0.5445443390108168 -0.01847464766665501 2.844942210826602 -0.8972937833413953
4.919450759887695 -1.4691086944988747 -1.8571351766586304 2.384901924724243 -1.5963504950152796 3.339035987854004 -0.05866764843331378 -0.7218967594868627 0.5445317077961851 -0.01845746522578984 2.844919826406507 -0.8972406061205215
4.919439315795898 -1.4691064742258568 -1.8571724891662598 2.384894533748291 -1.5963457266436976 3.3390402793884277 -0.058680103336981 -0.7218855059029976 0.5445035705629291 -0.018432026946136656 2.8449521141711664 -0.8971874864116028
4.9195170402526855 -1.4691098493388672 -1.8571351766586304 2.384923143977783 -1.5963133017169397 3.339047908782959 -0.05862993028927736 -0.7219050871560394 0.5445356111934553 -0.018517752685347416 2.8449173897295097 -0.8972720575749867
4.9195051193237305 -1.46907743186269 -1.857161045074463 2.384882612819336 -1.5963085333453577 3.33901047706604 -0.05863701181573739 -0.7218808150753184 0.5445318547997633 -0.018551805622490408 2.8449545164483063 -0.8972386153467161
4.919459342956543 -1.46914658070121 -1.85719633102417 2.3849455553242187 -1.5963299910174769 3.3390016555786133 -0.058658491081373734 -0.7219021202856781 0.5444691651157866 -0.018507134124267105 2.8449773690819624 -0.8971824013040511
4.919458866119385 -1.4690324303558846 -1.8571815490722656 2.384882612819336 -1.5963581244098108 3.3389899730682373 -0.05865952962434676 -0.7218555732044939 0.5445469761601628 -0.01853856406407165 2.8449160374823843 -0.8972581931616287
4.919427394866943 -1.4690399926951905 -1.8571655750274658 2.38487355291333 -1.5963705221759241 3.339015007019043 -0.05868324231268939 -0.7218589877281725 0.544551001917232 -0.018464011939114816 2.8449084624458183 -0.8972519245355779
4.919447898864746 -1.4691304054907341 -1.8571699857711792 2.384838028545044 -1.5963175932513636 3.3389647006988525 -0.05866490803804031 -0.7218873193195638 0.5444807246358203 -0.018538079601213453 2.845039472355616 -0.8971109470458342
4.91947603225708 -1.4690569204143067 -1.8571679592132568 2.384894533748291 -1.5962756315814417 3.339043378829956 -0.058673518078727935 -0.7218730460448229 0.5445430358911161 -0.018448957697183316 2.8449650357405236 -0.8972898094319341
4.919439315795898 -1.4691098865917702 -1.8571351766586304 2.384903593654297 -1.5963175932513636 3.3390183448791504 -0.05867973621603716 -0.7218974202532695 0.5445325310937729 -0.01845124974025298 2.8449535954786667 -0.8972646431047302
4.919450759887695 -1.4690902841142197 -1.8571397066116333 2.384861631984375 -1.5963414351092737 3.3390390872955322 -0.05867295791182644 -0.7218839280394509 0.5445333299122238 -0.018448946004859162 2.8449427205861175 -0.8972092339146696
4.919512748718262 -1.4690979358604928 -1.857131838798523 2.384923143977783 -1.5963223616229456 3.3390140533447266 -0.05862500829007409 -0.7219007511929044 0.544547180594396 -0.018564375427376944 2.8449098858530384 -0.8972952526160485
4.919439315795898 -1.4690859925797959 -1.8571274280548096 2.384890003795288 -1.5963414351092737 3.338994264602661 -0.05867132062524208 -0.7218880024265805 0.5445524536649707 -0.018497108539629117 2.8449287545364896 -0.8972808515474303
4.9194793701171875 -1.4690612119487305 -1.8571654558181763 2.384901924724243 -1.5963414351092737 3.339027166366577 -0.05865238268058365 -0.7218744021621164 0.5445422537353112 -0.01850692813270586 2.844911131090032 -0.8972646559815481
4.919455051422119 -1.4690697950175782 -1.8572028875350952 2.3848976331898193 -1.596325699483053 3.3390719890594482 -0.05868373854083329 -0.7218674074230232 0.5445062089058041 -0.018400220907600223 2.8449507296338945 -0.8972014314928711
4.919480323791504 -1.4691346821239968 -1.8571804761886597 2.384878082866333 -1.5963628927813929 3.3389973640441895 -0.058636882179788796 -0.7218928224396837 0.5444755684134561 -0.018558300996179628 2.8449705963337344 -0.8971078877440366
4.919427394866943 -1.4690936145237465 -1.8571137189865112 2.384943647975586 -1.5963299910174769 3.339006185531616 -0.058682206446753996 -0.7219010458215915 0.5445679362560158 -0.01845847516014497 2.8449012918788603 -0.897367398218366
4.919471740722656 -1.4691390258124848 -1.8571680784225464 2.384861870402954 -1.5963566938983362 3.338982105255127 -0.05864093093953755 -0.7218946300096564 0.5444793659842684 -0.018565076796695754 2.844986611864503 -0.8971049180063333
4.919467449188232 -1.4690936219743271 -1.8571983575820923 2.384936495418213 -1.5963447729693812 3.338986396789551 -0.058650558230316084 -0.7218814515232589 0.5445027227347752 -0.01854828154761955 2.8449407999057503 -0.8972321266646338
4.91947603225708 -1.4690978911570092 -1.85712730884552 2.384894533748291 -1.5963009039508265 3.339022636413574 -0.058658577872805776 -0.7218964678481941 0.544545327572093 -0.018490068892818293 2.844949722914002 -0.8972799415823063
4.919455051422119 -1.4691337060979386 -1.8571679592132568 2.384910984630249 -1.596374813710348 3.3390302658081055 -0.058657503105739306 -0.7218985376923532 0.5444908798285004 -0.018481544664249186 2.8449307408391853 -0.8971624230283667
4.919456481933594 -1.4691346374205132 -1.85712730884552 2.384906454677246 -1.59633714357485 3.339027166366577 -0.058662346612152166 -0.7219090912038616 0.5445211159617798 -0.01847165348423833 2.844939796120719 -0.8972301885606984
4.919488906860352 -1.4691098493388672 -1.857184886932373 2.384890003795288 -1.5963504950152796 3.3389689922332764 -0.05862964966764994 -0.7218850470644386 0.5444929394656564 -0.018605788037962142 2.8449652390077196 -0.8971619424777106
4.91945219039917 -1.4690936368754883 -1.857151985168457 2.384869261378906 -1.596320931111471 3.339022636413574 -0.05867349558438249 -0.7218836504745486 0.5445241885516483 -0.018464702934970236 2.8449680562725526 -0.8972124712602124
4.919496536254883 -1.4690936368754883 -1.85715651512146 2.384845419520996 -1.5963504950152796 3.339027166366577 -0.05863654216654449 -0.7218811782481972 0.5445152487885139 -0.018534520849499157 2.8449488594053443 -0.8971487550228869
4.919483661651611 -1.4691141110709687 -1.857122778892517 2.3848320680805664 -1.5963671843158167 3.3389973640441895 -0.05863327320984532 -0.7218931997903755 0.5445244123510136 -0.018566534857338765 2.844945903696662 -0.8971481024097123
4.919480323791504 -1.469118432407715 -1.8571577072143555 2.384873791331909 -1.5963133017169397 3.33904767036438 -0.058658187758835655 -0.7218938680287321 0.5445029788492665 -0.018464845903262667 2.8449770089131863 -0.8971711244970373
4.919439315795898 -1.469114178126194 -1.8571724891662598 2.384894533748291 -1.5963414351092737 3.338994264602661 -0.05867141451071055 -0.7218878189376161 0.5444996772287569 -0.018495411829247292 2.8449716165966037 -0.8971885537016188
4.919487953186035 -1.4690774244121094 -1.8571094274520874 2.3849198061176757 -1.5963414351092737 3.3390018939971924 -0.05863665714588968 -0.7218962685169916 0.5445776156826072 -0.018556183196039626 2.8448791391776047 -0.8973455236570828
4.919504165649414 -1.4691336539438744 -1.8571351766586304 2.384894533748291 -1.5963414351092737 3.3390214443206787 -0.0586266085558388 -0.7219078436394659 0.5445135822889002 -0.01854927085335649 2.8449368698837167 -0.8971942726175076
4.919484615325928 -1.4691065114787598 -1.8571486473083496 2.384899063701294 -1.59633714357485 3.3389689922332764 -0.05863392460684816 -0.7218939098225697 0.5445247687709333 -0.018594576748669073 2.8449469412734563 -0.8972353116613145
4.919467926025391 -1.469081738298275 -1.8571654558181763 2.384890003795288 -1.5963457266436976 3.339027166366577 -0.058658457026715335 -0.7218793012267173 0.5445255681376252 -0.018492067576430595 2.8449308103269066 -0.8972209950505619
4.919455051422119 -1.4690774616650124 -1.8571983575820923 2.384890003795288 -1.5962966124164026 3.3390510082244873 -0.058685571351591234 -0.721870727053932 0.5445041528675229 -0.018416656352987483 2.844986173922092 -0.8972066832608561
4.919439315795898 -1.4690817233971138 -1.8572051525115967 2.3848811823078613 -1.5963342825519007 3.339064121246338 -0.05869125935862893 -0.7218676249107877 0.5444930215897913 -0.01839254818654482 2.8449688148722685 -0.897160288554184
4.919447898864746 -1.4690936368754883 -1.857193946838379 2.384906454677246 -1.5963457266436976 3.338994264602661 -0.058666563297604765 -0.7218773576796945 0.5444999300221974 -0.01850962970853866 2.8449590779732836 -0.897199380592396
4.919484615325928 -1.4690698024681588 -1.8571441173553467 2.384887142772339 -1.5963414351092737 3.3389856815338135 -0.05863905705662422 -0.7218803961866866 0.5445507635214873 -0.018573659243486525 2.844921056516549 -0.8972690546030281
4.919458866119385 -1.4691098493388672 -1.857193946838379 2.384890003795288 -1.5962846914874476 3.338986396789551 -0.05867012130478612 -0.7218830946891452 0.5444871892616402 -0.018507979480387335 2.8450280476739516 -0.8971875272577194
4.919447898864746 -1.4690612492016335 -1.8572051525115967 2.384927435512207 -1.596374813710348 3.3390345573425293 -0.058670376418332795 -0.7218656776856063 0.544516141522243 -0.018466208653724007 2.8448994235208334 -0.8972325267108278
4.919406890869141 -1.469097913508751 -1.85712730884552 2.384845419520996 -1.5963342825519007 3.3389973640441895 -0.05869722444261207 -0.7218845463025183 0.5445356464415121 -0.018442759955906968 2.8449772566058193 -0.8972145978396502
4.919435024261475 -1.469142311518528 -1.8571815490722656 2.384878082866333 -1.5963581244098108 3.33901047706604 -0.05867273959622046 -0.7218929067512951 0.5444691909885369 -0.018472875191726697 2.8449885772699743 -0.8971051286229366
4.91947603225708 -1.4690979284099122 -1.8571475744247437 2.384869261378906 -1.5963323752032679 3.3390183448791504 -0.05865230347524253 -0.7218872760297518 0.5445243904929791 -0.018509933101986644 2.8449534689375553 -0.8972026254157065
4.91947603225708 -1.4691098493388672 -1.8571395874023438 2.384890003795288 -1.596320931111471 3.3389973640441895 -0.058648914299828735 -0.72189631649963 0.5445271010456056 -0.01853462692069242 2.8449575037826618 -0.8972355606433317
4.9194231033325195 -1.469102219944336 -1.857122778892517 2.384915276164673 -1.5963457266436976 3.3390183448791504 -0.058684707725048815 -0.7218975451822627 0.5445488243993153 -0.018441651680844842 2.844915224601197 -0.8972954705899856
4.919443607330322 -1.4690860223821183 -1.8571486473083496 2.384910984630249 -1.5963414351092737 3.3389527797698975 -0.058660568798480486 -0.7218855232653496 0.544541694178601 -0.018561929072306825 2.844938004484983 -0.8972879329774828
4.9194722175598145 -1.469109834437706 -1.8571724891662598 2.384910984630249 -1.596353832875387 3.338994264602661 -0.058644753881699714 -0.7218901018374526 0.5445056009481511 -0.018548052743534146 2.8449400228221795 -0.8972033819140082
4.919419765472412 -1.4691260618022461 -1.85713529586792 2.384849949473999 -1.5963085333453577 3.339031457901001 -0.05869868678144245 -0.7218951154144502 0.5445105737061762 -0.018399891277870315 2.845006239974476 -0.8971766385760719
4.919484615325928 -1.469102219944336 -1.85713529586792 2.384870691890381 -1.5963457266436976 3.3389899730682373 -0.05863649957198483 -0.7218917544415764 0.5445314838983214 -0.018568845337544923 2.8449414038360534 -0.8972120487146967
4.919414520263672 -1.4691303682378312 -1.857153058052063 2.384882612819336 -1.5963085333453577 3.3389856815338135 -0.05869317345173859 -0.7218959655906894 0.5445018663815111 -0.018457337542015662 2.845012318355899 -0.897201089261362
4.919480323791504 -1.469114140873291 -1.8571804761886597 2.384882612819336 -1.5963457266436976 3.3390345573425293 -0.058649519262999925 -0.721887033298589 0.54449004558355 -0.018497988713145622 2.8449598948898567 -0.897143411241932
4.919430732727051 -1.4690893453410645 -1.8571982383728027 2.384849949473999 -1.596353832875387 3.3389692306518555 -0.0586741854510307 -0.7218656012873055 0.5444891684285142 -0.018524205735965527 2.844998041797955 -0.8971273053454724
4.919427394866943 -1.469114140873291 -1.857181429862976 2.384857340449951 -1.596374813710348 3.3390183448791504 -0.05867865255331095 -0.7218792872740049 0.5444841529194118 -0.018458989816651665 2.8449702871372593 -0.8971062151917051
4.91947603225708 -1.4690654885819932 -1.857102394104004 2.3848869043537597 -1.5963581244098108 3.3389899730682373 -0.05864051642792163 -0.721887949984357 0.5445847416703073 -0.018564080857023973 2.844880127473323 -0.8973224842854236
4.919483661651611 -1.4691065114787598 -1.8571938276290894 2.384878082866333 -1.596374813710348 3.339014768600464 -0.0586379910640351 -0.721879667654422 0.5444842261085349 -0.018544059999388702 2.8449465540432537 -0.8971173031702498
4.919520378112793 -1.469102219944336 -1.8571892976760864 2.384915276164673 -1.5963299910174769 3.3390018939971924 -0.058618202284115295 -0.7218874944041487 0.5444993714263683 -0.018594511202490366 2.844948011712976 -0.8971985292158056
4.919455051422119 -1.4690979284099122 -1.857130765914917 2.3849479395100097 -1.5963133017169397 3.3389899730682373 -0.05866325497752682 -0.7219009498002396 0.5445537675391583 -0.01851274143446116 2.844922230240298 -0.8973511559755898
4.919480323791504 -1.4691227239421387 -1.8571680784225464 2.38491074621167 -1.5962994734393519 3.339063882827759 -0.05866376845807619 -0.7218984875689184 0.5444992309300909 -0.0184353382173157 2.844970582675869 -0.8972053892531974
4.919406890869141 -1.4691065561822434 -1.8571770191192627 2.3848976331898193 -1.596374813710348 3.3389856815338135 -0.05868629412181088 -0.7218815311250855 0.5445015812887609 -0.018476939706078253 2.8449512130667536 -0.8971871285566022
4.919471740722656 -1.4690936368754883 -1.8571724891662598 2.384939118022583 -1.596325699483053 3.339026927947998 -0.05865838490591898 -0.721889278500081 0.54452207208908 -0.018488555304296325 2.844927570289549 -0.8972717225421852
4.919439315795898 -1.4690529343536873 -1.8571815490722656 2.38491074621167 -1.5963414351092737 3.3390259742736816 -0.058682271212960074 -0.7218664225226681 0.5445375839256471 -0.01845159122967046 2.8449213380695637 -0.8972742131378469
4.9194464683532715 -1.4691227239421387 -1.8571486473083496 2.3849362569996337 -1.5963085333453577 3.3389899730682373 -0.05866990551937307 -0.7219035163571782 0.5445208581041393 -0.01849727719942677 2.8449621932674396 -0.8972823464970701
4.919439315795898 -1.4690979284099122 -1.8571654558181763 2.384943409557007 -1.5963595549212855 3.3390018939971924 -0.0586683996271818 -0.7218899643043005 0.5445251551364632 -0.018493733393389538 2.8449102660051664 -0.8972744341107534
4.919484615325928 -1.4690936368754883 -1.8572311401367188 2.384873791331909 -1.596320931111471 3.3389732837677 -0.05864427805304502 -0.72186655700703 0.5444666410965627 -0.01857921900531101 2.845018132163166 -0.8971155952623775
4.919406890869141 -1.4691346448710938 -1.8571395874023438 2.38493196546521 -1.5963042418109339 3.339027166366577 -0.058705554133504076 -0.7219075871581562 0.5445176097866101 -0.018386015502969883 2.844971430645995 -0.897275493121879
4.919487953186035 -1.4690697950175782 -1.8571938276290894 2.384878082866333 -1.5963299910174769 3.339031457901001 -0.05865105745852467 -0.7218682641212951 0.5445103306902885 -0.018506732479256393 2.84495493780194 -0.8971864865959548
4.919480323791504 -1.4690936145237465 -1.8571680784225464 2.384890242213867 -1.5963957945453089 3.3389899730682373 -0.05863008222333351 -0.7218818609583293 0.5445152480593769 -0.018585232337101645 2.844904786500325 -0.8971799291622823
4.919431686401367 -1.4690774244121094 -1.8571577072143555 2.384873791331909 -1.596325699483053 3.3389856815338135 -0.058681300858431165 -0.7218753508115014 0.5445329695165029 -0.018490658449785168 2.8449692158988036 -0.8972414981604188
4.919447898864746 -1.4690817159465333 -1.8571486473083496 2.384922905559204 -1.596353832875387 3.3389976024627686 -0.05866352820037848 -0.7218860567512877 0.5445453920498158 -0.018510055105018245 2.8449058160528042 -0.8972933967629318
4.919467449188232 -1.4691260618022461 -1.8571699857711792 2.3848575788685302 -1.5963299910174769 3.3389899730682373 -0.058652795827800905 -0.7218895396501518 0.5444865115238117 -0.018535779709492852 2.84500330553572 -0.8971275898966159
4.919439315795898 -1.469102219944336 -1.8572187423706055 2.384906454677246 -1.596407715474264 3.3390345573425293 -0.05866732577998834 -0.7218727477732061 0.5444725088981507 -0.018467643111869294 2.8449219014446814 -0.8971150492539519
4.919398784637451 -1.4690774095109482 -1.8571680784225464 2.384894533748291 -1.5962875525103968 3.3390183448791504 -0.05872012392455597 -0.721875156918776 0.5445291607981626 -0.01837982671606394 2.8449945316987675 -0.8972760027494844
4.919480323791504 -1.4691098493388672 -1.8571654558181763 2.384882612819336 -1.5963085333453577 3.33901047706604 -0.058652726936374425 -0.7218898378647932 0.5445060079469123 -0.018515710769427075 2.8449839720464025 -0.8971940513090759
4.919443607330322 -1.4690936145237465 -1.8571486473083496 2.384894533748291 -1.5963628927813929 3.3389735221862793 -0.0586596745322335 -0.7218856563093522 0.5445320754635078 -0.018541920366921667 2.8449304088413965 -0.8972399732946084
