gadestri/Universal-robots-Hand-tracking-to-move-the-robot/RTDE/2022_03_18_12_38_27.csv
actual_q_0 actual_q_1 actual_q_2 actual_q_3 actual_q_4 actual_q_5 actual_TCP_pose_0 actual_TCP_pose_1 actual_TCP_pose_2 actual_TCP_pose_3 actual_TCP_pose_4 actual_TCP_pose_5
4.919450283050537 -1.4691230815700074 -1.857181191444397 2.384943409557007 -1.5963166395770472 3.339006185531616 -0.05866997335752288 -0.7218969892577914 0.5444967116420171 -0.018482592129208775 2.8449667410070307 -0.8972394702132498
4.919443607330322 -1.469114289884903 -1.857209324836731 2.38495580732312 -1.5963581244098108 3.3389692306518555 -0.05865988242171846 -0.7218868299022263 0.5444840211560542 -0.01854435600882444 2.844948142991845 -0.8972166082117938
4.91948938369751 -1.4690979284099122 -1.857197880744934 2.3848976331898193 -1.59633714357485 3.3390183448791504 -0.058643424916381005 -0.7218796920341803 0.5444917555983164 -0.018530094438952184 2.8449599052568098 -0.8971680562009648
4.919467449188232 -1.469072737996914 -1.857139229774475 2.384927435512207 -1.5963671843158167 3.3389363288879395 -0.05863436242125955 -0.7218857984424849 0.5445611066198065 -0.01863167038004754 2.8448904858153266 -0.8973253261853377
4.91947603225708 -1.4690652725151558 -1.8571443557739258 2.384882612819336 -1.5963237921344202 3.3389692306518555 -0.05864646193075578 -0.7218778906301271 0.544553759901959 -0.018576883615997845 2.844941792259345 -0.8972831330582696
4.919466972351074 -1.469102368955948 -1.8571566343307495 2.384960098857544 -1.5963042418109339 3.339014768600464 -0.05866227330090987 -0.7218992028513973 0.5445329825704346 -0.018489587998853124 2.84493180840709 -0.8973243933854734
4.919480800628662 -1.4691306141069909 -1.8571523427963257 2.384899063701294 -1.5963671843158167 3.3389735221862793 -0.05862917508632146 -0.7219006161351667 0.544504366573838 -0.018595805207983544 2.8449397297854104 -0.8971817307301464
4.919497013092041 -1.4690364089659234 -1.857197880744934 2.384873791331909 -1.5963447729693812 3.338998556137085 -0.05863747781454243 -0.7218545667474234 0.5445302117901205 -0.018573886269867064 2.844932928137995 -0.8972169218191461
4.919508934020996 -1.4690696832588692 -1.857197880744934 2.384890242213867 -1.5963323752032679 3.3389692306518555 -0.05862298383877012 -0.7218693298535468 0.5445114840054711 -0.018626245314428573 2.844957589973856 -0.8972044632049827
4.919431686401367 -1.4691098493388672 -1.8571724891662598 2.384861870402954 -1.596365753804342 3.3389899730682373 -0.058671744561733144 -0.7218806855365899 0.5444958359809935 -0.01850168948292833 2.8449723915166216 -0.8971397167258522
4.91947603225708 -1.4690771636417885 -1.8571566343307495 2.3849186140247802 -1.5963671843158167 3.339038848876953 -0.05864920316433792 -0.7218837117646035 0.5445401343518603 -0.018497289366994366 2.844882332203898 -0.8972621002728162
4.919445037841797 -1.4690275725773354 -1.857168197631836 2.384885712260864 -1.5963299910174769 3.339022636413574 -0.05868192291307493 -0.7218578103887114 0.5445607860928503 -0.018459971098495738 2.8449213156192803 -0.8972981671808077
4.919450283050537 -1.4690815818360825 -1.8572304248809814 2.384870691890381 -1.596353832875387 3.3389976024627686 -0.05866736137110759 -0.7218594019850503 0.5444734267908102 -0.018511144011416607 2.8449884040017097 -0.8971129370217525
4.919443607330322 -1.469077193444111 -1.8571443557739258 2.384890242213867 -1.5963457266436976 3.3389692306518555 -0.058663822614545266 -0.721880674114914 0.5445464337567106 -0.01854062979730106 2.844935161388643 -0.8972720669098789
4.91943883895874 -1.4691721510938187 -1.8571269512176514 2.384906454677246 -1.5963457266436976 3.3390190601348877 -0.058668734227455416 -0.7219211643448924 0.5444953638015176 -0.01846118687850858 2.8449625719988614 -0.8971807741936447
4.919487953186035 -1.4690935027650376 -1.8571313619613647 2.38491074621167 -1.5963504950152796 3.3390018939971924 -0.0586347707531069 -0.7218952449169272 0.5445478659794558 -0.018559371811140136 2.8449010769058973 -0.8972774050492416
4.919497013092041 -1.4691142749837418 -1.8572217226028442 2.384927435512207 -1.596370045338766 3.3389735221862793 -0.058620854295032256 -0.7218828508636875 0.544468695459913 -0.01861909019490932 2.8449486758610067 -0.8971439462080992
4.919471740722656 -1.4690771636417885 -1.8571031093597412 2.384906454677246 -1.5962923208819788 3.338977813720703 -0.0586547582378424 -0.721895973808969 0.5445818815543246 -0.018545014779227327 2.844933361745138 -0.8973706802153613
4.919467449188232 -1.4691067722490807 -1.8571937084197998 2.384923143977783 -1.5963581244098108 3.3389976024627686 -0.05864888253407971 -0.7218852069090418 0.5444938454844427 -0.01853814375459214 2.8449407684909587 -0.8971933512435913
4.91943883895874 -1.469130554502346 -1.8571486473083496 2.384882612819336 -1.59629995027651 3.339022636413574 -0.058684617571898995 -0.7218991887551729 0.5445041997757649 -0.018435432384120223 2.845001288017939 -0.897199221712388
4.91943883895874 -1.4690608170679589 -1.8571768999099731 2.384943409557007 -1.5962923208819788 3.339006185531616 -0.05868814428226883 -0.7218758475290434 0.5445437905575462 -0.018456759239750688 2.8449480346034446 -0.8973441829751693
4.9194183349609375 -1.469142535035946 -1.8571724891662598 2.3849362569996337 -1.5963581244098108 3.3390345573425293 -0.0586875500923089 -0.721902371267533 0.5444865392675431 -0.018415486959860942 2.8449455833605843 -0.8971938767027201
4.919445991516113 -1.469074086552002 -1.857161045074463 2.384943409557007 -1.596353832875387 3.3390421867370605 -0.05867437831449873 -0.7218835624538165 0.5445440047076026 -0.018443882548342817 2.844885741977799 -0.8973061458868731
4.919450283050537 -1.4691350397518654 -1.8572006225585938 2.384885712260864 -1.596325699483053 3.3389692306518555 -0.05866223238361966 -0.7218880544778057 0.5444633070962801 -0.01853822604931946 2.8450236401017626 -0.8971220695266976
4.919458389282227 -1.4690652427128335 -1.857202172279358 2.3849186140247802 -1.5963299910174769 3.339055061340332 -0.05867677172260452 -0.7218686881919856 0.5445143986236723 -0.018431306120114184 2.8449342236380324 -0.8972371561001024
4.919430255889893 -1.4690652427128335 -1.8572137355804443 2.384906454677246 -1.59633714357485 3.339038848876953 -0.05869316880643837 -0.7218622211630638 0.5445035776160877 -0.018417337437594453 2.844954463418645 -0.8972102049851127
4.919456958770752 -1.469074049299099 -1.8571724891662598 2.3849186140247802 -1.5963495413409632 3.3390183448791504 -0.05866395697757156 -0.7218779088232625 0.5445313373834647 -0.01849100888835797 2.844914622377849 -0.8972622836021756
4.919504642486572 -1.4690935027650376 -1.8571232557296753 2.384899063701294 -1.596374813710348 3.3390183448791504 -0.05862035932727995 -0.7218961215473557 0.5445506381419909 -0.018570900598113074 2.844875088655987 -0.8972529641144653
4.91946268081665 -1.4690979284099122 -1.8571724891662598 2.384943409557007 -1.5963457266436976 3.339043140411377 -0.058663165978837056 -0.7218905072391244 0.544518962531068 -0.01846169370226575 2.8449097257018274 -0.897259588983103
4.919467449188232 -1.4691142824343224 -1.8571653366088867 2.3849479395100097 -1.596353832875387 3.338994264602661 -0.0586465384127106 -0.7218981431294538 0.5445151378806055 -0.018541601168136097 2.8449167200576113 -0.8972577249606987
4.919443607330322 -1.469072775249817 -1.8571189641952515 2.384898825282715 -1.5963547865497034 3.338998556137085 -0.058666370051677734 -0.7218864711441461 0.5445693034911165 -0.018503780300750294 2.8448967501796654 -0.8973130039227586
4.919458389282227 -1.4690935027650376 -1.8571529388427734 2.384878082866333 -1.5963414351092737 3.3389899730682373 -0.05865776179734325 -0.721883993648536 0.5445257381619479 -0.018529456856188595 2.844952764491341 -0.8972175099498827
4.919447898864746 -1.4690846514752884 -1.8572217226028442 2.384906454677246 -1.5963414351092737 3.3389203548431396 -0.058655028400259296 -0.7218667240097016 0.544487431467888 -0.018612476552076623 2.8449922903450076 -0.8971910850761621
4.919504642486572 -1.4690935176661988 -1.8571566343307495 2.384927435512207 -1.59633714357485 3.339031219482422 -0.05863239303455951 -0.7218931306656219 0.5445314616144042 -0.01853472699098399 2.8449058597357872 -0.897263945100395
4.919467449188232 -1.4691187155297776 -1.857181191444397 2.384906454677246 -1.5963166395770472 3.339031219482422 -0.058663810269989014 -0.7218917199674884 0.5444917940828436 -0.0184711753899048 2.844976286611471 -0.8971872073712357
4.91946268081665 -1.469060779815056 -1.8571356534957886 2.384898825282715 -1.5963581244098108 3.339043140411377 -0.05866239669660407 -0.7218797478031321 0.5445636161350924 -0.018468803017936533 2.844881103786043 -0.8972922953505791
4.919463634490967 -1.469093458061554 -1.8571768999099731 2.384899063701294 -1.5963414351092737 3.339021682739258 -0.058660921969999336 -0.7218817515569135 0.5445108076794746 -0.018491331814362848 2.8449455967237833 -0.8972063140566936
4.919471740722656 -1.4690979284099122 -1.8571724891662598 2.384878082866333 -1.5963457266436976 3.3390183448791504 -0.058653427682228934 -0.7218818728884623 0.5445069370315025 -0.0185094202402836 2.84495381174277 -0.8971747347899923
4.919472694396973 -1.4690979284099122 -1.8571275472640991 2.38491074621167 -1.5963299910174769 3.3389856815338135 -0.05864669805132257 -0.7218972048628758 0.5445486575970468 -0.01855137878244494 2.8449260832148284 -0.8972938057484987
4.919487953186035 -1.4690438595465203 -1.8571523427963257 2.384890242213867 -1.5963414351092737 3.339047431945801 -0.05865111144333998 -0.7218705341762597 0.5445613470982908 -0.018490898987602603 2.8448921795135322 -0.8972841324044046
4.919455051422119 -1.4690696534565468 -1.8571724891662598 2.3849186140247802 -1.5963833967791956 3.3390183448791504 -0.058658002481154374 -0.7218753162254434 0.5445335593260955 -0.018503903299362513 2.8448848461302596 -0.897250429726253
4.919431686401367 -1.4690934878638764 -1.8571768999099731 2.384899063701294 -1.5963323752032679 3.3389976024627686 -0.05868127647565663 -0.7218798477616544 0.544511716157462 -0.01847608340389825 2.844967224579569 -0.8972222305249645
4.919467449188232 -1.4691023615053673 -1.8571935892105103 2.384894533748291 -1.5963414351092737 3.339006185531616 -0.05865541831358516 -0.7218803335683561 0.5444915704581059 -0.018518186063193564 2.8449671305061215 -0.897168148287917
4.919463634490967 -1.4691142824343224 -1.8571891784667969 2.384890242213867 -1.5963166395770472 3.3389933109283447 -0.05866023795115957 -0.7218853479307842 0.5444867779245766 -0.018519544271275095 2.844998769503879 -0.8971688683706176
4.919487953186035 -1.4691098493388672 -1.857163906097412 2.384873791331909 -1.5963342825519007 3.339050769805908 -0.05864950188204962 -0.7218892399929593 0.5445036434728953 -0.018480932320635544 2.844955705133902 -0.8971609621784595
4.919467449188232 -1.469093495314457 -1.8571313619613647 2.384902163142822 -1.5963457266436976 3.3390140533447266 -0.05865327599780851 -0.7218931473585614 0.5445459554390357 -0.018510680381246734 2.84491267431207 -0.8972700652221547
4.919480800628662 -1.4690815818360825 -1.8571399450302124 2.384906454677246 -1.5963414351092737 3.339031219482422 -0.05864921201390055 -0.7218885298694291 0.5445481739579952 -0.018503345667989744 2.8449037540891586 -0.8972765710420736
4.919427394866943 -1.469102331703045 -1.8571891784667969 2.384899063701294 -1.5963414351092737 3.3390018939971924 -0.058683143845169865 -0.721879597652606 0.5444959381902256 -0.018467523720642733 2.8449731027578355 -0.8971890013020741
4.919471740722656 -1.4691231560758133 -1.8571891784667969 2.384894533748291 -1.596374813710348 3.3389899730682373 -0.0586397968146335 -0.7218879498136581 0.5444801249317532 -0.018562268681116427 2.8449530145706934 -0.8971306167427034
4.919467926025391 -1.4690979284099122 -1.857184886932373 2.3848814207264404 -1.596365753804342 3.339055061340332 -0.05865944999869731 -0.7218790153168735 0.5444966403613977 -0.01846061028758349 2.844935243215377 -0.8971453263133529
4.919467926025391 -1.4691098493388672 -1.8571768999099731 2.384902163142822 -1.5963237921344202 3.3389813899993896 -0.058652558753655555 -0.7218882577531216 0.5445016465122251 -0.018546370891215927 2.8449769359857777 -0.8972050522375546
4.919471740722656 -1.469052681033947 -1.8572304248809814 2.384890242213867 -1.5963414351092737 3.339031219482422 -0.05866295498144512 -0.721853765237565 0.5444966281086606 -0.018488896997789543 2.8449545674598573 -0.8971738216954102
4.919471740722656 -1.469074086552002 -1.857163906097412 2.38491074621167 -1.5963133017169397 3.338982105255127 -0.05865408942317818 -0.7218803348478411 0.54453822152935 -0.018547175259969278 2.844948590994935 -0.8972868351154306
4.9194746017456055 -1.4690950524858017 -1.8572217226028442 2.384927435512207 -1.5963042418109339 3.3390071392059326 -0.058659984971335725 -0.7218768760610674 0.5444826706401005 -0.01850969880702424 2.844987905660724 -0.8972028035016678
4.919472694396973 -1.4690771412900467 -1.857171893119812 2.384902163142822 -1.596295181904928 3.339038848876953 -0.0586691103821337 -0.7218795551202406 0.5445271615798993 -0.018459103877943472 2.844961449889258 -0.8972587176792443
4.919471740722656 -1.469042868619301 -1.8571486473083496 2.3848814207264404 -1.5963791052447718 3.338994264602661 -0.05864390817999085 -0.721867271098788 0.5445637457123406 -0.01856087623518841 2.844881279161232 -0.8972721181569049
4.91949987411499 -1.469074086552002 -1.8571399450302124 2.384906454677246 -1.59633714357485 3.3390355110168457 -0.058637818653632295 -0.721887147674402 0.544553357866535 -0.01852254483084568 2.844896527274379 -0.8972843088742584
4.919459342956543 -1.4690979284099122 -1.8571768999099731 2.384890242213867 -1.596325699483053 3.3389899730682373 -0.05866121440373143 -0.7218819429266565 0.5445072982676977 -0.01852302200756412 2.8449754894756474 -0.8972039925173869
4.919455051422119 -1.469031849210598 -1.857184886932373 2.384939118022583 -1.596320931111471 3.339022636413574 -0.05867589192114664 -0.721863407251301 0.5445558397842368 -0.01846992815028689 2.844906086572532 -0.897344791375335
4.91945219039917 -1.4690860000303765 -1.8570960760116577 2.38491074621167 -1.5963791052447718 3.339075803756714 -0.05866746310881035 -0.7218990574008652 0.5445768980989514 -0.018417419297989797 2.84484249375557 -0.8973119925568173
4.919430255889893 -1.4690904405764122 -1.8571486473083496 2.38491074621167 -1.5963457266436976 3.339047431945801 -0.05868760585037222 -0.7218872847352815 0.5445356956928654 -0.01841002374113624 2.8449178543477953 -0.8972632645980155
4.919485092163086 -1.4691425573876877 -1.857197880744934 2.384931727046631 -1.596325699483053 3.339075803756714 -0.05865625416226073 -0.7219009422364251 0.5444660155590263 -0.018436119657896783 2.8449630620613564 -0.8971496062577721
4.919497013092041 -1.469114289884903 -1.857161045074463 2.384878321284912 -1.5963323752032679 3.338977098464966 -0.05862825006970783 -0.7218918332653308 0.5445058181359493 -0.01859784436413392 2.844971007604083 -0.8971787653634956
4.919463634490967 -1.469060779815056 -1.8571768999099731 2.3849641519733886 -1.5963123480426233 3.3390018939971924 -0.05866433085814311 -0.7218795133104858 0.5445475006596643 -0.01850741683349974 2.844913433258473 -0.8973573730658702
4.919455051422119 -1.4691426020911713 -1.8571898937225342 2.3848413664051513 -1.5963414351092737 3.339006185531616 -0.058662570221203955 -0.7218875925516384 0.5444560445505664 -0.01849934125207573 2.8450260478815004 -0.8970499044738106
4.919483661651611 -1.4690979209593316 -1.8571935892105103 2.384906454677246 -1.596374813710348 3.339014768600464 -0.058637879699511786 -0.7218805214051824 0.5444959103424502 -0.018544466515108167 2.8449234977493156 -0.8971673720343936
4.9194746017456055 -1.469069631104805 -1.8571319580078125 2.384906454677246 -1.5963042418109339 3.339031219482422 -0.05866257976712867 -0.7218868384567689 0.5445634273504479 -0.018477977534415897 2.8449231994158697 -0.8973245105187164
4.91947603225708 -1.4690845695189019 -1.8571399450302124 2.384882612819336 -1.596381966267721 3.339059352874756 -0.058649439497856524 -0.721885311977883 0.5445396241603181 -0.01847482638727126 2.844881799149865 -0.8972141047356186
4.919447898864746 -1.469106839304306 -1.8571724891662598 2.384931727046631 -1.5963628927813929 3.339022636413574 -0.05866554613372753 -0.7218905174676828 0.5445106750139439 -0.01847745936522957 2.8449174160696056 -0.8972296820445621
4.919508934020996 -1.469089077120163 -1.8572049140930176 2.3848869043537597 -1.596353832875387 3.33901047706604 -0.05862528043880808 -0.7218739957043128 0.5444903080464468 -0.018576683491112536 2.8449486293878454 -0.8971447954939534
4.919445991516113 -1.4691187304309388 -1.8571276664733887 2.384873791331909 -1.5963705221759241 3.338982105255127 -0.05865552076621756 -0.7218968555492737 0.5445260186965999 -0.0185363388527878 2.8449368921514373 -0.8972002198231231
4.919443607330322 -1.4691678446582337 -1.8571566343307495 2.384927197093628 -1.5963085333453577 3.338977813720703 -0.058666860310582235 -0.7219161116190067 0.5444820717285832 -0.01850921833235108 2.8450046138560636 -0.8972017723711558
4.919504642486572 -1.4690726709416886 -1.8571566343307495 2.3848869043537597 -1.5963495413409632 3.3389899730682373 -0.0586240475033501 -0.7218793823597311 0.5445389310951564 -0.018599348630605347 2.844917908192335 -0.8972389034593325
4.919455051422119 -1.469118708079197 -1.8571523427963257 2.384890242213867 -1.5963133017169397 3.338994264602661 -0.0586651622787973 -0.7218953750120314 0.5445116247814896 -0.01850522982887862 2.8449832916884863 -0.8972157044730872
4.919471740722656 -1.4690815520337601 -1.857163906097412 2.384898825282715 -1.596370045338766 3.338998556137085 -0.058644257609331896 -0.7218800320222949 0.5445288355197505 -0.018549468416917195 2.844910459458017 -0.8972270923749558
4.919427394866943 -1.4690437030843277 -1.857184886932373 2.384906454677246 -1.5963042418109339 3.339055061340332 -0.05870600243601688 -0.7218624025298129 0.5445406895888429 -0.018376307870785202 2.8449466081686676 -0.8972928762329638
4.919455051422119 -1.4691187453321 -1.8572136163711548 2.384922905559204 -1.5963085333453577 3.338982105255127 -0.05866612505306506 -0.7218850810683004 0.544472096173572 -0.018519141728927706 2.845008152910806 -0.897182295476612
4.919463634490967 -1.4691425871900101 -1.857161045074463 2.3849195676990966 -1.5963042418109339 3.338998556137085 -0.0586597710509047 -0.7219065636123425 0.5444942812237233 -0.018506604028591455 2.8449895305840225 -0.8972137276132987
4.91943883895874 -1.4691098493388672 -1.8571523427963257 2.384862108821533 -1.596365753804342 3.3390183448791504 -0.058671146466648436 -0.7218863159450722 0.5445102902427866 -0.018471926056871635 2.8449508965287484 -0.8971600611076466
4.919455051422119 -1.4690755617669602 -1.8571486473083496 2.384927197093628 -1.5963457266436976 3.338944435119629 -0.05865004504930041 -0.7218844579934177 0.5445522628539973 -0.018592396307207944 2.8449169950924897 -0.8973209065025454
4.919422626495361 -1.4690771114877244 -1.8571523427963257 2.384927197093628 -1.596325699483053 3.338977813720703 -0.05868464776927956 -0.7218831566361671 0.544547902468952 -0.01848949794599279 2.844936923675231 -0.8973243999589456
4.919517517089844 -1.469085955326893 -1.8571724891662598 2.384878321284912 -1.5963085333453577 3.3390345573425293 -0.05863288131787624 -0.7218815274808439 0.5445157341630301 -0.018534627204481655 2.8449605052335563 -0.8971987837128256
4.91943883895874 -1.4691336911967774 -1.857168197631836 2.384878321284912 -1.596386734639303 3.339006185531616 -0.05866261749801725 -0.7218924798343984 0.5444847479156749 -0.01849802513262751 2.8449515071470595 -0.8971197347874542
4.919472694396973 -1.4690606829575081 -1.8571356534957886 2.384894533748291 -1.5963581244098108 3.339022636413574 -0.058651237787231275 -0.7218794750284031 0.5445634476134208 -0.01851220192250968 2.8448860695278713 -0.8972887256890805
4.919463634490967 -1.4690846142223855 -1.8571653366088867 2.3849150377460937 -1.5963457266436976 3.3390183448791504 -0.05865894217442741 -0.7218833970460459 0.5445288076710356 -0.018498643369696123 2.8449203129131946 -0.897253602410787
4.919455051422119 -1.4690607202104111 -1.8571276664733887 2.3849193292805175 -1.5963171164142054 3.338994264602661 -0.05866659095723435 -0.7218845133472833 0.5445761440658216 -0.018509123255328597 2.8449106597287575 -0.8973638852711254
4.919491291046143 -1.4690934804132958 -1.8571529388427734 2.384882612819336 -1.5963299910174769 3.33901047706604 -0.05864053213122632 -0.7218870832360449 0.5445263169076436 -0.018541797145894146 2.8449456367223434 -0.8972191878053148
4.919488430023193 -1.469097913508751 -1.8571724891662598 2.384902163142822 -1.596325699483053 3.3390345573425293 -0.05864848667028471 -0.72188685093358 0.544511663861678 -0.01850104422046555 2.8449468687248527 -0.8972113921189576
4.919455051422119 -1.469093495314457 -1.8572006225585938 2.384902163142822 -1.596365753804342 3.3389692306518555 -0.0586523901113368 -0.7218747007571008 0.544494384019058 -0.018564427684841622 2.8449537406195002 -0.8971776388005152
4.919406414031982 -1.4691231858781357 -1.8571523427963257 2.384885712260864 -1.59633714357485 3.3390018939971924 -0.05869617186047516 -0.7218929445443367 0.5445068221779411 -0.018436036982925473 2.8449803818970993 -0.8971989416377367
4.919471740722656 -1.4690815594843407 -1.8571523427963257 2.3849193292805175 -1.5963171164142054 3.3389899730682373 -0.058653409521109666 -0.7218869290455039 0.5445431314218581 -0.018537874999227866 2.844935707900995 -0.8973002839200831
4.919459342956543 -1.469123126273491 -1.8571805953979492 2.3849193292805175 -1.5963905493365687 3.339022636413574 -0.058650555492320636 -0.7218926041232585 0.5444901343324413 -0.018505719238749094 2.844914798025256 -0.8971631318035524
4.919455051422119 -1.4690979284099122 -1.8571768999099731 2.384854479427002 -1.5963581244098108 3.3389976024627686 -0.0586594143338361 -0.7218760467180916 0.5444992972354666 -0.018520653348700806 2.8449705082221035 -0.8971377994014258
4.919463634490967 -1.4691098493388672 -1.8571399450302124 2.3848859506794433 -1.5963581244098108 3.3389692306518555 -0.05864401900189791 -0.7218936129321627 0.5445259527252937 -0.01857406849824419 2.844940085378744 -0.8972177289683466
4.919504642486572 -1.4690935176661988 -1.8571637868881226 2.3849100309559326 -1.5963457266436976 3.3390345573425293 -0.058631929550889916 -0.7218888552310692 0.5445223441630083 -0.018533612377980395 2.8449132953147265 -0.8972256396291128
4.91945219039917 -1.4690349039486428 -1.857163906097412 2.384927197093628 -1.5963667074786585 3.339038848876953 -0.058669812902413195 -0.7218667029952486 0.5445656646188302 -0.018464078063056253 2.8448618519557916 -0.8973256456106392
4.919463634490967 -1.4691098493388672 -1.857114553451538 2.3848740297504882 -1.5963299910174769 3.3390183448791504 -0.05865909178737774 -0.7218994396068128 0.5445420826935046 -0.018491761129427672 2.844942546765011 -0.8972411222522624
4.919455051422119 -1.4691067946008225 -1.857181191444397 2.3848978716083984 -1.5963299910174769 3.338994264602661 -0.058663551435682144 -0.7218847858097609 0.5444991533725019 -0.018512521129632045 2.84497555976583 -0.8971942912353215
4.91945219039917 -1.4691142824343224 -1.8571356534957886 2.384898825282715 -1.5963581244098108 3.339005470275879 -0.058658552997667715 -0.7218977287865973 0.5445275705650634 -0.018506286749088448 2.8449263787996193 -0.89722996183046
4.919455051422119 -1.4690979284099122 -1.8571724891662598 2.3849186140247802 -1.5963500181781214 3.3390140533447266 -0.05866260336986521 -0.7218862316684845 0.5445148704442357 -0.018494067862748754 2.8449306634857425 -0.8972311756446383
4.919455051422119 -1.469089077120163 -1.8572331666946411 2.3849477010914306 -1.596365753804342 3.339014768600464 -0.05866219370587422 -0.7218720300088127 0.5444803855633604 -0.018499228655154167 2.844932012446569 -0.8971921584277731
4.919471740722656 -1.469060779815056 -1.8571443557739258 2.3848816591450195 -1.596309010182516 3.33901047706604 -0.058661407721891386 -0.7218767990639949 0.54455584533567 -0.018505377033158514 2.8449426819459815 -0.8972884804022546
4.919471740722656 -1.4690979284099122 -1.857174038887024 2.384894533748291 -1.5963495413409632 3.3389856815338135 -0.058645766080360914 -0.7218832444793568 0.5445098415700589 -0.018557761675128424 2.844949453304696 -0.897199236340167
4.919463634490967 -1.4690726485899468 -1.8572137355804443 2.384898825282715 -1.5963214079486292 3.339038848876953 -0.05867228128699728 -0.7218662049892399 0.5444973319664373 -0.018457331320022113 2.8449678506267833 -0.8971917965913336
4.919467926025391 -1.469086007480957 -1.8571443557739258 2.384898825282715 -1.5963872114764612 3.3390097618103027 -0.05864400907554222 -0.7218857606511806 0.5445397817443688 -0.01853630817316633 2.8448853537133814 -0.8972367067481732
4.919431686401367 -1.4690979358604928 -1.857197880744934 2.3848694997974853 -1.596325699483053 3.3389692306518555 -0.05867869575415599 -0.7218722170144554 0.5444879805873506 -0.01851262512002168 2.8450137114452723 -0.8971574541825625
4.919471740722656 -1.4690637451461335 -1.8571276664733887 2.3848740297504882 -1.596304718648092 3.3390140533447266 -0.05866220822636123 -0.7218809873570413 0.5445649228446128 -0.0184985908316755 2.8449414628772813 -0.8972982313077273
4.919480800628662 -1.4691023466042061 -1.857184886932373 2.3849431711384277 -1.5963342825519007 3.3390183448791504 -0.0586480900861369 -0.7218901462945504 0.5445074778397359 -0.0185171114214916 2.8449309574716075 -0.8972441328679246
4.919422626495361 -1.4691470277360459 -1.857163906097412 2.3848652082630615 -1.5963414351092737 3.3389856815338135 -0.05867964888328284 -0.721896508143115 0.5444778866915485 -0.018483148651119108 2.8450113457430373 -0.8971214639853434
4.91947603225708 -1.4690771040371438 -1.8571399450302124 2.384898825282715 -1.596325699483053 3.339014768600464 -0.05865349625782853 -0.7218858513401132 0.5445506628243548 -0.018512845420026132 2.844923740022403 -0.8972849486994067
4.919485092163086 -1.4690979284099122 -1.8571724891662598 2.384862108821533 -1.5963214079486292 3.3390140533447266 -0.05864885831473266 -0.7218810937473091 0.5445045412241202 -0.01852325728385139 2.8449810211583637 -0.8971644559017323
4.91947603225708 -1.4691187229803582 -1.8571724891662598 2.3849193292805175 -1.5963171164142054 3.3390140533447266 -0.05865333546054824 -0.7218958502428836 0.5445013777687228 -0.018508331167254047 2.8449644433593115 -0.8972176703906104
4.919463634490967 -1.4690935176661988 -1.8571232557296753 2.384931727046631 -1.5963299910174769 3.3389856815338135 -0.05865280116732056 -0.7218989840856308 0.5445590632426017 -0.0185388577595535 2.8449100507197933 -0.8973355457676331
4.9194016456604 -1.469081537132599 -1.857161045074463 2.384885712260864 -1.596292797719137 3.3389899730682373 -0.05871083177622085 -0.7218768088652229 0.5445305971991196 -0.01842670670482224 2.845000074446355 -0.8972702701672276
4.919447898864746 -1.4690934878638764 -1.8571362495422363 2.3848578172871093 -1.596309010182516 3.3389899730682373 -0.05867234278630054 -0.721885509027661 0.544535213179027 -0.01849996010645363 2.844984010750359 -0.8972321067258826
4.919459342956543 -1.4690890324166794 -1.8571724891662598 2.384898825282715 -1.5963175932513636 3.338998556137085 -0.05866495534368391 -0.721881323809755 0.5445184348017685 -0.018507460267198 2.8449663864830215 -0.8972360698773193
4.919459342956543 -1.4690770965865632 -1.8571566343307495 2.384906454677246 -1.596325699483053 3.3389899730682373 -0.058661303997643105 -0.7218816013961239 0.5445402596781841 -0.01852410327128292 2.844939837517698 -0.8972810358965317
4.919459342956543 -1.4691023466042061 -1.8571696281433105 2.3848535257526855 -1.5962885061847132 3.3390183448791504 -0.0586754843103655 -0.7218816186189019 0.5445026435991571 -0.018465401070212144 2.8450197663027983 -0.897172682545387
4.919493675231934 -1.4690935251167794 -1.8572065830230713 2.3848578172871093 -1.59633714357485 3.3389933109283447 -0.05863719175460087 -0.7218705804479488 0.5444811919606546 -0.018571463267076076 2.8449921938842406 -0.8971127730292191
4.919483661651611 -1.4690771338394661 -1.857161045074463 2.3848458963581542 -1.5963299910174769 3.33901047706604 -0.05864862484316571 -0.7218738833095976 0.5445243672757298 -0.01853089266688584 2.8449652205151796 -0.897182327143616
4.919492721557617 -1.4690845918706437 -1.8571529388427734 2.3849150377460937 -1.5963133017169397 3.3389976024627686 -0.05864054987834583 -0.7218887063676643 0.5445396066609476 -0.018554958140526493 2.844936368977386 -0.8972860038905602
4.919406414031982 -1.4690934804132958 -1.8571406602859497 2.384894533748291 -1.5963829199420374 3.339006185531616 -0.05868804509883148 -0.7218851907626699 0.5445367607219715 -0.01845192132670865 2.8449108470438675 -0.8972410517356613
4.91951322555542 -1.4691441741636773 -1.8571523427963257 2.3849150377460937 -1.5963829199420374 3.339031219482422 -0.058612178311596014 -0.7219097700080492 0.5444959889543285 -0.018566704487803544 2.844902946549255 -0.897158733168631
4.919480800628662 -1.4691098642400284 -1.8571486473083496 2.3849031168171386 -1.5963743368731897 3.339026927947998 -0.05863935166718424 -0.7218951096391377 0.5445206187534548 -0.01852362741086805 2.8449031592023744 -0.897205613698908
4.919467926025391 -1.469097913508751 -1.8571443557739258 2.38491074621167 -1.596353832875387 3.339047431945801 -0.05865780327831045 -0.7218929666790654 0.5445335542552372 -0.018467183748061472 2.8449033700629225 -0.8972471806972315
4.919443607330322 -1.4691099238446732 -1.8571486473083496 2.384882612819336 -1.5963624159442347 3.339022636413574 -0.05866857895971524 -0.7218904363919991 0.544516992880733 -0.018471291073472913 2.8449363725765884 -0.8971925301102937
4.919406414031982 -1.4690890324166794 -1.8571724891662598 2.384894533748291 -1.5963414351092737 3.339022636413574 -0.05870263749261921 -0.7218772749066127 0.5445163051422075 -0.01840884945417798 2.8449576552908415 -0.8972232348553557
4.919447898864746 -1.4690979284099122 -1.8571724891662598 2.384894533748291 -1.5963299910174769 3.338986396789551 -0.05866746130215553 -0.7218827560698895 0.544511472503203 -0.01851395392669849 2.844970464282649 -0.8972163742714895
4.919447898864746 -1.4691142824343224 -1.8572304248809814 2.3848859506794433 -1.5963414351092737 3.338965892791748 -0.05866279760961911 -0.7218729307952272 0.544454934140227 -0.01854657924597004 2.845017776235427 -0.8971029484943318
4.919455051422119 -1.469100983147957 -1.8572065830230713 2.384890242213867 -1.5963743368731897 3.339047431945801 -0.05866595024265103 -0.7218750074870254 0.5444798418390937 -0.018456588223965183 2.8449434688257913 -0.8971234230078012
4.919450283050537 -1.4691441816142579 -1.857213020324707 2.38491074621167 -1.5963457266436976 3.3389530181884766 -0.05865380513445814 -0.7218909931051358 0.5444524519438594 -0.018570149931975942 2.8450092381010874 -0.8971193304937216
4.919485092163086 -1.4691142973354836 -1.857161045074463 2.384922905559204 -1.5963624159442347 3.33907151222229 -0.05864754523316233 -0.7218974975080823 0.5445110079743588 -0.018460515789460168 2.844899118961589 -0.8972063522429083
4.9194016456604 -1.4690525469234963 -1.857184886932373 2.384927197093628 -1.5963500181781214 3.33901047706604 -0.058704234161645955 -0.7218650899766172 0.5445387839916218 -0.018424113776144113 2.844919667491913 -0.8972983427672373
4.919485092163086 -1.469060779815056 -1.857181191444397 2.3848740297504882 -1.5963786284076136 3.339022636413574 -0.05864050749819644 -0.721865953450102 0.5445244243459264 -0.018537979844259214 2.8449072861939717 -0.8971863720669608
4.919501304626465 -1.4690652203610917 -1.8571566343307495 2.384927197093628 -1.5963495413409632 3.338977813720703 -0.058623562121691994 -0.7218818625681894 0.5445523280778004 -0.018612378496995496 2.844892169579784 -0.8973062446397161
4.919409275054932 -1.4690890622190018 -1.8572224378585815 2.3849238592335205 -1.5963624159442347 3.3389899730682373 -0.05869116834184754 -0.7218684762955622 0.5444846675663078 -0.018468058901594288 2.8449608176781362 -0.8971902567410895
4.9194183349609375 -1.4690696534565468 -1.8571480512619019 2.384894533748291 -1.5963500181781214 3.3389899730682373 -0.05868582972215775 -0.7218763319099922 0.5445489973834873 -0.01847726737363556 2.844928191746243 -0.897281610770067
4.91946268081665 -1.4690831315568467 -1.857184886932373 2.3849031168171386 -1.5963776747332972 3.3390345573425293 -0.058657026622026515 -0.7218758230834911 0.5445114601856257 -0.018488315661290722 2.844909270812214 -0.8971931393812694
4.91943883895874 -1.4691098493388672 -1.857163906097412 2.3848370748707275 -1.596325699483053 3.338965654373169 -0.05867104434099263 -0.7218805963867717 0.5444991847458354 -0.018528178683745726 2.8450190096518293 -0.8971427117763732
4.919463634490967 -1.4690904405764122 -1.8571319580078125 2.3848532873341064 -1.596309010182516 3.3390345573425293 -0.05866991257177116 -0.7218862916579225 0.5445383827534138 -0.01845896555462086 2.8449672516948525 -0.8972239126179877
4.919471740722656 -1.4690935027650376 -1.8571275472640991 2.384922905559204 -1.5963829199420374 3.3390140533447266 -0.05864102967310572 -0.721896128650652 0.5445519734891048 -0.018534042808075014 2.8448660897079057 -0.8972823351782023
4.919463634490967 -1.4691231560758133 -1.857197880744934 2.384882612819336 -1.5963581244098108 3.3390302658081055 -0.05865813628889074 -0.7218846923632671 0.5444704409898488 -0.018485439330397525 2.8449717010694853 -0.8971054355364879
4.919467926025391 -1.4691023615053673 -1.8571653366088867 2.384894533748291 -1.5962885061847132 3.3389809131622314 -0.058660609201467664 -0.7218882853778867 0.5445149839085192 -0.018531291046052757 2.844998596213684 -0.8972393686861737
4.919450283050537 -1.4691142824343224 -1.8572136163711548 2.3848587709614257 -1.5963786284076136 3.3390183448791504 -0.058662867568397045 -0.7218730341894207 0.5444598916293427 -0.018492500587030673 2.844980457084829 -0.8970581355370569
4.91943883895874 -1.4691514757326622 -1.857161045074463 2.3848869043537597 -1.5963457266436976 3.3389928340911865 -0.058667345728811784 -0.7219026454375684 0.5444808825509784 -0.018498077756791298 2.844989429079232 -0.8971416213031201
4.91946268081665 -1.4690518540195008 -1.857107400894165 2.3848587709614257 -1.5963171164142054 3.3390228748321533 -0.058667929545326014 -0.7218787896733886 0.5445849689062626 -0.018479483997656573 2.844920996987064 -0.8973142858313715
4.91948938369751 -1.4690934729627152 -1.8571653366088867 2.3848413664051513 -1.5963495413409632 3.3390228748321533 -0.05864164300900657 -0.7218780047267852 0.5445080473087998 -0.01852980008854391 2.8449604612525223 -0.8971344459811565
4.919484615325928 -1.4690845993212243 -1.8571356534957886 2.384927197093628 -1.5963414351092737 3.3390302658081055 -0.05864528650752737 -0.7218936644236121 0.5445534028920513 -0.018510299526015035 2.8448893561784785 -0.8973056472036219
4.91947603225708 -1.4690481436303635 -1.8572094440460205 2.3848694997974853 -1.596304718648092 3.339010715484619 -0.05866391565345848 -0.7218553787248532 0.5445131041191476 -0.018507843278780797 2.8449852246341227 -0.8972030509194424
4.91951322555542 -1.469090425675251 -1.8571486473083496 2.384882612819336 -1.5963709990130823 3.339006185531616 -0.058614581788344125 -0.7218871523575647 0.5445308046826952 -0.018598020964781168 2.844902997559992 -0.8972035898397648
4.919447898864746 -1.4691143196872254 -1.8571523427963257 2.38491074621167 -1.5963876883136194 3.338965892791748 -0.05864768970789844 -0.7218938290259604 0.5445176834044161 -0.018569774644560257 2.8449161520010713 -0.8972164034574369
4.919467926025391 -1.4691187453321 -1.8571443557739258 2.384902163142822 -1.596370045338766 3.3390016555786133 -0.058643770621247884 -0.7218982339819642 0.5445183594512489 -0.01853924697600168 2.844919629981716 -0.8972080223907928
4.919427394866943 -1.4691023838571091 -1.857184886932373 2.3849150377460937 -1.5963500181781214 3.3390016555786133 -0.05868051642384771 -0.7218825822456391 0.544502063483903 -0.018472005199017864 2.8449536530186252 -0.8972116575484935
4.919463634490967 -1.4690979284099122 -1.857181191444397 2.384882612819336 -1.596353832875387 3.3389973640441895 -0.05865363031089109 -0.7218794530846562 0.5445016551930766 -0.018531318792551148 2.8449570772708275 -0.8971705668328224
4.919447898864746 -1.4691381615451355 -1.8571566343307495 2.3849360185810546 -1.5963743368731897 3.3390510082244873 -0.058665308694486995 -0.7219060843499161 0.5445006430428947 -0.01844196423037409 2.844908176436628 -0.8972029240097931
4.91946268081665 -1.4690890622190018 -1.8571891784667969 2.384882612819336 -1.5963786284076136 3.33903169631958 -0.05865655789143669 -0.7218740576861807 0.5445001532724931 -0.01849244141030678 2.8449282504159896 -0.8971518511748356
4.919398307800293 -1.469105416243412 -1.8572006225585938 2.384878321284912 -1.5963543097125452 3.3390390872955322 -0.05870946959150336 -0.7218735116075095 0.544479681852454 -0.018378632506180364 2.844983082647874 -0.8971330470896977
4.91947603225708 -1.4691350770047684 -1.8571399450302124 2.3848869043537597 -1.596332852040426 3.339010715484619 -0.05864707777461792 -0.7219046233611455 0.5445080229387342 -0.018520448379168178 2.844962419763452 -0.8971879809213263
4.919450283050537 -1.4690771412900467 -1.8571724891662598 2.3848652082630615 -1.5963218847857874 3.3390138149261475 -0.05867529598985164 -0.7218720592078618 0.5445195756573077 -0.018474866257472404 2.8449749415639913 -0.8972032467229512
4.919459342956543 -1.4691425871900101 -1.857161045074463 2.3848749834248046 -1.5963624159442347 3.3389854431152344 -0.05864827980525923 -0.7218985267199558 0.544484535195725 -0.01854550196077209 2.844974115785686 -0.8971259706099888
4.919434547424316 -1.4690682676485558 -1.857209324836731 2.3848575788685302 -1.5963133017169397 3.339006185531616 -0.058689833618888604 -0.7218582299108083 0.5444968162101165 -0.01845872759951851 2.845010063932087 -0.8971646395538585
4.919447898864746 -1.4691023615053673 -1.8571566343307495 2.3849150377460937 -1.5963414351092737 3.3389809131622314 -0.05866211545610664 -0.7218905544493233 0.5445242716675578 -0.018527417126245144 2.844942682315377 -0.8972542847888515
4.919422626495361 -1.4691098493388672 -1.857161045074463 2.3848413664051513 -1.596325699483053 3.3390183448791504 -0.05869289510164262 -0.7218815392996469 0.5445006403872409 -0.01843020155815569 2.8450059838890462 -0.8971451071505288
4.919389724731445 -1.4691395101002236 -1.857181191444397 2.3848869043537597 -1.5963905493365687 3.3389928340911865 -0.05869458278196468 -0.721889449512029 0.5444728516211744 -0.018448617618713505 2.8449709459696373 -0.8971163560228573
4.91945219039917 -1.4690771412900467 -1.8571653366088867 2.384861870402954 -1.5963214079486292 3.3390095233917236 -0.05867290009861428 -0.7218733989317861 0.5445244726319473 -0.01848361557569278 2.8449734802354656 -0.897209087677551
4.9194793701171875 -1.4691098493388672 -1.8571276664733887 2.384894533748291 -1.5963133017169397 3.339036226272583 -0.058655176823799324 -0.7219006591909911 0.5445360501293447 -0.018480845368391532 2.844943130129462 -0.8972533988747416
4.919492721557617 -1.469097876255848 -1.8572180271148682 2.384882612819336 -1.5963624159442347 3.3390228748321533 -0.05863761960537112 -0.721872355894545 0.5444728659531687 -0.018539374515739664 2.8449591936414125 -0.8971057377180088
4.919472694396973 -1.4690904554775734 -1.857209324836731 2.3848816591450195 -1.596304718648092 3.33903169631958 -0.058667000671301775 -0.7218721689794063 0.5444855725593288 -0.01847231610608679 2.844999762383363 -0.8971592439153698
4.919431686401367 -1.4690846067718049 -1.8571768999099731 2.384894533748291 -1.5963581244098108 3.339010715484619 -0.0586788193866989 -0.7218755304128164 0.5445159820288903 -0.01846937486907622 2.844940353766072 -0.8972116692873365
4.919422626495361 -1.469081574385502 -1.8571768999099731 2.38491074621167 -1.5963624159442347 3.339015007019043 -0.058685040197649696 -0.7218760561055321 0.5445210215017171 -0.01845254070046617 2.8449262713249044 -0.8972362221840048
4.919493675231934 -1.4691142973354836 -1.8571529388427734 2.384906454677246 -1.5963581244098108 3.338994264602661 -0.058627077884144146 -0.7218969158524601 0.5445163021963758 -0.018580831036699403 2.8449243009854195 -0.897210995893707
4.919504642486572 -1.4690979284099122 -1.8571319580078125 2.3849031168171386 -1.5963299910174769 3.338982105255127 -0.05862335278244693 -0.7218969396843787 0.5445439362724875 -0.018601706573842632 2.8449260498291027 -0.8972719838463363
4.919410705566406 -1.469072700744011 -1.8571356534957886 2.384850187892578 -1.596365753804342 3.339010715484619 -0.0586921655605991 -0.7218737454026023 0.544546607899524 -0.01844400352174104 2.8449339451588793 -0.8972234227569837
4.9195475578308105 -1.4690904405764122 -1.8571189641952515 2.3849031168171386 -1.59633714357485 3.3389973640441895 -0.05859365912319828 -0.7218998996786581 0.5445583424453876 -0.01864470782185618 2.844892493566964 -0.8972841356190874
4.91947603225708 -1.4691217702678223 -1.8571768999099731 2.3848740297504882 -1.5963500181781214 3.338961362838745 -0.05863666504503834 -0.7218882071042053 0.5444878210251995 -0.01859794002014742 2.8449831924241424 -0.8971394619475728
4.919409275054932 -1.4690696534565468 -1.8571854829788208 2.384898825282715 -1.596365753804342 3.339006185531616 -0.058693816350452996 -0.7218671532844918 0.5445206557775549 -0.018447654777181913 2.84493450269771 -0.8972272607972797
4.919406414031982 -1.469111406510212 -1.8571275472640991 2.38491074621167 -1.5963829199420374 3.3390347957611084 -0.05869127012298553 -0.7218972627950297 0.5445365580821254 -0.018411181140945455 2.8448968413127154 -0.8972507451222868
4.919431686401367 -1.469081574385502 -1.8572173118591309 2.384906454677246 -1.5963385740863245 3.339027166366577 -0.05868847478135229 -0.7218670805410992 0.5444898399038839 -0.01843619377836651 2.8449681802424487 -0.8971847245854284
4.919455051422119 -1.469081574385502 -1.8571399450302124 2.384894533748291 -1.5963581244098108 3.3390016555786133 -0.0586584971352083 -0.7218845961301031 0.544546310371013 -0.018516421010518154 2.844911503321012 -0.8972625494484929
4.919497013092041 -1.469105416243412 -1.8571724891662598 2.3849031168171386 -1.5963581244098108 3.3389928340911865 -0.05862613406797183 -0.7218887817129065 0.5445070696299855 -0.0185873333101254 2.844932494972362 -0.8971917927867807
4.9194416999816895 -1.4690979358604928 -1.8571935892105103 2.384882612819336 -1.59633714357485 3.3390228748321533 -0.058678911555296615 -0.72187594263515 0.5444919316825302 -0.018455888543101 2.844977921464846 -0.897162134735061
4.919435977935791 -1.469081537132599 -1.8571486473083496 2.384817524547241 -1.596353832875387 3.339027166366577 -0.058680724765899736 -0.721871331684118 0.5445240750126111 -0.01845028062357829 2.844966827989022 -0.8971482268376639
4.91947603225708 -1.4691558566740532 -1.857181191444397 2.3849431711384277 -1.596309010182516 3.3389809131622314 -0.058645689810429294 -0.7219100377161884 0.5444748348972442 -0.018550905610719065 2.844992928895181 -0.8971991083040194
4.919501304626465 -1.4690563690713425 -1.8571276664733887 2.3848771291920166 -1.596353832875387 3.33903169631958 -0.058633708941719286 -0.7218793965279611 0.5445689267089836 -0.01853815266851426 2.8448829528889847 -0.8972766448669466
4.919427394866943 -1.469151498084404 -1.857168197631836 2.384927197093628 -1.59633714357485 3.3390016555786133 -0.05867860787910123 -0.7219060718621944 0.5444832737515537 -0.01846543729000423 2.84497680593226 -0.8971913629251145
4.919471740722656 -1.4690979284099122 -1.857163906097412 2.384906454677246 -1.5963667074786585 3.3389973640441895 -0.058643361362808455 -0.7218869726682999 0.5445190703561442 -0.01854930664382528 2.8449189511660835 -0.897217389727445
4.91947603225708 -1.469081589286663 -1.857168197631836 2.384890242213867 -1.5963743368731897 3.3389854431152344 -0.05863803948758308 -0.7218778282594488 0.5445241671584636 -0.018576042330799312 2.8449170476319066 -0.8972091683767422
4.919480800628662 -1.4691187676838418 -1.857197880744934 2.3848575788685302 -1.5963342825519007 3.3390257358551025 -0.05865122002328234 -0.7218813289747803 0.5444693192089968 -0.018505294600902403 2.8450004513619094 -0.8970878871388708
4.919447898864746 -1.4690979284099122 -1.8571724891662598 2.384890242213867 -1.5963299910174769 3.338989734649658 -0.05866823203285461 -0.721882212747265 0.5445105367156732 -0.018509170396467208 2.8449723063714107 -0.8972099334790615
4.919435977935791 -1.4690696385553856 -1.8571566343307495 2.384862108821533 -1.5963743368731897 3.338961362838745 -0.05866322619371854 -0.7218698985214043 0.5445364277270395 -0.018553783062299257 2.8449361607980097 -0.8972155811390734
4.919463634490967 -1.4690607276609917 -1.8572261333465576 2.384902163142822 -1.5963128248797815 3.3390183448791504 -0.05867160784452284 -0.7218594255734312 0.5444976946512735 -0.0184826118800466 2.84497806254631 -0.8972043146204421
4.919467926025391 -1.4691143420389672 -1.8572050333023071 2.384931727046631 -1.5962970892535608 3.3390138149261475 -0.058665340162014495 -0.7218882159393599 0.5444827191181046 -0.01848740380307822 2.844992807452846 -0.8972089180438502
4.919487953186035 -1.4691231337240716 -1.857168197631836 2.384878321284912 -1.5963004271136683 3.338982105255127 -0.058642714485574836 -0.7218936542638329 0.5444949030195795 -0.01856283941318249 2.8450081213235427 -0.8971751937701182
4.91943883895874 -1.4690979284099122 -1.8571356534957886 2.384906454677246 -1.5963743368731897 3.33903169631958 -0.05867072048549521 -0.7218920330420686 0.5445392484976673 -0.018457829354259853 2.844895388881077 -0.8972509700973827
4.919480800628662 -1.4691142824343224 -1.857161045074463 2.384902163142822 -1.5963457266436976 3.3389270305633545 -0.05862642686243616 -0.7218931629939408 0.5445116198581389 -0.018652391317564687 2.844961836183893 -0.8972168646321597
4.919410705566406 -1.4691023764065285 -1.8571443557739258 2.3849150377460937 -1.596325699483053 3.3389854431152344 -0.05869278932381898 -0.7218918077171564 0.544533803183624 -0.018461206024413968 2.8449564797803344 -0.8972856611702744
4.919459342956543 -1.4691350770047684 -1.8571697473526 2.3848578172871093 -1.5963385740863245 3.3389854431152344 -0.058655123043223775 -0.7218920760303357 0.5444804007448444 -0.018534438082646768 2.845004874453355 -0.897114024867335
4.919458389282227 -1.4691559237292786 -1.857197880744934 2.384922905559204 -1.5963414351092737 3.339010715484619 -0.05865835386142271 -0.7219017376239496 0.5444565365567128 -0.018497701296837636 2.8449869062227204 -0.8971295278089809
4.919434547424316 -1.4691098493388672 -1.8571312427520752 2.384870691890381 -1.5963829199420374 3.3389854431152344 -0.058662560778999076 -0.7218914469926442 0.5445284731219714 -0.018521103610209012 2.844927607097207 -0.8971981386557389
4.91947603225708 -1.4690815818360825 -1.8571523427963257 2.3848697382160644 -1.5963133017169397 3.339027166366577 -0.058659807034950315 -0.7218809976859819 0.5445324361276422 -0.018488911918968558 2.8449593232712953 -0.8972272939964072
4.919487953186035 -1.469123163526394 -1.8571935892105103 2.384854479427002 -1.596309010182516 3.339048147201538 -0.05865573315986672 -0.7218848726739171 0.5444688706406882 -0.018471947993529497 2.845015655199007 -0.8970912537421372
4.919427394866943 -1.4691187155297776 -1.8571935892105103 2.3848697382160644 -1.5963004271136683 3.3390228748321533 -0.058696333751704285 -0.7218817423299341 0.5444758904084914 -0.018418175610734035 2.8450324509207996 -0.8971393821190815
4.919471740722656 -1.4691350993565102 -1.857181191444397 2.384902163142822 -1.5963299910174769 3.3389525413513184 -0.05864104849076633 -0.7218959258265462 0.544481561162502 -0.018595019689899385 2.844996333496738 -0.8971670031067335
4.919455051422119 -1.469074086552002 -1.8571443557739258 2.384894533748291 -1.596370045338766 3.339010715484619 -0.058658372199478344 -0.7218806558073697 0.5445476146153378 -0.018509048396794184 2.844897683590711 -0.8972585022198161
4.919455051422119 -1.469065212910511 -1.857181191444397 2.3849193292805175 -1.5963171164142054 3.3389809131622314 -0.05866636023280239 -0.7218730917945898 0.5445329236997261 -0.0185267662659113 2.8449500909338163 -0.897288595875262
4.919472694396973 -1.4690846514752884 -1.8571768999099731 2.3849150377460937 -1.5963214079486292 3.339027166366577 -0.058660234223370133 -0.7218819252044251 0.5445203717767073 -0.018487544202315836 2.844942802459694 -0.8972475044410186
4.9194793701171875 -1.4690771412900467 -1.857161045074463 2.384894533748291 -1.5963342825519007 3.33901047706604 -0.058649486815496296 -0.7218801236774712 0.5445337520755283 -0.01852709939613486 2.8449327658498293 -0.8972463668029533
4.919439315795898 -1.469139577155449 -1.8571723699569702 2.384890242213867 -1.5963457266436976 3.3389523029327393 -0.05866037484814059 -0.7218956901945507 0.5444824190416689 -0.018556512184879026 2.844996757523344 -0.8971548259231772
4.91946268081665 -1.4691441518119355 -1.8571653366088867 2.384922905559204 -1.5963414351092737 3.338977575302124 -0.058647919755423744 -0.7219052311574823 0.5444903031717733 -0.018552041385464513 2.8449662251104466 -0.8971947771545321
4.919430255889893 -1.4690846142223855 -1.857168197631836 2.384894533748291 -1.5963175932513636 3.339040517807007 -0.058694459584645045 -0.7218789898552682 0.5445226796960418 -0.018406548859624648 2.8449610120366473 -0.897239439979472
4.919485092163086 -1.4691098493388672 -1.857153058052063 2.3849031168171386 -1.596309010182516 3.3389687538146973 -0.05863976933653436 -0.7218953748008838 0.5445206026025988 -0.018582559515849223 2.8449720804531817 -0.8972453849415952
4.919480800628662 -1.4691306364587327 -1.8571935892105103 2.3848740297504882 -1.5963624159442347 3.339035987854004 -0.05864535089644499 -0.7218881784526695 0.5444665443697493 -0.01850351099547839 2.844969614104247 -0.8970827572028461
4.919455051422119 -1.4691023615053673 -1.8571399450302124 2.384898825282715 -1.5963624159442347 3.3390228748321533 -0.05866005980528352 -0.7218927125270199 0.544531985554662 -0.018487709196440306 2.844913144311155 -0.8972338970487843
4.919450283050537 -1.4690652352622529 -1.8571480512619019 2.384902163142822 -1.596325699483053 3.3390510082244873 -0.05868045132523628 -0.7218790507006722 0.5445523595041989 -0.0184247617349461 2.844917251299266 -0.8972924209496425
4.91943883895874 -1.4691187155297776 -1.8571847677230835 2.384927197093628 -1.5963581244098108 3.3390138149261475 -0.058671286604513095 -0.7218906704273658 0.5444926311136368 -0.018474364664771665 2.844943679235393 -0.8971972307524807
4.91947603225708 -1.4691023615053673 -1.8571399450302124 2.384902163142822 -1.59633714357485 3.339006185531616 -0.05864724795177781 -0.7218948826977383 0.5445337471613355 -0.018529738894192266 2.84493020065553 -0.8972510808200598
4.919467926025391 -1.4690638345531006 -1.857161045074463 2.3848373132893066 -1.5963214079486292 3.3390183448791504 -0.05866469109430887 -0.7218673868558485 0.5445319059259618 -0.018493652809632152 2.8449714311516257 -0.8971947933692436
4.919492721557617 -1.4691142824343224 -1.8571805953979492 2.384906454677246 -1.596353832875387 3.3390347957611084 -0.05863815848290037 -0.7218908036767817 0.5444943056372779 -0.018519136156160167 2.844935405199015 -0.8971683208402506
4.919485092163086 -1.469060779815056 -1.8571486473083496 2.3848587709614257 -1.596353832875387 3.338994264602661 -0.05863924394585382 -0.7218720372646393 0.544547506557644 -0.018567695999779473 2.844923512764976 -0.8972284466844556
4.919467926025391 -1.4691231560758133 -1.8571356534957886 2.384866400355957 -1.5963500181781214 3.339010715484619 -0.05865024631216649 -0.7218976875700446 0.544515123399801 -0.018517027712534224 2.8449531623565973 -0.8971745592189326
4.91947603225708 -1.4691142824343224 -1.8571935892105103 2.3848869043537597 -1.59633714357485 3.3390257358551025 -0.0586533660970745 -0.7218843906195735 0.5444813347545988 -0.01850024109437496 2.8449757592478018 -0.8971385823586077
4.919463634490967 -1.4690979656628151 -1.8571566343307495 2.3849150377460937 -1.5963500181781214 3.3389687538146973 -0.058646740140790535 -0.7218895365599969 0.544527470526193 -0.018571123814359165 2.844931798200322 -0.8972548838039728
4.919525146484375 -1.4691306066564103 -1.8572049140930176 2.3848859506794433 -1.5963457266436976 3.339006185531616 -0.058611500147002914 -0.7218897632131753 0.5444616094780685 -0.018601138253441292 2.844978491561464 -0.8970896972297481
4.919445991516113 -1.469093495314457 -1.8571805953979492 2.384844942683838 -1.5963342825519007 3.3390347957611084 -0.05867945909601219 -0.7218728395150316 0.544497211176629 -0.018443847476734623 2.844988656521745 -0.897133145592283
4.91945219039917 -1.469060779815056 -1.857118844985962 2.384898825282715 -1.596325699483053 3.339015007019043 -0.05867088801460064 -0.721883715486245 0.544577953698903 -0.018479513335543 2.844906598451922 -0.8973399008736852
4.919467926025391 -1.4691605505398293 -1.8572022914886475 2.384906454677246 -1.5963495413409632 3.3389732837677 -0.0586425534231141 -0.7218999856176431 0.544447675446607 -0.01856794250871093 2.8450027416156587 -0.8970964167547044
4.919497013092041 -1.4691009905985375 -1.8571356534957886 2.384890242213867 -1.5963905493365687 3.33901047706604 -0.058621061248496614 -0.7218936425360948 0.5445341824402767 -0.018577938138611753 2.8448840626988 -0.8972090132455955
4.9194793701171875 -1.4690681931427498 -1.857168197631836 2.3848296838947753 -1.5963133017169397 3.3390228748321533 -0.058659398737163373 -0.7218671271944302 0.5445220450844916 -0.01849942599299831 2.8449858184587598 -0.8971702326728079
4.919492721557617 -1.4691053938916703 -1.857163906097412 2.3848740297504882 -1.5963743368731897 3.3389766216278076 -0.0586226817538726 -0.7218860034682614 0.5445079780908895 -0.01861174641807498 2.844937012145083 -0.8971595598695413
4.919463634490967 -1.4691350993565102 -1.8571891784667969 2.384882612819336 -1.5963414351092737 3.3390183448791504 -0.058658223901190645 -0.72189134479945 0.5444694903244762 -0.018494701664297945 2.844990197169442 -0.8971123824560473
4.919434547424316 -1.4690771114877244 -1.8571443557739258 2.3848647314259033 -1.596304718648092 3.338994264602661 -0.05868525176675156 -0.7218780548394007 0.5445417813787241 -0.018473153895400166 2.8449805252324576 -0.897256624771779
4.919447898864746 -1.4691009384444733 -1.8571854829788208 2.384882612819336 -1.5963500181781214 3.339015007019043 -0.058669332520657015 -0.721878881855848 0.5444958941820406 -0.018481916543776282 2.8449645585404024 -0.8971624235899611
4.91947603225708 -1.4691143047860642 -1.857181191444397 2.384898825282715 -1.5963214079486292 3.339052438735962 -0.05866125225075542 -0.721889739786349 0.5444926274921958 -0.018455385005648743 2.8449669606124792 -0.8971743986774519
4.919434547424316 -1.469089077120163 -1.8571486473083496 2.3848811823078613 -1.5963829199420374 3.3390018939971924 -0.0586679717495608 -0.7218814907738165 0.5445312954690192 -0.018497825532337576 2.8449150152772784 -0.8972135332219894
4.91949987411499 -1.4691054087928315 -1.857197880744934 2.384923143977783 -1.5963624159442347 3.338989734649658 -0.05862326601517938 -0.7218854106427443 0.5444917616108429 -0.018597316332498653 2.8449324462559114 -0.8971824125496808
4.919445991516113 -1.4690727156451722 -1.857161045074463 2.384878082866333 -1.5963013807879847 3.3389732837677 -0.0586744362714819 -0.7218748061412046 0.5445355123529501 -0.018517567144273547 2.844984757949095 -0.8972617696705609
4.919463634490967 -1.4690770593336602 -1.857181191444397 2.3849186140247802 -1.596358601246969 3.338977575302124 -0.05864925921559885 -0.72187655198008 0.5445236386267897 -0.01856242542055307 2.84492273779865 -0.8972484534627141
4.919427394866943 -1.4691187602332612 -1.8571653366088867 2.384899063701294 -1.5963175932513636 3.3390467166900635 -0.058694946886529153 -0.7218923502604615 0.5445018359521099 -0.01839295328285575 2.844976946915683 -0.8972028471038784
4.919411659240723 -1.4690815669349213 -1.8571724891662598 2.3849515157886962 -1.5963500181781214 3.3390016555786133 -0.058691840112383334 -0.7218821839927703 0.5445330190853489 -0.018450686175086946 2.844914502328444 -0.8973085215887282
4.91945219039917 -1.4691009905985375 -1.857184886932373 2.384854241008423 -1.5963414351092737 3.3390347957611084 -0.05867278720301376 -0.7218759084348143 0.5444903998048574 -0.01845571711703221 2.8449828086764906 -0.8971247726261474
4.919485092163086 -1.469130666261055 -1.857181191444397 2.384910984630249 -1.5963133017169397 3.3390302658081055 -0.058650634402479224 -0.7218977019217336 0.5444844898411582 -0.01849582454216516 2.844979255406311 -0.8971757332026761
4.919504642486572 -1.4691142973354836 -1.8571653366088867 2.384882612819336 -1.5963342825519007 3.3389973640441895 -0.0586264206736408 -0.7218920231466948 0.5445027625993153 -0.018580624965001617 2.844962545668763 -0.8971722203304485
4.9194183349609375 -1.4690979433110734 -1.8571891784667969 2.384885712260864 -1.5963500181781214 3.3389687538146973 -0.058681871205721735 -0.7218750662985183 0.5444971411608748 -0.01850578605325696 2.844982094765676 -0.8971806810411667
4.919463634490967 -1.4691722628525277 -1.857197880744934 2.384882612819336 -1.5963624159442347 3.3390510082244873 -0.058657611763508435 -0.7219022952561782 0.5444356272655453 -0.018456709699620915 2.8449937619066175 -0.8970330509726425
4.919480800628662 -1.4690934729627152 -1.8571566343307495 2.384882612819336 -1.596332852040426 3.338977575302124 -0.058641150223718574 -0.7218851099230089 0.5445244220159985 -0.018574970936412805 2.8449563737658368 -0.8972212999480338
4.919467926025391 -1.4690563467196007 -1.8571550846099854 2.384878082866333 -1.5963500181781214 3.3390421867370605 -0.05866211920130852 -0.7218711993854096 0.544548171699101 -0.0184734004410195 2.844908742953522 -0.8972477098302579
4.919488430023193 -1.4691142600825806 -1.8571566343307495 2.384923143977783 -1.5963500181781214 3.3390390872955322 -0.05864130754742607 -0.7218987240165042 0.5445156734897771 -0.018505865188141953 2.8449133057367106 -0.8972250555296132
4.919472694396973 -1.469060779815056 -1.8571724891662598 2.3848647314259033 -1.596325699483053 3.338989734649658 -0.05865472840079513 -0.7218670977929096 0.5445314566967442 -0.018543129716839458 2.844961927984424 -0.8972228733245071
4.919471740722656 -1.469086007480957 -1.8572137355804443 2.384882612819336 -1.5963414351092737 3.3389732837677 -0.058648380259091804 -0.7218679139625107 0.5444863242115753 -0.018570964210812266 2.8449837644362312 -0.8971526725642294
4.91943883895874 -1.469060779815056 -1.8571436405181885 2.384828968639038 -1.596309010182516 3.338994264602661 -0.058683290185711126 -0.7218676927240376 0.5445465756327738 -0.018481367024542967 2.844987412063796 -0.8972282164829479
4.919427394866943 -1.4691604760340233 -1.8571935892105103 2.384899063701294 -1.596332852040426 3.3390183448791504 -0.058684238703689745 -0.7218996548815 0.5444519542448109 -0.018438695732569704 2.845015063595811 -0.8971062961600785
4.919459342956543 -1.4691395101002236 -1.857197880744934 2.384894533748291 -1.5962885061847132 3.338994264602661 -0.05866834691737188 -0.7218933369415139 0.5444641770989922 -0.018498441652460024 2.845041039408263 -0.8971447962214687
4.919450283050537 -1.4691067946008225 -1.857161045074463 2.384899063701294 -1.5963624159442347 3.339015007019043 -0.05866269282360907 -0.7218888785041149 0.5445132224868072 -0.018491536523488873 2.8449320833570613 -0.8972024232589976
4.919522285461426 -1.4690979284099122 -1.8571319580078125 2.384901924724243 -1.5963495413409632 3.338935613632202 -0.05859704403410533 -0.7218967309152244 0.5445445886945044 -0.01870192556243134 2.8449175827033044 -0.8972656220880262
4.919492721557617 -1.4691023764065285 -1.8571486473083496 2.384948177928589 -1.5962794462787073 3.338998794555664 -0.058646039595811564 -0.721901498183504 0.544537769641719 -0.01853767420048512 2.8449515175284614 -0.8973304060437826
4.919440269470215 -1.4691023391536255 -1.8571529388427734 2.3848914343067626 -1.5963581244098108 3.339006185531616 -0.05866926474016712 -0.7218876291946854 0.5445213235142378 -0.018488150119005814 2.8449372365272723 -0.897215055701806
4.919488430023193 -1.4691068244031449 -1.8571805953979492 2.384894533748291 -1.5963171164142054 3.339048147201538 -0.058653062888780944 -0.7218874307169663 0.5444976661854409 -0.018477306879844075 2.844965868624543 -0.8971801627243967
4.919487953186035 -1.4691023615053673 -1.8570986986160278 2.384894533748291 -1.5963457266436976 3.3390257358551025 -0.05863864814794022 -0.7219044571364482 0.5445626766146723 -0.018523686977079803 2.8448943319902713 -0.8972853760456132
4.919483661651611 -1.4691023615053673 -1.857161045074463 2.3849186140247802 -1.5963991324054163 3.339010715484619 -0.058629265614226246 -0.7218908688086925 0.5445193430732425 -0.018562123970867733 2.844879656511645 -0.8972092713727181
4.91945219039917 -1.4691142824343224 -1.857197880744934 2.384878082866333 -1.5963414351092737 3.338998794555664 -0.05866473515870873 -0.7218803271058082 0.5444770517111152 -0.018506534903996466 2.844993213722842 -0.897128701297968
4.919463634490967 -1.4691023615053673 -1.8571573495864868 2.3849186140247802 -1.596292797719137 3.3390228748321533 -0.05866998807130194 -0.7218936043057689 0.5445243904211784 -0.01846775544558849 2.844966127320617 -0.897272762834742
4.919483661651611 -1.4690860149315377 -1.8571443557739258 2.3849033552357177 -1.596332852040426 3.3390016555786133 -0.05864322673548186 -0.7218886766067268 0.5445422322924052 -0.018545352798887374 2.8449246187908575 -0.8972704073926707
4.919471740722656 -1.469060779815056 -1.8571653366088867 2.384882612819336 -1.5963414351092737 3.3390510082244873 -0.05866312652583004 -0.7218714891431972 0.5445381736999488 -0.018462012759004637 2.844918928054715 -0.8972361772138119
4.919434547424316 -1.4690979284099122 -1.8571529388427734 2.384885712260864 -1.5963457266436976 3.3389854431152344 -0.058672580217740966 -0.7218850364176577 0.5445241822230581 -0.01850394706065945 2.8449546648156723 -0.8972251618563827
4.91945219039917 -1.4691231858781357 -1.8571696281433105 2.384923143977783 -1.5963342825519007 3.3390183448791504 -0.05866693386686535 -0.7218968319758279 0.5445006406591654 -0.018476192972032523 2.844954322112243 -0.8972153326094194
4.919497013092041 -1.4690979284099122 -1.8571486473083496 2.384885712260864 -1.5963414351092737 3.3390347957611084 -0.05863798414411497 -0.721890432500593 0.5445260852163777 -0.018520552715400727 2.8449270833013185 -0.8972110659692317
4.919459342956543 -1.4691425573876877 -1.8571443557739258 2.384915276164673 -1.59633714357485 3.3390228748321533 -0.05865948842645409 -0.72190912760956 0.544504568392717 -0.018481302417877776 2.8449501997831965 -0.8972088122811608
4.919434547424316 -1.4691023615053673 -1.8571935892105103 2.3848976331898193 -1.596325699483053 3.3390183448791504 -0.05868504948777016 -0.7218793939335184 0.5444922046775704 -0.018446938881448032 2.844983673087972 -0.8971848622934847
4.919422626495361 -1.4691277679852028 -1.857168197631836 2.384939118022583 -1.5963171164142054 3.3390228748321533 -0.058692224506795176 -0.7218997591760966 0.544501947810126 -0.018419914598731133 2.844967009418211 -0.8972467671804971
4.91946268081665 -1.469060779815056 -1.8571637868881226 2.3848811823078613 -1.5963385740863245 3.3389973640441895 -0.058659678052943906 -0.7218705779429015 0.5445407119319654 -0.018524252090572686 2.8449366174682518 -0.8972502922862537
4.91943883895874 -1.4690696534565468 -1.857163906097412 2.3849257665821533 -1.596304718648092 3.3389854431152344 -0.05868038028407908 -0.7218791383706746 0.5445443448590416 -0.018491952678543012 2.844951326933917 -0.897323475264897
4.919497013092041 -1.4691067946008225 -1.8571979999542236 2.384906454677246 -1.5963214079486292 3.3389732837677 -0.058631695697291694 -0.7218843559772422 0.544488939755721 -0.018597754676072466 2.844981822320672 -0.8971837115122532
4.919485092163086 -1.4691381242922326 -1.8572137355804443 2.384869261378906 -1.5963428656207483 3.3390302658081055 -0.05864614445549696 -0.7218860649187205 0.5444458214117402 -0.01850812196941827 2.8450059631915647 -0.8970499698880462
4.91948127746582 -1.4691381242922326 -1.8571724891662598 2.384901924724243 -1.5963299910174769 3.339015007019043 -0.05864583530824653 -0.7219003611334331 0.5444841639072401 -0.018519743050609987 2.844975225288938 -0.8971600407838873
4.919422626495361 -1.469081574385502 -1.857161045074463 2.384948177928589 -1.5962842146502894 3.3390183448791504 -0.05870160417955161 -0.7218871047290241 0.5445421445060199 -0.018412616878994332 2.8449560149875732 -0.8973491609082652
4.91945219039917 -1.4690696534565468 -1.8571805953979492 2.384885712260864 -1.596309010182516 3.3390228748321533 -0.05867905908139244 -0.7218707982994145 0.5445226954623832 -0.018458906501693392 2.84497040735015 -0.8972347538697241
4.919459342956543 -1.4690979284099122 -1.857168197631836 2.384857340449951 -1.596309010182516 3.3389599323272705 -0.058659466962865614 -0.7218796617553445 0.5445087494429927 -0.018558140286076878 2.845011312392238 -0.8971862664758623
4.919485092163086 -1.469081574385502 -1.8571653366088867 2.3849198061176757 -1.5963543097125452 3.3389313220977783 -0.05862442765207754 -0.7218829571409747 0.5445341934960211 -0.018657095178174054 2.8449240586763 -0.8972725038102588
4.919480800628662 -1.469052606528141 -1.857181191444397 2.384885712260864 -1.5963342825519007 3.3390016555786133 -0.05864979711894458 -0.7218653312917969 0.5445340841412714 -0.018541732398163004 2.8449372685211975 -0.897241851579393
4.919459342956543 -1.4690740791014214 -1.8571741580963135 2.384890003795288 -1.5963414351092737 3.3390390872955322 -0.058668992761244605 -0.7218742376315321 0.5445240584692599 -0.018460904886979726 2.8449342988562565 -0.8972212330243793
4.919431686401367 -1.4690978986075898 -1.8571102619171143 2.384894533748291 -1.5963342825519007 3.339047908782959 -0.05868715827491608 -0.7218973613473584 0.544556657585617 -0.018406757177261295 2.8449174147075147 -0.8972887277357793
4.919431686401367 -1.469081574385502 -1.8571399450302124 2.384899063701294 -1.5963624159442347 3.3390183448791504 -0.058677571238787474 -0.721883922076231 0.5445465994834223 -0.01846145324257294 2.8449072683194414 -0.897267673764282
4.91948938369751 -1.4690846514752884 -1.8571523427963257 2.3849033552357177 -1.596325699483053 3.339043617248535 -0.058649510823433025 -0.7218872981210288 0.5445360803956777 -0.01849029307947098 2.8449228446495374 -0.8972558921664798
4.919434547424316 -1.4690890622190018 -1.8571805953979492 2.384923143977783 -1.596309010182516 3.3390228748321533 -0.05868937930887276 -0.7218817540073719 0.5445165261625062 -0.018433644470355042 2.8449639681916477 -0.8972625828404072
4.919466972351074 -1.469077081685402 -1.857184886932373 2.384934826488159 -1.5963004271136683 3.3389928340911865 -0.05866278802436857 -0.7218798244710586 0.5445249717588612 -0.01851882789912699 2.844957749341178 -0.8972927720927888
4.919471740722656 -1.4690518465689202 -1.8571486473083496 2.384948177928589 -1.5963133017169397 3.3390016555786133 -0.05865784948306731 -0.7218814005892777 0.544571942278195 -0.018520476550577855 2.8448972876870084 -0.8973837437106499
4.919427394866943 -1.4691470500877877 -1.8571398258209229 2.384890003795288 -1.596325699483053 3.3390722274780273 -0.0586949779827403 -0.7219074017917586 0.544498773699119 -0.018360210220851103 2.8449714679344242 -0.8971775098593858
4.91943883895874 -1.469114289884903 -1.8571724891662598 2.384894533748291 -1.5963214079486292 3.3390138149261475 -0.0586801413860554 -0.7218886040517077 0.5444995170998963 -0.018457720508811292 2.844983337986208 -0.8971953527428598
4.919488430023193 -1.4690362078002472 -1.8571637868881226 2.3848931032368164 -1.5963457266436976 3.338977575302124 -0.05863708179448594 -0.721864533185178 0.5445605067602531 -0.018592952971444157 2.844906178395153 -0.8972943445108518
4.919434547424316 -1.4691068095019837 -1.8571231365203857 2.3849143224903564 -1.5963175932513636 3.3390016555786133 -0.05867921622381879 -0.7219001983147693 0.544546360824956 -0.018468674187288304 2.844942847357624 -0.8973036511458103
4.919516563415527 -1.469085970228054 -1.857161045074463 2.3849033552357177 -1.596353832875387 3.3389480113983154 -0.05860499385645811 -0.7218853745160375 0.5445306977692419 -0.018677707393359905 2.844922372564008 -0.8972409196412289
4.91945219039917 -1.4690890920213242 -1.857161045074463 2.384890003795288 -1.596325699483053 3.338994264602661 -0.05866707653238629 -0.7218822076673727 0.5445252558262594 -0.01850732837015546 2.8449610726891463 -0.8972374081005625
4.919459342956543 -1.4690859925797959 -1.8571573495864868 2.384894533748291 -1.5963214079486292 3.3390347957611084 -0.05867081148898066 -0.7218836235987123 0.5445300035687605 -0.018457996697030465 2.8449457747779543 -0.8972454864119066
4.919492721557617 -1.4691262629679223 -1.8571717739105225 2.384849949473999 -1.596292797719137 3.3389642238616943 -0.058638155102992584 -0.7218903289376437 0.5444851979136789 -0.018591233240239886 2.845039166257676 -0.8971346619764123
4.919426918029785 -1.4691143047860642 -1.8570748567581177 2.3848811823078613 -1.5963581244098108 3.339027166366577 -0.0586784266370571 -0.7219087254485268 0.5445694671311557 -0.018440797716991933 2.84490073649852 -0.8972885488807574
4.919459342956543 -1.4691142973354836 -1.8571443557739258 2.384861631984375 -1.5963342825519007 3.3390228748321533 -0.05866363111327092 -0.7218918620286601 0.5445137897990046 -0.01848028084795034 2.8449681040630312 -0.8971760709091678
4.919455051422119 -1.4691098120859643 -1.8571805953979492 2.384910984630249 -1.5963709990130823 3.3390228748321533 -0.058659329548066706 -0.7218870129383962 0.5444982230436308 -0.01849058612062648 2.8449286311945774 -0.8971810585835197
4.919471740722656 -1.4690607351115723 -1.857120394706726 2.3848976331898193 -1.596309010182516 3.33903169631958 -0.058663959514830374 -0.721884961446154 0.5445764991691332 -0.018475837496103386 2.8449126572768595 -0.8973380329031156
4.919471740722656 -1.4690935102156182 -1.8571805953979492 2.384927435512207 -1.5963171164142054 3.3390228748321533 -0.05866025421032667 -0.7218858828251149 0.5445140764536388 -0.01849012720284824 2.844947743409149 -0.8972506730419392
4.919488430023193 -1.4690771114877244 -1.857161045074463 2.384951277370117 -1.5963457266436976 3.3389854431152344 -0.058633941148204645 -0.7218877438226501 0.5445453052094588 -0.0185812594864636 2.8448920516621006 -0.8973198554315054
4.91943883895874 -1.4691231858781357 -1.8571443557739258 2.384894533748291 -1.5963495413409632 3.339006185531616 -0.058670169368761495 -0.721897680558063 0.5445141564142462 -0.018481923108297556 2.8449503160017264 -0.8972076333588304
4.919467449188232 -1.4690979209593316 -1.8571979999542236 2.384927435512207 -1.596309010182516 3.3390138149261475 -0.05866395997167414 -0.7218831295318319 0.5444983119908211 -0.01849270561078722 2.844971271009306 -0.8972283564215146
4.919455051422119 -1.4690934357098122 -1.857161045074463 2.384882612819336 -1.5963624159442347 3.3389854431152344 -0.05865483312156138 -0.7218818194509217 0.5445201550544362 -0.018540612451576653 2.8449398875726826 -0.89720313083483
4.919471740722656 -1.4691760253957291 -1.8571443557739258 2.384878082866333 -1.5963414351092737 3.3389766216278076 -0.05863891276710825 -0.7219160491165321 0.5444753192995424 -0.01856570736082742 2.8449985965820037 -0.897118169595078
4.919436931610107 -1.4690771114877244 -1.857184886932373 2.38493458806958 -1.596353832875387 3.3390390872955322 -0.05868153134797506 -0.7218771428296877 0.5445222363463541 -0.018434726195086414 2.844911083072552 -0.8972605865853597
4.919485092163086 -1.4691470575383683 -1.8572050333023071 2.384906454677246 -1.59633714357485 3.3390555381774902 -0.05865035249806544 -0.7218968418378191 0.5444528604106788 -0.018469767682597685 2.8449815920518082 -0.8970978034919693
4.919488430023193 -1.4691142973354836 -1.8571979999542236 2.384873791331909 -1.5963013807879847 3.3389854431152344 -0.058645114670654766 -0.7218827724267465 0.5444774880012585 -0.018558671495264866 2.8450222857974525 -0.8971396641152108
4.919447898864746 -1.4690979656628151 -1.8571573495864868 2.384887142772339 -1.5963581244098108 3.33903169631958 -0.058669457488644855 -0.7218851794285379 0.5445194368354737 -0.018462628210441676 2.8449317016196445 -0.8972026594506979
4.919447898864746 -1.4691098493388672 -1.8571312427520752 2.384878082866333 -1.5963624159442347 3.338956832885742 -0.05865171844300744 -0.7218934498894585 0.544531258743364 -0.01857148256596461 2.8449431812789836 -0.8972220997672898
4.91947603225708 -1.469039337044098 -1.8571319580078125 2.3848482805439453 -1.5963385740863245 3.339043617248535 -0.05865999438228252 -0.7218674572638062 0.5445718987840565 -0.01847837915459185 2.8449089943852295 -0.8972657349444665
4.919471740722656 -1.4690815594843407 -1.857135534286499 2.384894533748291 -1.596353832875387 3.3389763832092285 -0.05864220468198798 -0.7218864462930363 0.5445505047122825 -0.018574263670939735 2.844914015539578 -0.8972724945506635
4.91943883895874 -1.4691142973354836 -1.8572174310684204 2.384943647975586 -1.5963133017169397 3.338989734649658 -0.05867824328815444 -0.7218844085267592 0.5444760074740999 -0.01848758262531941 2.8449934382528896 -0.8972102271968271
4.919443607330322 -1.4690651905587693 -1.8571523427963257 2.384890003795288 -1.5963786284076136 3.3390555381774902 -0.058674731357757845 -0.7218745821058166 0.5445453383216283 -0.018432875121293168 2.8448850205177703 -0.8972424104591273
4.9194793701171875 -1.4691217404655 -1.8571653366088867 2.384939118022583 -1.596325699483053 3.339010715484619 -0.058647220095078695 -0.7219012547489261 0.5445084440218455 -0.018521993295937962 2.8449425769223198 -0.8972452749760942
4.919485092163086 -1.4691098493388672 -1.8571523427963257 2.3848811823078613 -1.5963905493365687 3.339010715484619 -0.05863014546618111 -0.7218908577251046 0.5445136296816345 -0.018559994167309288 2.844908662968453 -0.8971648086322166
4.919504642486572 -1.4690437254360695 -1.8571231365203857 2.384915276164673 -1.5963218847857874 3.339027166366577 -0.058637347987511156 -0.7218821714840365 0.5445894977482895 -0.018535388065834033 2.8448748538456985 -0.8973684385892757
4.91947603225708 -1.469102331703045 -1.857161045074463 2.384890003795288 -1.5963299910174769 3.3390228748321533 -0.058653560371349646 -0.721888540831089 0.5445151172601852 -0.01850211325246313 2.8449526148606523 -0.8972069273677667
4.919419288635254 -1.469130666261055 -1.8572049140930176 2.384887142772339 -1.5963013807879847 3.339027166366577 -0.05870205651201205 -0.7218851856344836 0.544462273162124 -0.018400555600804905 2.8450364952288676 -0.8971317965627645
4.919467926025391 -1.469105416243412 -1.8571891784667969 2.3849186140247802 -1.5963709990130823 3.3389523029327393 -0.058636667027954066 -0.7218843404723239 0.5444983437167459 -0.018609334686933602 2.844940337996899 -0.8971971435958324
4.919431686401367 -1.4691142377308388 -1.857181191444397 2.384910984630249 -1.5963299910174769 3.338977575302124 -0.05867622837398312 -0.7218876471129896 0.5444970347830957 -0.018503007783125615 2.844982275642399 -0.8972098873857918
4.919467926025391 -1.4690801438740273 -1.857120394706726 2.384899063701294 -1.5963175932513636 3.338977575302124 -0.058652603729277476 -0.7218909669872031 0.5445646793441046 -0.018550976357040037 2.8449310750578145 -0.8973207678784586
4.919443607330322 -1.4690815594843407 -1.8571486473083496 2.384910984630249 -1.5963743368731897 3.338994264602661 -0.0586616505279423 -0.7218835359857425 0.5445427684535836 -0.01851801927523131 2.844898355558524 -0.8972680812742939
4.919422626495361 -1.4690934804132958 -1.8571319580078125 2.384894533748291 -1.5963457266436976 3.339006185531616 -0.0586843093308151 -0.7218892398320684 0.5445442563588203 -0.01845813288129395 2.8449314230299727 -0.8972694529738631
4.919443607330322 -1.4690934804132958 -1.857181191444397 2.384899063701294 -1.5963667074786585 3.3389854431152344 -0.05866272405093793 -0.7218784400095724 0.5445079895991188 -0.018525954388887975 2.8449418082439455 -0.8971981310820372
4.9194793701171875 -1.4690652203610917 -1.8571566343307495 2.3849186140247802 -1.596370045338766 3.3389687538146973 -0.058633192253263106 -0.7218787484498641 0.5445504155174109 -0.018603444093477813 2.8448887609397104 -0.8972898448394114
4.919463634490967 -1.4691068467548867 -1.8571891784667969 2.3849078851887207 -1.5963624159442347 3.3390228748321533 -0.05865581554914719 -0.7218842093743019 0.5444933945152592 -0.018498696266541055 2.844938784169612 -0.8971722361213282
4.919443607330322 -1.4691009533456345 -1.8571319580078125 2.3848811823078613 -1.5963743368731897 3.338989734649658 -0.0586592346794613 -0.7218903482952317 0.544536241860964 -0.01852420071300305 2.844919579348773 -0.8972252086118668
4.919483661651611 -1.4691514757326622 -1.857181191444397 2.384906454677246 -1.5962885061847132 3.3390095233917236 -0.05865175046910766 -0.7219048331882836 0.5444703727999967 -0.018511461115740722 2.845020623943663 -0.8971593523683844
4.919480800628662 -1.469074086552002 -1.857135534286499 2.384894533748291 -1.5963414351092737 3.3390347957611084 -0.058650559682212396 -0.7218853455498853 0.5445542830114115 -0.018498449692639432 2.8449028366727775 -0.8972758034232462
4.919467926025391 -1.4690474805286904 -1.8571566343307495 2.384894533748291 -1.5962923208819788 3.339010715484619 -0.05866926632828197 -0.7218710938912816 0.5445587071360203 -0.0184920872215103 2.8449485987056486 -0.897316841810565
4.91947603225708 -1.4690934804132958 -1.857118844985962 2.384890003795288 -1.5963543097125452 3.3390016555786133 -0.05864236658196506 -0.7218946229475933 0.5445532146134919 -0.01854467226480543 2.84490617251915 -0.8972666823518206
4.919459342956543 -1.4690815594843407 -1.8571768999099731 2.384869022960327 -1.5963299910174769 3.3390390872955322 -0.05867171122484819 -0.7218737009931808 0.544512974965544 -0.01845527780219917 2.8449629605015097 -0.8971853770975386
4.919487953186035 -1.4691278126886864 -1.857135534286499 2.384910984630249 -1.5963004271136683 3.3390049934387207 -0.05864436459956811 -0.7219078774880676 0.5445220686961365 -0.01853113253627728 2.844964884598927 -0.8972522365724598
4.919459342956543 -1.4691336911967774 -1.8571231365203857 2.384869022960327 -1.5963457266436976 3.3389971256256104 -0.0586532372329256 -0.7219042532922482 0.544518293121861 -0.018522288732222916 2.8449593517717497 -0.8971874442473642
4.919466972351074 -1.4691068244031449 -1.8571319580078125 2.384878082866333 -1.5963261763202112 3.3389854431152344 -0.05865205822337876 -0.7218946399851136 0.5445328671712282 -0.018541300871719707 2.844959249487333 -0.8972351672358209
4.919443607330322 -1.469081574385502 -1.8571443557739258 2.3848485189625244 -1.5963495413409632 3.339010715484619 -0.058671911102516676 -0.7218769550261207 0.5445339347588013 -0.01848290214027993 2.84495049785346 -0.8971997284703976
4.91945219039917 -1.4691485551050683 -1.8571161031723022 2.3849140840717773 -1.5963175932513636 3.338956832885742 -0.05865417095108079 -0.7219172180698106 0.5445239620607317 -0.01855676018985244 2.8449709236172445 -0.897262078784246
4.919443607330322 -1.4690979284099122 -1.8571362495422363 2.384915514583252 -1.5963500181781214 3.339015007019043 -0.05866927839926019 -0.7218938603412299 0.544541652956077 -0.01847728606853802 2.844912750666142 -0.8972777610235976
4.919440746307373 -1.4690979284099122 -1.8572137355804443 2.384915514583252 -1.5963218847857874 3.338994264602661 -0.058677578274832165 -0.7218755842251405 0.5444843335464155 -0.01848804607581644 2.8449897534901023 -0.8971934226683879
4.919500350952148 -1.4691098493388672 -1.8571741580963135 2.384910984630249 -1.5963299910174769 3.3390183448791504 -0.05863467735985552 -0.7218922864243572 0.5445042060413501 -0.01854277707739503 2.844947224733964 -0.8972035455527454
4.919480800628662 -1.4690815818360825 -1.8572050333023071 2.384878082866333 -1.5963743368731897 3.339048147201538 -0.05864918288881974 -0.7218683432172599 0.5444920911629244 -0.01849256225465686 2.844931011335876 -0.8971299506926302
4.91943883895874 -1.469167785053589 -1.857168197631836 2.384878082866333 -1.5963786284076136 3.33903169631958 -0.05866696123603915 -0.7219051010952084 0.5444604763007405 -0.0184571801204519 2.8449732815312636 -0.897072895333473
4.919492721557617 -1.469093495314457 -1.857181191444397 2.38483635961499 -1.5963457266436976 3.3390302658081055 -0.058642496397602245 -0.7218739083258552 0.5444949368906148 -0.01852185985241909 2.84497388654721 -0.8971062932403819
4.91943883895874 -1.4690979284099122 -1.8572137355804443 2.384906454677246 -1.59633714357485 3.3389809131622314 -0.05867310249040147 -0.721873670824346 0.5444825824077699 -0.018511272705730074 2.84498669996048 -0.8971760710799235
4.919419288635254 -1.4690682676485558 -1.857181191444397 2.384906454677246 -1.5963013807879847 3.3390016555786133 -0.058699939621573646 -0.7218710031444242 0.5445280663372886 -0.018439047013537754 2.8449770803245684 -0.8972785600398673
4.919485092163086 -1.4691395101002236 -1.8571768999099731 2.384870691890381 -1.596276585255758 3.339006185531616 -0.05865435486415899 -0.7218971164701211 0.5444753372942213 -0.01851292332028192 2.845042751609144 -0.8971397957662045
4.919467926025391 -1.4691306364587327 -1.857168197631836 2.384930296535156 -1.5963624159442347 3.3389854431152344 -0.05864190009461277 -0.7219005705226633 0.5444982212962863 -0.018558195754844447 2.844934655818414 -0.8972052068512838
4.919513702392578 -1.4690815818360825 -1.857161045074463 2.384903593654297 -1.5963175932513636 3.339006185531616 -0.05862706480727288 -0.7218853485453354 0.544532972856051 -0.01857430896541462 2.8449355473838054 -0.8972555894998452
4.919467449188232 -1.4691142824343224 -1.8571290969848633 2.38487355291333 -1.5963757673846644 3.3389809131622314 -0.058639018767280775 -0.7218959986491646 0.5445278850192622 -0.018570994241173727 2.844925558661499 -0.8971971268188608
4.919497013092041 -1.469093495314457 -1.857153058052063 2.384930296535156 -1.5963457266436976 3.3389973640441895 -0.058629017585037545 -0.7218932898133217 0.5445355245823474 -0.0185761355781074 2.8449051114427877 -0.8972762555119899
4.919471740722656 -1.4690904405764122 -1.8571399450302124 2.38487355291333 -1.5963500181781214 3.339006185531616 -0.05864906389959558 -0.7218861542954937 0.5445361235687849 -0.018529615722742494 2.8449311260377366 -0.897222521170112
4.919459342956543 -1.4690979284099122 -1.8572022914886475 2.38487355291333 -1.596309010182516 3.338994264602661 -0.05866757107716553 -0.7218740753614332 0.5444851150668423 -0.018508552976040864 2.8450141771485504 -0.8971554981696357
4.919443607330322 -1.4691023615053673 -1.8571653366088867 2.384885473842285 -1.5963261763202112 3.338994264602661 -0.05867251573821493 -0.7218847670169022 0.5445118990814224 -0.01849490690964014 2.8449766837767294 -0.89720916051217
4.91947603225708 -1.4690519210747262 -1.8571856021881104 2.3849198061176757 -1.596325699483053 3.339015007019043 -0.05865720770293926 -0.7218687682509408 0.5445376981143153 -0.018512163506458477 2.8449234744582745 -0.8972856576408782
4.919419288635254 -1.4690771412900467 -1.857135534286499 2.384882612819336 -1.5963218847857874 3.3389732837677 -0.058687321933303935 -0.7218810055764368 0.5445521198664169 -0.018489545397477124 2.844959128434405 -0.8972905006865035
4.919504642486572 -1.4691395101002236 -1.8571594953536987 2.384885473842285 -1.596309010182516 3.339048147201538 -0.058639917751238974 -0.7219040738321018 0.5444893618802336 -0.018496299919016905 2.844981033520795 -0.8971535232809004
4.919463634490967 -1.469093495314457 -1.8571486473083496 2.384852810496948 -1.5963457266436976 3.339006185531616 -0.0586566441628968 -0.7218819736190718 0.5445234749112248 -0.018515710583256052 2.844956905421212 -0.8971826997420167
4.919466972351074 -1.4690526214293023 -1.8571805953979492 2.384899063701294 -1.5963414351092737 3.339006185531616 -0.05865867717264642 -0.7218663420663317 0.544536822857196 -0.018519015561543773 2.8449253487735278 -0.8972586229485624
4.919534206390381 -1.4691098493388672 -1.8571312427520752 2.384890003795288 -1.5963833967791956 3.3390016555786133 -0.058593208967595546 -0.7219000918753623 0.5445317556293929 -0.018639964724944526 2.8448851969473226 -0.8972009239809928
4.919455051422119 -1.4691262033632775 -1.857184886932373 2.384861631984375 -1.5963342825519007 3.3390016555786133 -0.05866372906495747 -0.7218858535321144 0.544475483704374 -0.018503163696320428 2.845007090258378 -0.897110683584011
4.919488430023193 -1.4691306960633774 -1.8571768999099731 2.3848976331898193 -1.596325699483053 3.3390228748321533 -0.05864408606740584 -0.7218967034301298 0.5444850219065287 -0.018516776259808108 2.844975700446014 -0.8971576390529057
4.919488430023193 -1.4691023615053673 -1.8571319580078125 2.384890003795288 -1.5963171164142054 3.339006185531616 -0.058642735429681236 -0.7218964199659318 0.544537906916029 -0.018538288636127685 2.8449457829864335 -0.8972537076503532
4.919427394866943 -1.4690349486521264 -1.8571399450302124 2.384869261378906 -1.5963013807879847 3.3389718532562256 -0.058689534977395624 -0.7218641280422087 0.5445760188960573 -0.01849450442989854 2.8449587425798937 -0.8973329427010311
4.919431686401367 -1.4690770891359826 -1.8572022914886475 2.384882612819336 -1.5963743368731897 3.33903169631958 -0.05868146391224674 -0.7218649426262721 0.5444986523298978 -0.01844640978851664 2.8449405781700863 -0.8971587638338983
4.919513702392578 -1.469093495314457 -1.8571443557739258 2.3848587709614257 -1.596365753804342 3.3390228748321533 -0.05861889181810534 -0.721886406047673 0.5445269038234304 -0.01857239243266422 2.8449170629829466 -0.8971725319418544
4.919480800628662 -1.4691173520735283 -1.8571680784225464 2.384910984630249 -1.5963175932513636 3.3390138149261475 -0.05864983128571202 -0.7218955531731001 0.5445040326613735 -0.01851574234026223 2.844964421998262 -0.8972130465031807
4.919504642486572 -1.469086007480957 -1.8572094440460205 2.3849186140247802 -1.5963500181781214 3.338989734649658 -0.05862478066086114 -0.721875726984492 0.5444959055809636 -0.018598565864855275 2.844939201202732 -0.8971925415746279
4.919455051422119 -1.4691142824343224 -1.8571116924285889 2.384910984630249 -1.5963133017169397 3.3389809131622314 -0.058660234285197795 -0.7219062284544732 0.5445498916717182 -0.018525453451886147 2.8449456035612712 -0.8973068354808269
4.919455051422119 -1.4690890696695824 -1.8571768999099731 2.3849033552357177 -1.5963175932513636 3.3390228748321533 -0.05867296104725906 -0.7218809283411739 0.5445152427218871 -0.01846665625510069 2.84496155742729 -0.897232226647723
4.919504642486572 -1.469081537132599 -1.8570793867111206 2.384861631984375 -1.5963743368731897 3.3390390872955322 -0.058624180458703004 -0.7218975795236405 0.5445842294401562 -0.018542200910151595 2.8448587704806374 -0.8972737035666268
4.91943883895874 -1.4690890622190018 -1.8571653366088867 2.384852810496948 -1.596325699483053 3.339006185531616 -0.05868025766239654 -0.7218754719605186 0.544514419024172 -0.01847102039418523 2.844987337472758 -0.8971818788682728
4.91943883895874 -1.469123163526394 -1.8572137355804443 2.384903593654297 -1.5962675253497522 3.339003324508667 -0.058691474831987805 -0.7218844109023479 0.5444655517452519 -0.018446871613682622 2.845055364469709 -0.8971711677601032
4.919488430023193 -1.4690934804132958 -1.8571205139160156 2.384894533748291 -1.5963667074786585 3.339043617248535 -0.05863886646134259 -0.7218957257288391 0.5445513002080415 -0.01850819827410479 2.844880854664064 -0.8972531241600075
4.919471740722656 -1.4690978986075898 -1.8571696281433105 2.384882612819336 -1.5963590780841272 3.339027166366577 -0.05865188755980942 -0.7218829083142118 0.5445094198914185 -0.018503070068231382 2.8449361979015353 -0.8971758173582921
4.919458389282227 -1.4690726932934304 -1.857184886932373 2.384901924724243 -1.5963581244098108 3.338965654373169 -0.05865174700059869 -0.7218714073871835 0.5445209780208267 -0.018571629728915035 2.8449373135396265 -0.8972305374781181
4.919480800628662 -1.4690890622190018 -1.857184886932373 2.3849198061176757 -1.596353832875387 3.339010715484619 -0.058643756298824075 -0.7218816259177703 0.5445118851629251 -0.018537075906605853 2.844923091550056 -0.8972215535038959
4.919472694396973 -1.4691023615053673 -1.8571768999099731 2.384878082866333 -1.59633714357485 3.339027166366577 -0.058656319088413095 -0.7218827830573696 0.5445004736677191 -0.018494074436993545 2.8449639073457047 -0.8971655151334555
4.919485092163086 -1.4691173520735283 -1.8571937084197998 2.384857340449951 -1.596332852040426 3.3390228748321533 -0.058647778384368854 -0.7218820523800351 0.5444735310271936 -0.018514942189251062 2.8449978507945364 -0.8970955556288484
4.919501304626465 -1.469135121708252 -1.8571653366088867 2.384932203883789 -1.596309010182516 3.338998794555664 -0.05863199140421038 -0.7219066744755738 0.5444985616410912 -0.01856213246265651 2.8449659238931533 -0.8972249433028108
4.919466972351074 -1.469126210813858 -1.8571768999099731 2.384882612819336 -1.596325699483053 3.33903169631958 -0.058662042313494506 -0.721891913126941 0.5444849452212409 -0.018473725564185074 2.844985673317367 -0.8971459412244691
4.919506072998047 -1.4691381466439744 -1.8571529388427734 2.384887142772339 -1.596304718648092 3.3390138149261475 -0.058632798058850445 -0.7219051846986235 0.5444967074953265 -0.018545460243242804 2.844986541382478 -0.8971752286093385
4.919422626495361 -1.4690935102156182 -1.8571813106536865 2.384894533748291 -1.5963667074786585 3.338994264602661 -0.058679733349736765 -0.7218766802324471 0.5445067353775164 -0.01848354609712308 2.844948054121242 -0.8971942401530723
4.919483661651611 -1.4690815520337601 -1.8571768999099731 2.384903593654297 -1.596353832875387 3.3390390872955322 -0.0586478647353125 -0.7218791748784014 0.5445191441630798 -0.018500988370052072 2.84491580007335 -0.8972143493865361
4.919409275054932 -1.469102368955948 -1.857161045074463 2.384915514583252 -1.596332852040426 3.338973045349121 -0.05869059816407896 -0.7218874345242219 0.5445214642939612 -0.018479712922544897 2.8449641646642823 -0.8972628029329554
4.919492721557617 -1.469123163526394 -1.8571979999542236 2.384948177928589 -1.596304718648092 3.339010715484619 -0.058643658877939875 -0.7218964912505083 0.5444850295936691 -0.01853061532337749 2.844971791328615 -0.8972202819622418
4.919525146484375 -1.469123200779297 -1.857135534286499 2.384885473842285 -1.5962803999530237 3.338998794555664 -0.05862182682459411 -0.7219054209192892 0.5445209642627793 -0.01858356819991664 2.844985844002905 -0.8972286660280222
4.919450283050537 -1.4691336911967774 -1.8572006225585938 2.384845419520996 -1.59633714357485 3.338994264602661 -0.05866573536135532 -0.721882088311379 0.5444553624003489 -0.018507562557856606 2.8450323205187327 -0.8970585279302795
4.919467449188232 -1.4691187602332612 -1.8571653366088867 2.384899063701294 -1.5963299910174769 3.3390228748321533 -0.058658519266666376 -0.7218940829510732 0.5445022316152701 -0.018489494256019527 2.8449621744352376 -0.897192992608056
4.919450283050537 -1.4691351440599938 -1.8571529388427734 2.384915514583252 -1.596304718648092 3.3390257358551025 -0.05867491272213901 -0.7219048383652449 0.5445039814018288 -0.018449482378069176 2.844978834401431 -0.8972261629152616
4.919497013092041 -1.4690563169172783 -1.8572006225585938 2.384915514583252 -1.5963714758502405 3.3389687538146973 -0.058623127536170605 -0.7218655829778887 0.544522679916309 -0.01862831249761314 2.8449067697839614 -0.8972342807612048
4.919492721557617 -1.469065175657608 -1.8571566343307495 2.384915514583252 -1.596370045338766 3.3389525413513184 -0.058620436441522566 -0.7218789020815846 0.5445503173919253 -0.018645481233079856 2.8448910990228247 -0.8972862981086424
4.919459342956543 -1.4691113990596314 -1.8571399450302124 2.384899063701294 -1.5963581244098108 3.33901047706604 -0.058654806180262156 -0.7218961824093124 0.5445262257460883 -0.01850928681990942 2.8449240156509257 -0.8972259820643523
4.919455051422119 -1.4691023764065285 -1.8571522235870361 2.384894533748291 -1.5963414351092737 3.3389763832092285 -0.05865636366015416 -0.7218892010881441 0.5445237280782321 -0.018543991559660473 2.8449518560925324 -0.8972320576734136
4.919434547424316 -1.4690607202104111 -1.8571486473083496 2.384894533748291 -1.5963500181781214 3.339006185531616 -0.05867802251623322 -0.721874152454347 0.5445542735470595 -0.01847740989210843 2.844914795882405 -0.8972863855886972
4.919443607330322 -1.4690771114877244 -1.8571202754974365 2.384890003795288 -1.5963743368731897 3.339060068130493 -0.05867406903851907 -0.7218867009075118 0.544561292315525 -0.018424938939298238 2.8448748409524605 -0.897270871253038
4.919487953186035 -1.469111443763115 -1.8571697473526 2.384885473842285 -1.596271816884176 3.3389809131622314 -0.05864971313111947 -0.7218908533097481 0.5445039814286574 -0.01855172631549652 2.845020937739583 -0.8972140133462814
4.919480800628662 -1.4691470277360459 -1.8571486473083496 2.3848916727253417 -1.5963500181781214 3.3390016555786133 -0.05863739651923463 -0.7219071398683596 0.5444939167472875 -0.018547531523879605 2.8449593385568672 -0.8971583109016021
4.919447898864746 -1.4691142973354836 -1.8571768999099731 2.3849198061176757 -1.5963166395770472 3.3390228748321533 -0.05867603713773334 -0.7218917467622136 0.5445009600263001 -0.01845557973755206 2.8449697529627307 -0.8972224156938031
4.919459342956543 -1.4690934804132958 -1.8571724891662598 2.384857340449951 -1.5963791052447718 3.3390183448791504 -0.05865569709051781 -0.7218758420979671 0.5445051574522227 -0.01850704514345468 2.8449399729841107 -0.8971373526083701
4.919410705566406 -1.469130666261055 -1.857120394706726 2.384903593654297 -1.5963457266436976 3.3390228748321533 -0.05869261952846709 -0.7219059820319494 0.5445284610197836 -0.018416891457188438 2.8449408419307147 -0.8972462827894103
4.919472694396973 -1.4690771412900467 -1.8572137355804443 2.384885712260864 -1.596363369618551 3.339043617248535 -0.05865719809571211 -0.7218654752087783 0.5444904827969966 -0.01848242679723126 2.8449410979413186 -0.8971428809184259
4.919455051422119 -1.4690934804132958 -1.8571891784667969 2.384882612819336 -1.596309010182516 3.33903169631958 -0.05867748468863719 -0.7218770662945913 0.5444987935758914 -0.01844962482484685 2.8449896288058794 -0.8971847237805501
4.919459342956543 -1.4691068244031449 -1.8571529388427734 2.384890003795288 -1.5963791052447718 3.338977575302124 -0.05864480380501567 -0.7218892431621192 0.5445182551352732 -0.018565484394824677 2.844925821409477 -0.8971977537988262
4.919430255889893 -1.4690815594843407 -1.8571406602859497 2.384882612819336 -1.5963133017169397 3.339064598083496 -0.05869931306048262 -0.7218833026573028 0.5445427041455235 -0.018370930968624764 2.844946935014218 -0.8972620084089373
4.919427394866943 -1.4691187453321 -1.8571637868881226 2.384878082866333 -1.5963133017169397 3.338977575302124 -0.058682730770806865 -0.721889165813604 0.5445010575033468 -0.01848934553567686 2.8450092887377836 -0.8971926928743647
4.919459342956543 -1.4690934804132958 -1.8571653366088867 2.384873791331909 -1.5963342825519007 3.339015007019043 -0.05866438293203416 -0.7218809691299506 0.5445149775081902 -0.01849156295523068 2.8449626056967294 -0.8971937885694347
4.919463634490967 -1.4690607500127335 -1.8571979999542236 2.3848959642597656 -1.59629995027651 3.339048147201538 -0.05867912449924377 -0.7218660546634927 0.5445171930608234 -0.018434896533498033 2.8449675794311053 -0.8972347202788099
4.919491291046143 -1.4690934804132958 -1.8571856021881104 2.384927673930786 -1.5962970892535608 3.339015245437622 -0.058649417000712745 -0.721886299532091 0.5445110714542732 -0.0185194847392024 2.844963722594174 -0.8972526758479515
4.919455051422119 -1.4690696534565468 -1.857161045074463 2.384857340449951 -1.5963299910174769 3.338982105255127 -0.05866393349554207 -0.7218707610657827 0.5445326284004655 -0.01853090281763899 2.8449678883318783 -0.8972190801618958
4.919471740722656 -1.4691262033632775 -1.8572007417678833 2.3848482805439453 -1.5963175932513636 3.338994264602661 -0.058655155993897146 -0.7218815717130782 0.5444615098100878 -0.018529294849616317 2.845036237112223 -0.897078502739437
4.91947603225708 -1.4690482106855889 -1.8571653366088867 2.384915514583252 -1.5962803999530237 3.338994264602661 -0.05866270820951451 -0.7218727150416844 0.5445564882445906 -0.018521497633073557 2.8449530769207296 -0.8973404655631126
4.919466972351074 -1.4690845918706437 -1.8571856021881104 2.38487355291333 -1.5963214079486292 3.338994264602661 -0.05865939606372096 -0.7218734529195314 0.5445066967822879 -0.01852577641041547 2.844983374878818 -0.8971876819178541
4.919459342956543 -1.4690771412900467 -1.8571637868881226 2.384903593654297 -1.5963624159442347 3.3390228748321533 -0.058659933318127924 -0.7218789059322648 0.5445323924641671 -0.01849386813106815 2.844908216744585 -0.8972413241938855
4.919492721557617 -1.4690682676485558 -1.8571900129318237 2.3848914343067626 -1.5963791052447718 3.33903169631958 -0.05863612375104041 -0.7218694037493967 0.5445156716260758 -0.018535873013286252 2.8449020907251903 -0.8971843372439102
4.919471740722656 -1.469084621672966 -1.8571724891662598 2.384894533748291 -1.5963495413409632 3.3389854431152344 -0.05864662890654457 -0.7218788784390118 0.5445202608963124 -0.018558450280572705 2.8449402514698408 -0.8972192428514038
4.919384956359863 -1.469072700744011 -1.857161045074463 2.3849078851887207 -1.5963214079486292 3.339010715484619 -0.058720584357019455 -0.7218751669057963 0.5445397509766733 -0.018386916547998435 2.8449568970782977 -0.8972958728396296
4.919459342956543 -1.4691469979337235 -1.8571616411209106 2.384857340449951 -1.5963175932513636 3.338998794555664 -0.05866121675954837 -0.7218989279157118 0.544478284957228 -0.0185057277260844 2.845021358260456 -0.8971168499919726
4.919456958770752 -1.469072700744011 -1.857168197631836 2.384870691890381 -1.5963457266436976 3.3390228748321533 -0.05866684087904755 -0.7218721088308008 0.5445261252020549 -0.018482608782745904 2.8449427560560356 -0.8972064711342654
4.919480800628662 -1.469086007480957 -1.8571574687957764 2.384923143977783 -1.596325699483053 3.3390016555786133 -0.05864706740175112 -0.7218882357807398 0.5445363561671746 -0.018537841164283978 2.8449271143630557 -0.8972838505056518
4.919480800628662 -1.4690965426019211 -1.8572109937667847 2.3849243360706787 -1.5962837378131312 3.339010715484619 -0.058660274784246874 -0.7218805251407916 0.5444895454164622 -0.01850422313230628 2.844998243209653 -0.8972200875685503
4.919447898864746 -1.4690696460059662 -1.857161045074463 2.3849033552357177 -1.5963414351092737 3.3390393257141113 -0.05867661219383714 -0.7218769559519215 0.5445396563971866 -0.018444813507713608 2.8449180389665645 -0.8972650038278014
4.91948938369751 -1.469081589286663 -1.8571937084197998 2.384845419520996 -1.5963452498065394 3.338989734649658 -0.0586383002629864 -0.7218672302489659 0.5444967052141938 -0.018574667609426058 2.84497980021844 -0.8971266240240421
4.919410705566406 -1.4691187155297776 -1.857161045074463 2.384899063701294 -1.5963624159442347 3.3390016555786133 -0.05868774073569026 -0.7218906406711629 0.5445053366725001 -0.01845403742030416 2.844953138773592 -0.8971968967598057
