gadestri/Universal-robots-Hand-tracking-to-move-the-robot/RTDE/2022_03_18_12_39_09.csv
actual_q_0 actual_q_1 actual_q_2 actual_q_3 actual_q_4 actual_q_5 actual_TCP_pose_0 actual_TCP_pose_1 actual_TCP_pose_2 actual_TCP_pose_3 actual_TCP_pose_4 actual_TCP_pose_5
4.919463634490967 -1.4691098493388672 -1.857153058052063 2.3849150377460937 -1.5963085333453577 3.338994264602661 -0.05866009531462735 -0.7218960504215441 0.544522192889803 -0.01851560561118521 2.84496450300861 -0.8972608909302564
4.919459342956543 -1.4690979284099122 -1.857184886932373 2.384898825282715 -1.5963457266436976 3.3390347957611084 -0.05866572157455138 -0.721881177717592 0.5445011245448027 -0.01846822885992418 2.8449479504772337 -0.8971852109082138
4.919418811798096 -1.4691022497466584 -1.8571813106536865 2.38491074621167 -1.5963628927813929 3.3390183448791504 -0.05868703435728255 -0.7218821568091205 0.5445032184510143 -0.01844199490783172 2.844941706350785 -0.8972023590465578
4.919480323791504 -1.4690730285695572 -1.8571857213974 2.3848911958881835 -1.5963447729693812 3.3390138149261475 -0.058648740628162985 -0.7218720876022817 0.5445169330407131 -0.01852799317039623 2.844938059531428 -0.897207779177624
4.919435977935791 -1.4690730732730408 -1.8571981191635132 2.384931727046631 -1.5963414351092737 3.3390016555786133 -0.05867868414303438 -0.721871973141492 0.5445158746827492 -0.01848076273094273 2.8449380412378575 -0.8972586335826518
4.9194231033325195 -1.4691065859845658 -1.8571442365646362 2.384890242213867 -1.5963628927813929 3.3390390872955322 -0.058686345405127585 -0.7218903234611193 0.5445236421283469 -0.01841918557123483 2.8449277993568014 -0.897213761494144
4.919487953186035 -1.4690892559340973 -1.857153058052063 2.384922905559204 -1.5963323752032679 3.338944673538208 -0.058628680089582705 -0.7218899827933548 0.5445388995087914 -0.018632235559671573 2.8449331113884417 -0.8972913889729169
4.9194722175598145 -1.4690816786936303 -1.8571522235870361 2.3848890501209716 -1.5963581244098108 3.3390228748321533 -0.05865105893375416 -0.721882195980263 0.5445352554815106 -0.018510260874165546 2.8449129488885103 -0.8972309234328236
4.919439315795898 -1.4690816786936303 -1.8571574687957764 2.3849150377460937 -1.5963042418109339 3.3390016555786133 -0.058682401021966424 -0.7218837411773449 0.5445383058939876 -0.018469118647415905 2.844957759288815 -0.897298466610255
4.919439315795898 -1.4690935996225853 -1.857163667678833 2.384890242213867 -1.5963671843158167 3.339043617248535 -0.058676525633817554 -0.7218819203974031 0.5445177216659601 -0.018437579300652977 2.8449229785952297 -0.8971986968421137
4.919512748718262 -1.469139077966549 -1.8571486473083496 2.3849150377460937 -1.5963123480426233 3.3389854431152344 -0.05861963569887184 -0.7219101848181595 0.5445053985466506 -0.018599117090213748 2.8449661412505973 -0.8972175193749746
4.919435977935791 -1.4691479069045563 -1.857161045074463 2.384894533748291 -1.5963414351092737 3.3390228748321533 -0.058676381183710706 -0.7219027155829569 0.5444840735911549 -0.018449403215007456 2.8449794069571093 -0.8971536038987179
4.919492244720459 -1.4690935996225853 -1.8571892976760864 2.3848978716083984 -1.5963342825519007 3.3390138149261475 -0.05864098827876525 -0.7218804385615465 0.5445015042023 -0.018539607190980602 2.8449543883062454 -0.897187586026042
4.919435024261475 -1.4690773871592064 -1.8571354150772095 2.384862108821533 -1.5963495413409632 3.3390390872955322 -0.058683210167738545 -0.7218792913237642 0.5445454260978367 -0.01843070791454738 2.8449292419839147 -0.8972317433572915
4.919443607330322 -1.4691466701081772 -1.8571114540100098 2.384931727046631 -1.5964162985431116 3.339027166366577 -0.0586513727638759 -0.7219177191595005 0.5445277469403343 -0.018489872945129233 2.844860766134201 -0.8972294993959945
4.919450759887695 -1.4691553276828309 -1.8571442365646362 2.384906454677246 -1.5963042418109339 3.3389809131622314 -0.058664114445835844 -0.7219123927037039 0.5444961075088322 -0.018513444376839824 2.84500277640243 -0.8972075773014225
4.919480800628662 -1.469122828250267 -1.8571354150772095 2.3848694997974853 -1.596320931111471 3.3389973640441895 -0.05864482659903074 -0.7218994333236735 0.5445172420187362 -0.018541053191032046 2.844974428023722 -0.8971951710488634
4.919414520263672 -1.4690860149315377 -1.8571186065673828 2.384927435512207 -1.5963671843158167 3.3389763832092285 -0.05867843848435156 -0.7218928501272597 0.5445663132529652 -0.018499604402416756 2.844890020105831 -0.8973377436156305
4.919467449188232 -1.4690611076406022 -1.8571654558181763 2.3848532873341064 -1.59633714357485 3.3390798568725586 -0.05867363640860011 -0.7218678002012859 0.5445313890410097 -0.01841265084934071 2.8449349383660816 -0.8971935179963894
4.919431686401367 -1.4690611076406022 -1.85715651512146 2.384894533748291 -1.5963414351092737 3.3389687538146973 -0.05867501124939085 -0.7218720206591155 0.544549361773121 -0.018522526425421796 2.844936794088356 -0.8972878797031467
4.919439315795898 -1.4691022422960778 -1.8571354150772095 2.384906454677246 -1.596320931111471 3.3390138149261475 -0.05867859268505621 -0.7218948869126999 0.5445382685309577 -0.01845942303901315 2.8449455981544483 -0.8972775552456689
4.919455051422119 -1.469090336268284 -1.8571486473083496 2.384882612819336 -1.596374813710348 3.3390302658081055 -0.058660475926243724 -0.7218838914522028 0.5445300661276806 -0.018482822675924993 2.844909222429175 -0.8972084236641809
4.9194793701171875 -1.4690979284099122 -1.8571813106536865 2.384931727046631 -1.5963075796710413 3.3390228748321533 -0.05865650044555215 -0.7218885716908732 0.5445115392904949 -0.018496510229422992 2.8449540447591404 -0.8972531531423172
4.919496536254883 -1.4690979284099122 -1.8571442365646362 2.3849150377460937 -1.5963085333453577 3.3389973640441895 -0.058637390373612264 -0.7218958942269678 0.5445370532758471 -0.01855842741314202 2.84494219149423 -0.8972816221434733
4.919480800628662 -1.469102257197239 -1.8571698665618896 2.3849431711384277 -1.596370045338766 3.339010715484619 -0.0586377314092482 -0.7218926662382755 0.5445182496288073 -0.018544707861888873 2.8448943061375327 -0.897246781775017
4.919480800628662 -1.4691185069135209 -1.857131004333496 2.3848859506794433 -1.596320931111471 3.339019536972046 -0.058648872964497015 -0.7219014523808907 0.5445261402592413 -0.018509796524679174 2.8449534042062803 -0.8972246618259014
4.919422626495361 -1.4691065859845658 -1.8571230173110962 2.3849477010914306 -1.5963042418109339 3.339006185531616 -0.05869087959676915 -0.7219043954075572 0.5445533175139883 -0.01843941296012108 2.8449348603737055 -0.8973576789223513
4.919459342956543 -1.4690611076406022 -1.8571442365646362 2.384890242213867 -1.5963671843158167 3.33901047706604 -0.05865694470228597 -0.7218758084823864 0.544555956416285 -0.01851445314304975 2.8448934351795376 -0.8972710492946565
4.919471740722656 -1.4690686997822304 -1.8571813106536865 2.3848869043537597 -1.5963133017169397 3.3389732837677 -0.058654258812624524 -0.7218708924307484 0.5445243995335216 -0.018559287171228855 2.8449729873705873 -0.897240333349365
4.919435977935791 -1.4690935996225853 -1.85719895362854 2.3848911958881835 -1.596325699483053 3.3389644622802734 -0.05867446932700716 -0.7218735581350806 0.5444945553954279 -0.018525741496800863 2.844998291678275 -0.8971911518378541
4.919471740722656 -1.4690892559340973 -1.8571680784225464 2.3848749834248046 -1.5963581244098108 3.339006185531616 -0.05864872156573388 -0.7218789460736 0.5445157435142591 -0.01853269885772363 2.84494045183032 -0.8971839050207803
4.919434547424316 -1.4690935772708436 -1.8571274280548096 2.3849186140247802 -1.59629995027651 3.338994264602661 -0.05868283927600498 -0.7218954299013005 0.5445537903337412 -0.018471360215497924 2.8449507710846427 -0.8973323594456054
4.919422626495361 -1.4690968704274674 -1.8571486473083496 2.384931727046631 -1.5963414351092737 3.3390183448791504 -0.05868731681553545 -0.7218917466124141 0.5445362863074955 -0.018438637580007956 2.8449214577477977 -0.8972924561917478
4.919467449188232 -1.4690773275545617 -1.857161045074463 2.384894533748291 -1.5963614622699183 3.3390183448791504 -0.05865348408736532 -0.721878848385107 0.5445327249754274 -0.018511397037290805 2.844911983303385 -0.8972323585414702
4.919471740722656 -1.4690979358604928 -1.8571478128433228 2.384890242213867 -1.596353832875387 3.339010715484619 -0.05864850722307789 -0.721889148021014 0.5445279985134817 -0.018524665621011512 2.8449261713104192 -0.8972214160869305
4.91947603225708 -1.4691228878549119 -1.8571398258209229 2.384894533748291 -1.5963628927813929 3.338977575302124 -0.05863443978156051 -0.7219001444160581 0.5445183027235272 -0.018581739395549954 2.844933665840737 -0.897205265364988
4.919525146484375 -1.4691273284009476 -1.857131838798523 2.3848654466816406 -1.59633714357485 3.3390302658081055 -0.05861523106107658 -0.7219038949147598 0.5445146677068037 -0.018564577618345398 2.8449446853605322 -0.8971644773718844
4.919475078582764 -1.4691065859845658 -1.8571813106536865 2.3848749834248046 -1.5963342825519007 3.3389854431152344 -0.05864699808294471 -0.721882528323339 0.5444948934320119 -0.018555346506519126 2.8449830736261754 -0.8971590685807163
4.919447898864746 -1.4691185069135209 -1.8571521043777466 2.384927197093628 -1.596320931111471 3.3389854431152344 -0.05866589985489849 -0.7218996490910503 0.5445192311530406 -0.018511391346485644 2.844957971061214 -0.8972651398577326
4.919427394866943 -1.4690773275545617 -1.8571680784225464 2.384845657939575 -1.5963133017169397 3.339010715484619 -0.05869341633846576 -0.7218693826578477 0.5445192679913291 -0.018442793294825656 2.844998138560064 -0.8971923406343386
4.919480800628662 -1.4691380199841042 -1.8571892976760864 2.384898825282715 -1.5963581244098108 3.339043617248535 -0.05864641481589959 -0.7218954119019012 0.5444693855664877 -0.018490783209685696 2.844957831438947 -0.8971127810727677
4.91943883895874 -1.469089300637581 -1.8571442365646362 2.3848740297504882 -1.59633714357485 3.339047908782959 -0.05868425894516746 -0.7218836941149854 0.5445328525467862 -0.018417483439537797 2.84494172682089 -0.8972240791615884
4.919422626495361 -1.4690848898938675 -1.8571442365646362 2.3848740297504882 -1.596374813710348 3.3390183448791504 -0.058681930966648276 -0.7218798038376187 0.5445358591644771 -0.018453901680562886 2.844919790658387 -0.8972188962746561
4.919436931610107 -1.4691185665181656 -1.8571486473083496 2.3848869043537597 -1.5963133017169397 3.3390722274780273 -0.058693547086889036 -0.7218956188241681 0.5445115785203893 -0.018368522720059878 2.8449687178653202 -0.8972045056697106
4.919471740722656 -1.469097913508751 -1.857161045074463 2.384862108821533 -1.596328083668844 3.339010715484619 -0.05865574238314866 -0.7218828357712688 0.5445131431827684 -0.018512367739072614 2.84497275876366 -0.8971795795230088
4.919450283050537 -1.4690485087088128 -1.8571486473083496 2.384882612819336 -1.5963628927813929 3.339027166366577 -0.05866911211097456 -0.7218690104705349 0.5445594936784861 -0.018475986860976137 2.844894852813953 -0.8972725635339553
4.91946268081665 -1.4690849122456093 -1.8571070432662964 2.3848740297504882 -1.5963085333453577 3.3390555381774902 -0.05867344845175037 -0.7218933335711001 0.5445645151144348 -0.018428377040472302 2.8449309602968573 -0.8972890269821603
4.919480800628662 -1.469090351169445 -1.857131838798523 2.384922905559204 -1.59633714357485 3.3390228748321533 -0.05864704011546837 -0.7218958504208315 0.544551779168135 -0.018513365240628927 2.844899509149138 -0.897301785163763
4.91951322555542 -1.4691466850093384 -1.8571770191192627 2.384866400355957 -1.5963495413409632 3.3390138149261475 -0.05861863376598646 -0.7218988232101852 0.5444674128813377 -0.018575227287374 2.844981378549584 -0.89707804615629
4.919471740722656 -1.4690979358604928 -1.8571938276290894 2.3848859506794433 -1.596386734639303 3.3390390872955322 -0.05864913530631916 -0.7218769508915945 0.5444907102895685 -0.018498204051257204 2.8449238463996074 -0.8971305762801911
4.919471740722656 -1.4690654513290902 -1.8571617603302002 2.384838028545044 -1.5963628927813929 3.338989734649658 -0.058646801408263796 -0.721866649545297 0.5445302039880443 -0.01855875979755097 2.8449446688202773 -0.8971753129087157
4.919472694396973 -1.4690860372832795 -1.8572007417678833 2.3848578172871093 -1.5963414351092737 3.3389973640441895 -0.058652424353803925 -0.7218680213758008 0.5444905858830205 -0.01853815897708816 2.844984906645211 -0.8971317348627598
4.91947603225708 -1.4691336911967774 -1.8571354150772095 2.3848869043537597 -1.5963414351092737 3.339006185531616 -0.058644112781395225 -0.7219049330059757 0.5445123345642983 -0.018530968755829012 2.844952853625206 -0.8971922273079799
4.919487953186035 -1.469111056332924 -1.857181429862976 2.3849186140247802 -1.5963414351092737 3.339006185531616 -0.05863872159164453 -0.7218908234731072 0.5444994324485289 -0.018547570662316104 2.8449446943399868 -0.8972011655768313
4.919463634490967 -1.4691466999104996 -1.8571574687957764 2.384890242213867 -1.5963414351092737 3.339048147201538 -0.058661424757820255 -0.7219044845451787 0.5444860374151732 -0.018452790850969732 2.844965675076334 -0.8971437619116515
4.919443607330322 -1.469019354586937 -1.857161045074463 2.384890242213867 -1.5963414351092737 3.3389687538146973 -0.058669853296954774 -0.7218561873897958 0.5445740888518034 -0.018540306904132324 2.8449131249342403 -0.8973297476725732
4.919487953186035 -1.469127320950367 -1.85723078250885 2.384882612819336 -1.5963581244098108 3.3390138149261475 -0.05863870785444859 -0.7218794959689993 0.5444431423164835 -0.018542543888011933 2.8449924444321733 -0.8970540834903536
4.919431686401367 -1.469109834437706 -1.857163667678833 2.384890242213867 -1.5963123480426233 3.3389809131622314 -0.058680847754976215 -0.7218879918608863 0.5445096345432398 -0.01849054972319578 2.8449949754171135 -0.8972201994178195
4.919434547424316 -1.4690654066256066 -1.85712468624115 2.3848740297504882 -1.596374813710348 3.339006185531616 -0.05867137190501848 -0.721878122990218 0.5445645351460866 -0.01848907664480805 2.8448952946268484 -0.8972713806587955
4.919450283050537 -1.4691022869995614 -1.8571521043777466 2.3848740297504882 -1.5963547865497034 3.339015007019043 -0.058664946786625684 -0.7218862296521029 0.5445184160798539 -0.018488185655095066 2.8449453933936617 -0.8971908638857282
4.919463634490967 -1.4691098418882866 -1.857161045074463 2.384894533748291 -1.5963323752032679 3.339027166366577 -0.058662142273011135 -0.7218910878945607 0.5445106021441463 -0.0184793333395824 2.844954757807725 -0.8972032669797493
4.919528484344482 -1.4690610629371186 -1.8571770191192627 2.38491074621167 -1.596325699483053 3.3389809131622314 -0.05861172751675482 -0.7218755256107858 0.5445370755003976 -0.01863516683709483 2.844923980172366 -0.897269066414198
4.919435977935791 -1.4691542398980637 -1.8571486473083496 2.3849193292805175 -1.596370045338766 3.3390228748321533 -0.05866815941364892 -0.7219105430356956 0.5444931934750865 -0.018462820503848457 2.8449370118971 -0.8971798145252639
4.919471740722656 -1.4691098567894478 -1.8571486473083496 2.384906454677246 -1.5963457266436976 3.3390016555786133 -0.05864728665624325 -0.7218955039668044 0.5445227193889948 -0.01853367038161438 2.84493289082903 -0.8972322506448899
4.919459342956543 -1.4690686252764245 -1.857181429862976 2.3849033552357177 -1.5962966124164026 3.339052438735962 -0.05868219898841198 -0.721873732890792 0.5445256589570844 -0.01842141762031645 2.844960375825482 -0.8972581398727786
4.919445991516113 -1.4691098493388672 -1.8571770191192627 2.3849031168171386 -1.5963457266436976 3.339015007019043 -0.058670051378214606 -0.721886876468635 0.5445002176095955 -0.018477376472470487 2.8449561393804226 -0.8971921107677199
4.919487953186035 -1.4690979284099122 -1.8572378158569336 2.3849150377460937 -1.596320931111471 3.3390390872955322 -0.058653813650829376 -0.7218730567752951 0.5444647316592672 -0.01849027682209828 2.8449825471641565 -0.8971427085525485
4.919480800628662 -1.4691304501942177 -1.8571486473083496 2.3849150377460937 -1.5963791052447718 3.339006185531616 -0.058632336448471684 -0.7219036799988379 0.5445091432691399 -0.018554949606533325 2.844909788149153 -0.8971955669954098
4.919459342956543 -1.4691141483238717 -1.8571770191192627 2.3848532873341064 -1.5963299910174769 3.3390138149261475 -0.05866471320441035 -0.7218828334055789 0.5444879258312112 -0.01849039091779228 2.844999238270373 -0.8971252505376429
4.919485092163086 -1.4690654140761872 -1.8571230173110962 2.384854479427002 -1.5963457266436976 3.3390214443206787 -0.05864489981411959 -0.7218798044440582 0.5445622411598561 -0.018525745491409517 2.8449130469146393 -0.897249825802339
4.91951322555542 -1.4690441575697442 -1.8570868968963623 2.384890242213867 -1.5963838736163538 3.3389763832092285 -0.05860586517511142 -0.7218858555807419 0.5446116971072806 -0.018648958045229203 2.844827717233862 -0.8973579785107979
4.919459342956543 -1.469036580329277 -1.857181429862976 2.3849150377460937 -1.5963838736163538 3.3390228748321533 -0.05865870068136374 -0.7218612032606748 0.544548917601487 -0.018504308677037718 2.84486940366072 -0.8972760323292631
4.919455051422119 -1.4691423711231728 -1.857181429862976 2.3849074083515625 -1.5963833967791956 3.3389732837677 -0.05864444758310932 -0.7218969899732707 0.5444754367235005 -0.018566075158739967 2.844953651247498 -0.8971345648605565
4.919495582580566 -1.4691055131009598 -1.8571354150772095 2.384906454677246 -1.5963323752032679 3.338973045349121 -0.05862709090699073 -0.7218985585270989 0.54453691327755 -0.018602591750328412 2.84493351067461 -0.8972639588364983
4.919445991516113 -1.4691141855767746 -1.857145071029663 2.38491074621167 -1.596320931111471 3.3390183448791504 -0.05867416301562284 -0.7218978450702981 0.5445233752016775 -0.018461978116567808 2.8449535546583857 -0.8972520974158544
4.919455051422119 -1.4690979284099122 -1.8571724891662598 2.384882612819336 -1.5963414351092737 3.3390390872955322 -0.05867042454066535 -0.7218818708493289 0.5445073177070348 -0.018454234789494255 2.8449538206293763 -0.897182331060075
4.919406414031982 -1.4691228729537507 -1.857161045074463 2.38491074621167 -1.5963581244098108 3.3390183448791504 -0.058694492668621284 -0.7218937686438521 0.5445043457690921 -0.01842219184898968 2.844949051084654 -0.8972068860171021
4.919463634490967 -1.4690935921720047 -1.8571770191192627 2.384882612819336 -1.596374813710348 3.3390016555786133 -0.05864984063254758 -0.7218783957157043 0.544507181953958 -0.018535012935860042 2.8449336623702153 -0.8971699070653075
4.919495582580566 -1.4690697503140946 -1.8571680784225464 2.3848869043537597 -1.5963133017169397 3.3389854431152344 -0.05863869361127383 -0.7218759887736763 0.5445333234903619 -0.01857613396611563 2.8449561787300386 -0.8972495628864645
4.919463634490967 -1.4690859925797959 -1.8571981191635132 2.384878321284912 -1.5963414351092737 3.3389523029327393 -0.05864940166125067 -0.7218703554213299 0.5444979263064977 -0.018589665978023185 2.844983908300492 -0.8971736547343057
4.919480323791504 -1.4690892484835167 -1.857181429862976 2.384882612819336 -1.596325699483053 3.3390183448791504 -0.05865274719627406 -0.7218782956414596 0.5445075762836333 -0.018512470522382363 2.8449652137953687 -0.8971895149040685
4.91946268081665 -1.4691467744163056 -1.85720956325531 2.384862108821533 -1.5963457266436976 3.3390285968780518 -0.058660675530648784 -0.721887762608475 0.5444415537047157 -0.018479810492943644 2.845017130243366 -0.8970375591607642
4.919520854949951 -1.4690935921720047 -1.8571654558181763 2.384898825282715 -1.596365753804342 3.339027166366577 -0.05861460760897942 -0.7218872794219201 0.5445185678973224 -0.01857622189562893 2.844902577322972 -0.8971957294136906
4.91945219039917 -1.4690653693727036 -1.857109785079956 2.384878321284912 -1.5963547865497034 3.339060068130493 -0.05867293510121414 -0.7218844882285665 0.5445755809321816 -0.01842862439676274 2.8448818601026833 -0.8972937784576558
4.919463634490967 -1.4691799742034455 -1.8572139739990234 2.384894533748291 -1.5962923208819788 3.3390228748321533 -0.058667852709685685 -0.7219043527598503 0.5444229715566153 -0.018464210802393657 2.845065094896119 -0.8970602505885632
4.919480323791504 -1.4691098642400284 -1.85715651512146 2.384882612819336 -1.5963342825519007 3.3389480113983154 -0.05863410786839616 -0.721890554921553 0.5445139628966231 -0.018616669656159775 2.844972677687813 -0.8972046248702923
4.919422626495361 -1.469139189725258 -1.8571770191192627 2.384862108821533 -1.5963495413409632 3.3390467166900635 -0.05869120289196671 -0.7218906486333638 0.5444708138743212 -0.018399788900354052 2.844995091610982 -0.8970937694610281
4.919508934020996 -1.4691586804440995 -1.85720956325531 2.3849474626728515 -1.5963166395770472 3.3389809131622314 -0.0586213436356786 -0.7219065273970311 0.5444520617063198 -0.01860043990838861 2.844994893939211 -0.8971523750746683
4.91943883895874 -1.4691022720984002 -1.857184886932373 2.384801073665283 -1.59633714357485 3.338989734649658 -0.05867578449501489 -0.7218679420313623 0.5444805590248162 -0.018498553286056162 2.845034466678158 -0.8970653224440855
4.919467449188232 -1.4691423934749146 -1.8571698665618896 2.384882612819336 -1.596320931111471 3.339027166366577 -0.058660319032949076 -0.7218994658721615 0.5444792787276692 -0.01847845789739613 2.8449962306741865 -0.8971370053728974
4.919528484344482 -1.4691185441664238 -1.8571397066116333 2.384878321284912 -1.5963495413409632 3.338998794555664 -0.05860452351498008 -0.7219001131510832 0.5445179486159404 -0.018619924501447272 2.8449328563943515 -0.8971819809040233
4.919409275054932 -1.46908604473386 -1.8571654558181763 2.384927197093628 -1.59633714357485 3.339006185531616 -0.05869730730355704 -0.7218824273879338 0.5445306655853416 -0.01843484323299883 2.8449379471203193 -0.897285676043891
4.919497013092041 -1.469102294450142 -1.8571397066116333 2.38491074621167 -1.5963075796710413 3.339060068130493 -0.05864919961468862 -0.7218987504773203 0.5445347933871385 -0.018469345289795724 2.8449301181552435 -0.8972640521825214
4.919450283050537 -1.469130427842476 -1.8571486473083496 2.3848740297504882 -1.596374813710348 3.339010715484619 -0.058657300317188146 -0.7218964825938563 0.5445011252831539 -0.018502886546870597 2.8449455322213235 -0.8971478223327394
4.919456958770752 -1.4690653842738648 -1.857181429862976 2.3848694997974853 -1.5963495413409632 3.339016914367676 -0.058666053261575396 -0.7218659889999764 0.5445210439640604 -0.01849269391849309 2.8449455337918086 -0.8971960581417813
4.919455051422119 -1.469065436427929 -1.8571442365646362 2.3848740297504882 -1.596353832875387 3.339010715484619 -0.05866320951099433 -0.7218752598697288 0.5445501059070907 -0.018501687729994214 2.844918090875044 -0.8972513572712479
4.919463634490967 -1.4691142004779358 -1.8571760654449463 2.384866400355957 -1.5963910261737269 3.3390138149261475 -0.05864741533675558 -0.7218834620367386 0.544489673685255 -0.018524542836581108 2.8449397932318203 -0.8971105731193569
4.919434547424316 -1.4691274476102372 -1.857161045074463 2.384898825282715 -1.5963299910174769 3.339060068130493 -0.05868875652058379 -0.7218966834122582 0.5444983072170929 -0.018389674150284196 2.8449646216432454 -0.8971859145076057
4.919443607330322 -1.4690697354129334 -1.857181429862976 2.3849562841602783 -1.5963390509234827 3.338994264602661 -0.058671011823186056 -0.7218785558408882 0.5445358878810722 -0.018501681832140907 2.844912099173574 -0.8973198368008195
4.919492721557617 -1.4690935623696824 -1.8571397066116333 2.384878321284912 -1.5963881651507776 3.339006185531616 -0.05862492094070716 -0.7218881678332911 0.544534131491217 -0.018576855716533922 2.844893445511175 -0.8972004737076031
4.919508934020996 -1.4691022795489808 -1.8572139739990234 2.384898825282715 -1.5963776747332972 3.3390183448791504 -0.058620613532761434 -0.7218775828407011 0.5444757982311436 -0.018575951956473644 2.8449338227126053 -0.8971166093888007
4.91943883895874 -1.4691348236850281 -1.8571847677230835 2.384898825282715 -1.596295181904928 3.3390228748321533 -0.05868685381807952 -0.721894359346017 0.5444771854520032 -0.018432068538634043 2.845020260917458 -0.8971693050314525
4.91948938369751 -1.4690892708352585 -1.8571724891662598 2.384862108821533 -1.5963791052447718 3.338989734649658 -0.05862855046643606 -0.7218764142502223 0.544509851403563 -0.01859060432597883 2.844933493622861 -0.8971491460735206
4.91947603225708 -1.4690979284099122 -1.8571724891662598 2.3849477010914306 -1.596295181904928 3.3390016555786133 -0.05865665700836695 -0.7218927496500721 0.5445222584648668 -0.018516629801149164 2.8449547878036454 -0.8972980230986806
4.919443607330322 -1.469126121406891 -1.8571892976760864 2.384894533748291 -1.5962923208819788 3.3389732837677 -0.05867525575443755 -0.7218893611003261 0.5444804891203063 -0.01850822645644561 2.845033475982605 -0.897179545049548
4.919463634490967 -1.4690935474685212 -1.85724675655365 2.38491074621167 -1.5963457266436976 3.3389854431152344 -0.05865606133756915 -0.7218660328111862 0.5444611386316458 -0.018543332898993545 2.844987319405625 -0.8971329696728191
4.91943883895874 -1.4690979284099122 -1.8571902513504028 2.38491074621167 -1.5963862578021448 3.338994264602661 -0.058663315495824805 -0.7218787276310814 0.5444995894440953 -0.018515329942942593 2.8449262006541174 -0.8971844412645279
4.919455051422119 -1.4690571662834664 -1.8571698665618896 2.384894533748291 -1.5963457266436976 3.339036226272583 -0.058671474794124934 -0.7218694631104058 0.5445399118999252 -0.018461377383495306 2.8449166096336587 -0.8972549383178453
4.919497013092041 -1.4691111382893105 -1.8571813106536865 2.3848458963581542 -1.59633714357485 3.3390092849731445 -0.058635643053113716 -0.7218816888977599 0.5444852840812234 -0.018553557650313607 2.8449900231013405 -0.8971031779746398
4.919497013092041 -1.469134771530964 -1.857163667678833 2.3849357801624755 -1.5963500181781214 3.3390183448791504 -0.058629521827119904 -0.7219063067145182 0.5444991855142718 -0.018547039815864856 2.844925460542494 -0.8972074777778519
4.919447898864746 -1.4690935772708436 -1.8571892976760864 2.384862108821533 -1.5963428656207483 3.339043617248535 -0.05867787593038312 -0.7218730926100548 0.5444934525735909 -0.018437836347210922 2.8449738828648963 -0.8971377389475926
4.919410705566406 -1.4691304725459595 -1.8571354150772095 2.38491074621167 -1.596325699483053 3.338965654373169 -0.058686447153505544 -0.7219031389309304 0.5445207998773356 -0.01848890960640469 2.8449758928056865 -0.8972580656893009
4.919430255889893 -1.4690697652152558 -1.8571770191192627 2.384931727046631 -1.5963786284076136 3.339043617248535 -0.05868185380821717 -0.7218750217056668 0.5445319896364504 -0.01843048276291273 2.8448838470245748 -0.8972643132764812
4.91945219039917 -1.4690729540637513 -1.857163667678833 2.384890242213867 -1.5963500181781214 3.3390183448791504 -0.058667658701864085 -0.7218754933334927 0.5445332207083872 -0.018484488032959732 2.8449268557409204 -0.8972380872365654
4.919517517089844 -1.469086007480957 -1.8571847677230835 2.384906454677246 -1.5963862578021448 3.3390138149261475 -0.058611097153622116 -0.7218800656246698 0.5445106036070223 -0.01859965454108091 2.844892621224525 -0.8971825748301816
4.919434547424316 -1.4691348236850281 -1.8571354150772095 2.3849400716968994 -1.5963667074786585 3.3390228748321533 -0.058670173665083133 -0.7219096371499145 0.5445208179356561 -0.018460175592799857 2.8449069156912716 -0.8972536794191925
4.919485092163086 -1.4690610331347962 -1.8571442365646362 2.384927197093628 -1.5963457266436976 3.338989734649658 -0.05863815923492566 -0.7218826454974615 0.5445643583790344 -0.01857101227366984 2.844886277776924 -0.8973314178137557
4.919414043426514 -1.4691467446139832 -1.857181429862976 2.384894533748291 -1.5963743368731897 3.339064598083496 -0.058694142753601214 -0.7218957179322193 0.5444674274615715 -0.01837342591027127 2.8449602139556407 -0.8971062351408149
4.919480800628662 -1.4691142004779358 -1.85713529586792 2.3849596220203857 -1.5963457266436976 3.339006185531616 -0.058639251988946914 -0.7219080639852985 0.5445400506471473 -0.01854067734215952 2.8448908964325397 -0.8973132541223976
4.919443607330322 -1.4690979284099122 -1.8571566343307495 2.384890242213867 -1.59633714357485 3.3389809131622314 -0.05866715834914181 -0.7218854736141265 0.5445226144352848 -0.018519285497795343 2.844959876389335 -0.8972299983605824
4.919455051422119 -1.4690366399339219 -1.857157588005066 2.384878321284912 -1.5963786284076136 3.3389973640441895 -0.05865767687191633 -0.7218615555545859 0.5445606224535405 -0.01853244484296785 2.8448888976378846 -0.8972672516605895
4.919520854949951 -1.4690566819957276 -1.8571724891662598 2.3848869043537597 -1.596325699483053 3.3389809131622314 -0.05861794883758696 -0.7218713700351957 0.5445388897903018 -0.01862437079635856 2.8449351774316485 -0.8972504423976831
4.91948938369751 -1.4691337209990998 -1.8571432828903198 2.3849596220203857 -1.5963571707354944 3.339015245437622 -0.05863121384600356 -0.7219133926655217 0.5445199063852897 -0.018544562450807444 2.8448942794662426 -0.8972666723272169
4.919467926025391 -1.4690773052028199 -1.857131838798523 2.3848458963581542 -1.5963581244098108 3.3389687538146973 -0.058643872729128035 -0.7218787845468457 0.5445468777188465 -0.018581520887892423 2.844938520627341 -0.8972176447649237
4.91946268081665 -1.4690610331347962 -1.857157588005066 2.38491074621167 -1.5963581244098108 3.3389854431152344 -0.058651796853290625 -0.7218755023424582 0.544550867844958 -0.018550527452792454 2.844901620015135 -0.8972899803611433
4.919492721557617 -1.469093607073166 -1.8571521043777466 2.3848740297504882 -1.5963500181781214 3.339006185531616 -0.058634292879652106 -0.7218856540880191 0.5445248192573646 -0.01855906692515619 2.844934886925722 -0.8971984176533236
4.919422626495361 -1.469130517249443 -1.8571442365646362 2.3848816591450195 -1.5963543097125452 3.3390016555786133 -0.05867968359012857 -0.7218974358262402 0.5445066582724265 -0.018467262444631937 2.844964250755208 -0.8971821617041947
4.919445991516113 -1.46906532466922 -1.8571938276290894 2.384862108821533 -1.596292797719137 3.339006185531616 -0.05868551818556827 -0.721862749040398 0.5445119707914446 -0.018466067987441426 2.845009442044742 -0.8972042286124653
4.919467449188232 -1.469093569820263 -1.857161045074463 2.384932203883789 -1.5963299910174769 3.3390016555786133 -0.0586551202274493 -0.7218903989102933 0.544530062970374 -0.01852063733471167 2.8449284617202135 -0.8972814341990373
4.919463634490967 -1.4690935474685212 -1.8571770191192627 2.3848458963581542 -1.5963414351092737 3.3390302658081055 -0.058663998820907295 -0.7218746351995299 0.5445000240431562 -0.018478731344821035 2.8449765311672097 -0.897132733747082
4.919443607330322 -1.4690979433110734 -1.8571902513504028 2.384878321284912 -1.5963414351092737 3.339043617248535 -0.05868060025265304 -0.721876406019089 0.5444928995320946 -0.01843107232038518 2.8449694561383017 -0.8971540418966989
4.919445991516113 -1.4690859925797959 -1.857131004333496 2.3848859506794433 -1.5963872114764612 3.3389854431152344 -0.058654693216315466 -0.7218856408493525 0.54454809319688 -0.018540002021346157 2.8448966585764763 -0.8972464916546129
4.919492721557617 -1.4691304799965401 -1.8571804761886597 2.384890242213867 -1.59633714357485 3.339043617248535 -0.05864288698117741 -0.7218949505983807 0.544480133908648 -0.018498441847872093 2.8449668829090267 -0.8971320802937177
4.919483661651611 -1.469081663792469 -1.8571486473083496 2.3848740297504882 -1.5963214079486292 3.3390274047851562 -0.05865220606907588 -0.7218827287906147 0.5445358067756344 -0.018503239266678538 2.8449457634581234 -0.897232025161666
4.919393062591553 -1.4690935623696824 -1.8571938276290894 2.3849260050007324 -1.5963905493365687 3.3389809131622314 -0.05869286396354151 -0.7218754262962912 0.5445031814029719 -0.018471393931978025 2.844928029046984 -0.897215471228652
4.91951322555542 -1.4691023093513031 -1.857153058052063 2.3848869043537597 -1.5963414351092737 3.338994264602661 -0.05861814560415742 -0.7218915636182197 0.5445211290072615 -0.018601109891594286 2.844937449303724 -0.8972056803203529
4.919517517089844 -1.469077282851078 -1.8571770191192627 2.384894533748291 -1.5963342825519007 3.339006185531616 -0.05862190925479965 -0.7218785208885172 0.5445216952738181 -0.018587029832930296 2.8449338604910226 -0.8972180094875674
4.919467449188232 -1.4690935623696824 -1.857131838798523 2.384955330485962 -1.596325699483053 3.338989734649658 -0.05865164094666043 -0.7219005305650393 0.5445571335262109 -0.018536501302129978 2.8449023286994617 -0.8973564816324539
4.919455051422119 -1.4690816414407273 -1.8571486473083496 2.384841127986572 -1.5963342825519007 3.338989734649658 -0.058663365024259714 -0.7218757795373631 0.544530188952124 -0.018521900964522827 2.8449723110678575 -0.8971939843285539
4.919463634490967 -1.4691066306880494 -1.8571680784225464 2.384890003795288 -1.5963991324054163 3.338998794555664 -0.058642155529242554 -0.7218854964015688 0.544505822389378 -0.018550177750822437 2.8449125574519036 -0.8971618923780608
4.919471740722656 -1.4690697205117722 -1.8571937084197998 2.384894533748291 -1.5963743368731897 3.338998794555664 -0.058645851025203574 -0.7218679623872843 0.5445135552914878 -0.018550635845943745 2.844920775057859 -0.8971948291382214
4.919497013092041 -1.469086007480957 -1.8571158647537231 2.384894533748291 -1.5963214079486292 3.3390347957611084 -0.05864149278915695 -0.7218958079863622 0.5445613770129883 -0.018512500146654846 2.844910040127113 -0.8972937262405503
4.919422626495361 -1.4690979433110734 -1.8571902513504028 2.384923143977783 -1.5963414351092737 3.338994264602661 -0.058684834504154716 -0.7218806783911993 0.5445030988038883 -0.018471860173227033 2.84495924665823 -0.8972283414396761
4.919485092163086 -1.469114178126194 -1.8571724891662598 2.384885712260864 -1.596370045338766 3.3389809131622314 -0.058629490197705046 -0.7218883730204986 0.544497645282503 -0.018592502508528508 2.844945056236536 -0.8971549217303028
4.919504642486572 -1.4691023019007226 -1.85715651512146 2.384885712260864 -1.5963299910174769 3.339006185531616 -0.05862949301176281 -0.7218905161566098 0.5445182169830937 -0.01856660895763831 2.844948992759287 -0.8972049108164503
4.919471740722656 -1.469086007480957 -1.857157588005066 2.384927435512207 -1.596309010182516 3.339019536972046 -0.05866080850426708 -0.7218889219714099 0.5445369884264807 -0.018491889214469634 2.8449361259839288 -0.8972966626473026
4.919492721557617 -1.4690816488913079 -1.8571902513504028 2.384873791331909 -1.5963829199420374 3.3389973640441895 -0.058627957146224166 -0.7218712021246831 0.544503669930839 -0.018586068330443625 2.8449267546375454 -0.8971470415116614
4.919455051422119 -1.469114215379097 -1.857191801071167 2.384894533748291 -1.5964034239398401 3.3390302658081055 -0.05865412871895498 -0.7218828619279434 0.5444824644751843 -0.018494420163007477 2.844920366577826 -0.8971191009824923
4.91951322555542 -1.469114215379097 -1.857181429862976 2.384899063701294 -1.5963948408709925 3.3390228748321533 -0.05861196664550992 -0.7218895258952932 0.5444916221441556 -0.01858394844803591 2.844904631105168 -0.8971336658049098
4.919450283050537 -1.4691392195275803 -1.857131838798523 2.384885712260864 -1.5963500181781214 3.339006185531616 -0.05866019669141127 -0.7219058555763121 0.5445107578318515 -0.018498259438270274 2.844954574779139 -0.8971885032478677
4.919443607330322 -1.469061018233635 -1.857130765914917 2.384894533748291 -1.5963171164142054 3.339036226272583 -0.05868391983708317 -0.7218803328511145 0.5445675194967845 -0.018432852218230645 2.8449208968592785 -0.8973198823153922
4.919450283050537 -1.469086007480957 -1.8571486473083496 2.3848647314259033 -1.5963171164142054 3.3389854431152344 -0.05866890447639413 -0.7218806730827144 0.5445323123264241 -0.018513440826166835 2.844976686401068 -0.8972308963649729
4.919434547424316 -1.4691098493388672 -1.8571308851242065 2.384894533748291 -1.5963457266436976 3.33906888961792 -0.05868681476843599 -0.7218967652011313 0.5445318604326316 -0.018385414184364787 2.844922553764326 -0.8972341132606445
4.919480800628662 -1.4690935623696824 -1.8571892976760864 2.384894533748291 -1.596353832875387 3.3390228748321533 -0.05864670594796813 -0.7218788789915404 0.5445001328157716 -0.01851937260258458 2.8449413214923744 -0.8971731396802701
4.919463634490967 -1.4690935772708436 -1.857161045074463 2.384870691890381 -1.5962751547442835 3.338994264602661 -0.058670417141884035 -0.72188322017944 0.544519611453191 -0.01850020782018169 2.845013928916886 -0.8972301851742399
4.9194183349609375 -1.4690816414407273 -1.8571654558181763 2.3848976331898193 -1.5963829199420374 3.33906888961792 -0.05869389078786154 -0.7218768806529741 0.5445249871320827 -0.018379274930659644 2.8448986095673554 -0.8972130327878148
4.919529914855957 -1.4690697205117722 -1.857153058052063 2.384873791331909 -1.596370045338766 3.3389973640441895 -0.05860300277373515 -0.7218784246222126 0.5445404053721041 -0.018634179256345064 2.8448968497491314 -0.8972125536897847
4.919480800628662 -1.4691054981997986 -1.85715651512146 2.384890242213867 -1.5963500181781214 3.338956832885742 -0.058632072541890984 -0.7218897438146046 0.5445178392869007 -0.01861214349796806 2.844950163337436 -0.8972104929061916
4.91946268081665 -1.4690353360823174 -1.85713529586792 2.3848485189625244 -1.596325699483053 3.338982105255127 -0.058660859415391994 -0.721864100065707 0.5445743199732137 -0.018541130677034088 2.8449373916053116 -0.8972886819542375
4.919467926025391 -1.4690484267524262 -1.857161045074463 2.384899063701294 -1.5963457266436976 3.3390016555786133 -0.05865543442883354 -0.7218694334766749 0.5445545533275726 -0.01852934770388841 2.84490790606604 -0.8972889296016756
4.919467449188232 -1.4691392195275803 -1.8571770191192627 2.384899063701294 -1.5963414351092737 3.338989734649658 -0.058648463464932764 -0.7218978532658643 0.544479879047466 -0.018541172733599797 2.8449809746500225 -0.8971502484062543
4.919459342956543 -1.469114215379097 -1.8571521043777466 2.384906454677246 -1.5963495413409632 3.339006185531616 -0.05865612120699337 -0.7218954475363545 0.5445168509440107 -0.018511166537791092 2.8449368066354284 -0.8972212666968751
4.919492721557617 -1.4691511404565354 -1.8571938276290894 2.384901924724243 -1.5963414351092737 3.3389687538146973 -0.05862597636655828 -0.7218996764193626 0.5444600600556786 -0.018606303251846736 2.8449955997576373 -0.8971146557244789
4.919455051422119 -1.4691098493388672 -1.857181429862976 2.384869261378906 -1.5963495413409632 3.3390183448791504 -0.058664413507339766 -0.7218816858113373 0.5444900800307003 -0.018486900418421524 2.8449735455288976 -0.8971360928054638
4.919504642486572 -1.469126136308052 -1.857184886932373 2.384901924724243 -1.5963543097125452 3.3390347957611084 -0.058628901292804736 -0.7218940612026541 0.5444819318602846 -0.018535880281926525 2.8449447596891377 -0.8971379124738097
4.919485092163086 -1.469065361922123 -1.857131838798523 2.384878082866333 -1.5963214079486292 3.3390228748321533 -0.05865052499695296 -0.7218815466546962 0.5445607665704258 -0.018512531265055598 2.8449233414127306 -0.8972825771187327
4.919471740722656 -1.4691098493388672 -1.8571442365646362 2.384910984630249 -1.5963829199420374 3.3390016555786133 -0.058638530451511864 -0.7218961698485488 0.5445260334662899 -0.018550835036003726 2.8448970812673577 -0.8972243602520464
4.919427394866943 -1.469102294450142 -1.8571770191192627 2.384923143977783 -1.5963299910174769 3.339027166366577 -0.0586894776045138 -0.7218863862232838 0.5445094025486704 -0.018426750562597575 2.8449537497320714 -0.8972389364252817
4.919463634490967 -1.4690848600915452 -1.8571743965148926 2.384878082866333 -1.5963786284076136 3.3389852046966553 -0.05864636169478667 -0.7218750050088177 0.5445147344201156 -0.01856042280878156 2.8449302917799457 -0.8971802778474842
4.91945219039917 -1.4690522712520142 -1.857181429862976 2.384869261378906 -1.5963786284076136 3.339006185531616 -0.058661778132827885 -0.7218600957094146 0.5445297041571739 -0.01851482133106861 2.8449177133832277 -0.8972008430005819
4.9194416999816895 -1.4690565404346962 -1.8571521043777466 2.384923143977783 -1.596325699483053 3.3390228748321533 -0.05868139996616145 -0.7218769945215784 0.5445602528979396 -0.01845288649020445 2.844910481607202 -0.8973341883774649
4.91943883895874 -1.4690979284099122 -1.8571486473083496 2.384869261378906 -1.5962970892535608 3.338994264602661 -0.05868243408130012 -0.7218855058027671 0.5445251514784459 -0.018475200230435133 2.84499845370365 -0.8972322292696894
4.919483661651611 -1.4691305694035073 -1.857131838798523 2.384861631984375 -1.5963414351092737 3.3390016555786133 -0.05863841665204761 -0.7219016428870744 0.5445124070403538 -0.018548241338388942 2.844963417934 -0.8971665775426723
4.919422626495361 -1.469163031583168 -1.8571680784225464 2.384885712260864 -1.5963457266436976 3.338982105255127 -0.05867646311458144 -0.7219038266489084 0.5444676196472382 -0.01848987531306123 2.845008616243296 -0.8971203802093602
4.919492721557617 -1.4690979209593316 -1.8571892976760864 2.384901924724243 -1.59633714357485 3.3389854431152344 -0.05863396738568369 -0.7218821411705376 0.5445000574610868 -0.018581926462391065 2.8449590325156966 -0.8971912336820594
4.919495582580566 -1.469151110654213 -1.8571858406066895 2.3848976331898193 -1.5963829199420374 3.338989734649658 -0.05861837517410317 -0.721900296151327 0.5444636517204504 -0.01859963805244386 2.8449536526640675 -0.897092697367446
4.919506072998047 -1.4690483820489426 -1.85713529586792 2.384927435512207 -1.5962961355792444 3.339027166366577 -0.05864209985449362 -0.7218833392846413 0.5445800712789398 -0.018525317940183507 2.8448983824357184 -0.8973757364964154
4.919419765472412 -1.4690935027650376 -1.8571397066116333 2.384906454677246 -1.5963667074786585 3.338944435119629 -0.05866951946431717 -0.7218875375988776 0.5445420044950415 -0.01855151308283015 2.8449276215767894 -0.8972766334456471
4.91947603225708 -1.4690979284099122 -1.8571724891662598 2.384901924724243 -1.5963414351092737 3.3390228748321533 -0.05865157507721231 -0.7218855324963049 0.544511563830483 -0.01850726864909597 2.8449403224433896 -0.8972073927906726
4.919459342956543 -1.469077245598175 -1.8571892976760864 2.384878082866333 -1.596370045338766 3.339010715484619 -0.05865776794007155 -0.7218689965285687 0.5445082104638056 -0.01851389165998144 2.844936729645165 -0.8971708838910383
4.919534206390381 -1.4691349279931565 -1.8571308851242065 2.384890003795288 -1.5963500181781214 3.3390347957611084 -0.0586054202866893 -0.7219104000216879 0.5445144572019553 -0.01857690855344998 2.844919682953676 -0.8971790271901284
4.919538497924805 -1.4691468191197892 -1.85715651512146 2.384894533748291 -1.5963457266436976 3.3390228748321533 -0.05860124951845594 -0.7219093128771787 0.5444881505357217 -0.018597164582011046 2.8449455426415606 -0.8971385354442604
4.919471740722656 -1.469130517249443 -1.8571274280548096 2.384906454677246 -1.5963013807879847 3.338989734649658 -0.05865234113570572 -0.7219090156898094 0.5445258631048429 -0.018530361023720226 2.844971509884602 -0.897259117080384
4.919471740722656 -1.4690772679499169 -1.8572185039520264 2.384873791331909 -1.5963133017169397 3.3390095233917236 -0.058663023844883096 -0.7218636503229472 0.5444866898196946 -0.01850650535013801 2.845000804809203 -0.8971540195918579
4.919483661651611 -1.4690979284099122 -1.8571158647537231 2.384878082866333 -1.5963175932513636 3.3390393257141113 -0.05865242994636087 -0.7218971907108254 0.544549848104914 -0.018484937885414204 2.8449331489586203 -0.8972593496774773
4.919480800628662 -1.4690758821419259 -1.8572309017181396 2.38493196546521 -1.5963991324054163 3.3390049934387207 -0.05863539950852349 -0.7218662325951495 0.5444876576201565 -0.018565268831621854 2.8449005946059347 -0.8971706898871086
4.919471740722656 -1.4690653395703812 -1.8571397066116333 2.3848811823078613 -1.596332852040426 3.3390274047851562 -0.05865879290620438 -0.7218790297897575 0.5445550212809 -0.018492186113313856 2.844919404241142 -0.8972718294249147
4.919504642486572 -1.4691511255553742 -1.8571858406066895 2.3848811823078613 -1.5963624159442347 3.338989734649658 -0.05861689956345352 -0.7218991532750294 0.5444609327691682 -0.01860300951457798 2.8449781428965086 -0.8970797120766972
4.919419765472412 -1.4690609586289902 -1.857184886932373 2.384885712260864 -1.5963414351092737 3.3390016555786133 -0.05869180662082702 -0.7218636411508549 0.544525313601093 -0.018458003093123444 2.844954959365831 -0.8972339301648188
4.919508934020996 -1.46908604473386 -1.8571521043777466 2.3849143224903564 -1.5963495413409632 3.339006185531616 -0.05862221169227428 -0.7218893981621252 0.544537948443016 -0.01858234251257556 2.844901380189223 -0.8972598799011727
4.9194793701171875 -1.4690935549191018 -1.8572096824645996 2.384873791331909 -1.5963743368731897 3.3389971256256104 -0.05863959950518901 -0.7218702151282193 0.5444809206682849 -0.018562768881293514 2.8449568297153767 -0.897112235346528
4.9194793701171875 -1.46909353256736 -1.8571158647537231 2.384890003795288 -1.5963991324054163 3.339010715484619 -0.05863145074574426 -0.7218944474422893 0.5445540676940607 -0.01855710382350059 2.8448648079618115 -0.8972441447475359
4.9194183349609375 -1.46908604473386 -1.8571362495422363 2.384890003795288 -1.5963581244098108 3.339006185531616 -0.05868549303049944 -0.7218843595273144 0.5445449845178456 -0.018457753280658174 2.8449233084129593 -0.8972617864732323
4.919455051422119 -1.469134898190834 -1.857153058052063 2.384923143977783 -1.5963581244098108 3.339027166366577 -0.0586594984633471 -0.7219046100716544 0.5445041989696672 -0.018478728116216137 2.8449289986932564 -0.8972067678123017
4.919480800628662 -1.4691467744163056 -1.8571521043777466 2.384906454677246 -1.5963299910174769 3.3389928340911865 -0.05863999608752668 -0.7219086639847949 0.544495113405554 -0.018550953492022293 2.8449706290249575 -0.8971863909923988
4.919427394866943 -1.469101072554924 -1.8571442365646362 2.3848811823078613 -1.596309010182516 3.3389687538146973 -0.05868219162414616 -0.7218880078090191 0.5445290884308366 -0.018500842307548924 2.844989806089004 -0.8972509203154233
4.9194183349609375 -1.4690816190889855 -1.857181429862976 2.3849033552357177 -1.596325699483053 3.3389809131622314 -0.05869013132506124 -0.7218743173524891 0.5445180221259371 -0.018478025828907032 2.8449729921216473 -0.897247399531
4.919455051422119 -1.4691229847124596 -1.857181429862976 2.384890003795288 -1.5963500181781214 3.339003086090088 -0.0586597766688702 -0.7218889838823457 0.5444854445721719 -0.018508685953454847 2.8449722279658567 -0.8971491471355356
4.919445991516113 -1.4691098418882866 -1.8571680784225464 2.384915276164673 -1.5963214079486292 3.338977575302124 -0.05866738698907831 -0.7218908889910673 0.544511055599578 -0.018519846793584198 2.8449719357969614 -0.8972409510441687
4.919471740722656 -1.4691142228296776 -1.8571938276290894 2.3848647314259033 -1.596370045338766 3.3390016555786133 -0.05864485956886249 -0.7218798729377697 0.544476767015542 -0.018543339327101626 2.8449698171113638 -0.8970964782496481
4.919463634490967 -1.469130517249443 -1.8571442365646362 2.384976549739502 -1.5963581244098108 3.3390390872955322 -0.05865414195790673 -0.7219130687341763 0.5445239910478149 -0.018474633032018174 2.8448825685623462 -0.8972923579443849
4.919447898864746 -1.469068506067135 -1.857181429862976 2.384887142772339 -1.5963414351092737 3.3390228748321533 -0.05867491326342407 -0.7218692545747938 0.5445223445330092 -0.01846767185847193 2.8449440792237453 -0.8972205802862694
4.919459342956543 -1.4690729242614289 -1.857161045074463 2.384894533748291 -1.5963457266436976 3.339010715484619 -0.05866171593262216 -0.7218771412172617 0.5445363925337322 -0.018503643551999856 2.8449260208967515 -0.8972498230457527
4.91943883895874 -1.4690772604993363 -1.8571274280548096 2.384861870402954 -1.5963500181781214 3.3389899730682373 -0.05867025632223299 -0.721880762696739 0.544552940043513 -0.01850648063812735 2.8449349084207287 -0.897251043482445
4.919419765472412 -1.4691054758480568 -1.857181429862976 2.3848647314259033 -1.59633714357485 3.338973045349121 -0.05868418720053824 -0.7218772429165409 0.5444938664218245 -0.018495672417516842 2.8450039900090633 -0.897158477336683
4.919492721557617 -1.4691380646875878 -1.8572051525115967 2.384910984630249 -1.5963299910174769 3.338994264602661 -0.05863491933062177 -0.7218941438545724 0.5444618733288454 -0.01856483561031455 2.8449920020777593 -0.8971302871101555
4.9194746017456055 -1.4691011247089882 -1.8572264909744263 2.384976788158081 -1.5963543097125452 3.3390228748321533 -0.05865027658962916 -0.7218834247972199 0.5444827914485201 -0.018510301405573804 2.8449195709081008 -0.8972247603761472
4.91947603225708 -1.4690935400179406 -1.8571654558181763 2.3849407869526367 -1.5963414351092737 3.339015007019043 -0.058648977042419545 -0.721890845740352 0.5445277498679285 -0.018519014550022223 2.844911072144932 -0.8972766295160883
4.919480800628662 -1.4690903809717675 -1.8572026491165161 2.384901924724243 -1.5963457266436976 3.339019536972046 -0.05864860844977232 -0.721875721315187 0.544493981322558 -0.018520225426039295 2.844950497399718 -0.8971744364227968
4.919410705566406 -1.4690903809717675 -1.8571407794952393 2.38493196546521 -1.5963624159442347 3.339006185531616 -0.058688848746381105 -0.7218899489968228 0.5445466335560978 -0.018448963733323238 2.8449013818857467 -0.8973055972280741
4.919456958770752 -1.469074123804905 -1.8571982383728027 2.384890003795288 -1.5962675253497522 3.338956832885742 -0.058672418195786974 -0.7218693519618857 0.544510038329412 -0.018540249837096047 2.8450301220278504 -0.8972451916814363
4.919440269470215 -1.4691142377308388 -1.8571274280548096 2.384873791331909 -1.596332852040426 3.3390257358551025 -0.05867711040475192 -0.7218965142509948 0.5445289619471324 -0.018448938250634764 2.8449554539345288 -0.8972192438731674
4.919455051422119 -1.4691011023572464 -1.85722017288208 2.3848931032368164 -1.5963056723224085 3.3389854431152344 -0.0586698533586869 -0.7218732959063097 0.5444735414180619 -0.018513129501081013 2.8450211978319397 -0.8971579279216547
4.919504642486572 -1.4690816339901467 -1.8572335243225098 2.384906454677246 -1.5963214079486292 3.338956832885742 -0.05862662951131219 -0.721867115533313 0.5444800194322131 -0.018631773826089843 2.8449902981126427 -0.8971715424816276
4.9194793701171875 -1.4690697130611916 -1.8571009635925293 2.384939118022583 -1.5963500181781214 3.3389370441436768 -0.058627743419620605 -0.721896675021035 0.5445948373795235 -0.018640786502899635 2.844868171177683 -0.8974032159718235
4.919503211975098 -1.4690891814282914 -1.8571099042892456 2.38493196546521 -1.5963414351092737 3.339010715484619 -0.05862621785643173 -0.7219029891301205 0.544571205889279 -0.01856509783300882 2.844873091588157 -0.8973406892607486
4.9194746017456055 -1.4691173818758507 -1.8571096658706665 2.384878082866333 -1.596365753804342 3.339048147201538 -0.058648054592690665 -0.7219038739813446 0.5445395884083984 -0.018481243074057338 2.844902463442987 -0.8972157861149117
4.919450283050537 -1.4691743415645142 -1.857184886932373 2.384882612819336 -1.5963667074786585 3.3390347957611084 -0.058662257878235397 -0.7219050677075252 0.5444443840275905 -0.01846305149752254 2.8449909130715687 -0.8970512720944566
4.919463634490967 -1.4691261437586327 -1.8571715354919434 2.3848275381275634 -1.5963495413409632 3.3390016555786133 -0.05865428881610839 -0.7218845013435631 0.544478595356294 -0.01852242286175384 2.845005160157837 -0.8970729099009663
4.919471740722656 -1.4691424679807206 -1.857131838798523 2.384861631984375 -1.5963743368731897 3.3390390872955322 -0.058646087382771786 -0.7219047310929648 0.5445022385007802 -0.018492779278610094 2.8449380789635113 -0.8971279099341232
4.9194016456604 -1.4690660771778603 -1.8571202754974365 2.384887142772339 -1.5963342825519007 3.338998794555664 -0.05870221527948831 -0.7218802804542683 0.5445711776090822 -0.018434476826049897 2.844928239467935 -0.8973237623693706
4.919480800628662 -1.4690541636994858 -1.8571133613586426 2.384899063701294 -1.5963175932513636 3.3390228748321533 -0.058653827162380455 -0.7218847013045244 0.5445867107845674 -0.018505533215404497 2.8448960832025967 -0.8973535894484729
4.919422626495361 -1.4690935549191018 -1.85715651512146 2.384910984630249 -1.596309010182516 3.3389809131622314 -0.058688447703548065 -0.7218862928283531 0.5445304811790246 -0.01847684454348448 2.8449726249387775 -0.89728319658753
4.919410705566406 -1.469109797184803 -1.8572087287902832 2.3849407869526367 -1.5963457266436976 3.338994264602661 -0.0586920756029022 -0.72188203581745 0.5444842285747062 -0.01845629495402938 2.844966873906884 -0.8972114175189891
4.919431686401367 -1.4691023019007226 -1.8571680784225464 2.384894533748291 -1.5963056723224085 3.338989734649658 -0.05868477399413219 -0.7218851188872204 0.5445122710178734 -0.018475032668322608 2.8449936564678686 -0.8972320021612684
4.919447898864746 -1.4691112500480195 -1.857161045074463 2.384861870402954 -1.5963414351092737 3.338994264602661 -0.05866569943122788 -0.7218855948757452 0.5445039912902763 -0.018507718084274368 2.8449806149913672 -0.8971621723353798
4.919480800628662 -1.4690653395703812 -1.8571476936340332 2.384894533748291 -1.5963342825519007 3.3389642238616943 -0.058639514040115345 -0.7218786676015725 0.544553405206051 -0.018595594420953782 2.8449279762844757 -0.8972890400481519
4.919459342956543 -1.4690772754004975 -1.8571938276290894 2.384915276164673 -1.596309010182516 3.3390421867370605 -0.058677051796323244 -0.7218749939638033 0.5445125975171775 -0.018441281227267705 2.844958536836324 -0.8972413076979858
4.91943883895874 -1.4691098493388672 -1.8572142124176025 2.384910984630249 -1.596325699483053 3.3390274047851562 -0.05868389295228435 -0.7218792735651564 0.5444737444895001 -0.018439563516216787 2.8449896065262776 -0.897162433478376
4.919497013092041 -1.4691468712738533 -1.8571982383728027 2.384885473842285 -1.5963414351092737 3.339015245437622 -0.05863303057303778 -0.7218956650419837 0.5444551118139502 -0.018546070931019128 2.844993419278131 -0.8970822496287739
4.919495582580566 -1.4691217702678223 -1.8571090698242188 2.384857340449951 -1.596280876790182 3.3389732837677 -0.05863750622480938 -0.7219054027440228 0.5445372226576454 -0.018578575008420528 2.844999433965243 -0.897238908225308
4.91949987411499 -1.4691142302802582 -1.8571397066116333 2.384890242213867 -1.5963743368731897 3.338989734649658 -0.05861779009980671 -0.7218977411487544 0.5445229292753492 -0.01860371309544745 2.844912330681073 -0.8971980116249471
4.919455051422119 -1.4691587400487442 -1.8572442531585693 2.384939118022583 -1.5963342825519007 3.338977575302124 -0.058657580929438645 -0.721893398031988 0.5444238141968234 -0.018535830973654653 2.8450223095716973 -0.8970963430493919
4.91949987411499 -1.4691098493388672 -1.857161045074463 2.384901924724243 -1.596370045338766 3.3390390872955322 -0.058629621527485555 -0.7218933412855023 0.5445107656318054 -0.01853114459998766 2.844907147512011 -0.8971834836860435
4.9194416999816895 -1.4691217628172417 -1.8571442365646362 2.384861631984375 -1.5963500181781214 3.3390016555786133 -0.058668056620121034 -0.721892835431406 0.5445089328633759 -0.018492463394647433 2.844969676925897 -0.8971654722715486
4.919450283050537 -1.4691186186722298 -1.8571654558181763 2.3848482805439453 -1.596304718648092 3.339006185531616 -0.058674669202280615 -0.7218865856939681 0.5444934359019832 -0.01847694749302366 2.8450227013750733 -0.8971448805029786
4.919422626495361 -1.4691217702678223 -1.8571724891662598 2.384890003795288 -1.5963004271136683 3.338998794555664 -0.058693186445657 -0.7218900892281459 0.5444943941494126 -0.01844626307605687 2.845015776810383 -0.8971966301064104
4.919410705566406 -1.4691468489221116 -1.8571760654449463 2.384906454677246 -1.5963862578021448 3.3390676975250244 -0.05869387556611422 -0.7218981821040553 0.5444733568050522 -0.018369936042345266 2.844939982331625 -0.8971230158098477
4.91945219039917 -1.4691067051938553 -1.85715651512146 2.38495580732312 -1.596370045338766 3.3390347957611084 -0.05866179752994131 -0.7218977815038319 0.5445270213600226 -0.018470066397398625 2.8448825672945017 -0.8972766548883844
4.919407367706299 -1.469074086552002 -1.8571770191192627 2.384894533748291 -1.596325699483053 3.33903169631958 -0.058708640303006904 -0.7218714557387592 0.5445233763949031 -0.01839034120029989 2.844961505819058 -0.8972436749150754
4.919419765472412 -1.46906170368705 -1.857131838798523 2.384890003795288 -1.596309010182516 3.339043617248535 -0.058704545706636475 -0.7218786111622086 0.5445653294329661 -0.01838466645720195 2.8449358369511693 -0.897319023127471
4.919447898864746 -1.46909353256736 -1.8572635650634766 2.384890003795288 -1.5963457266436976 3.338994264602661 -0.05867056358694788 -0.7218583505561331 0.5444441254350426 -0.018507869266291006 2.845012598416064 -0.8970838461817361
4.91951322555542 -1.4691054609468956 -1.8571397066116333 2.3849186140247802 -1.5963457266436976 3.3389732837677 -0.05861128890022402 -0.7218998354428728 0.5445357423238097 -0.01863341663037464 2.8449130872713404 -0.8972639418783249
4.919406414031982 -1.469126136308052 -1.8571476936340332 2.384894533748291 -1.596304718648092 3.339006185531616 -0.05870366739456509 -0.7218972379391078 0.5445106822684356 -0.018415182027700226 2.844999191903538 -0.8972296223661842
4.919487953186035 -1.4691142302802582 -1.8571114540100098 2.384906454677246 -1.5963342825519007 3.3390228748321533 -0.0586401323932795 -0.7219075110223767 0.5445474773542316 -0.018522024417244095 2.8449123128483516 -0.8972750485831746
4.91946268081665 -1.4690521520427247 -1.8571486473083496 2.3849243360706787 -1.596353832875387 3.338989734649658 -0.05865346441032671 -0.7218765022684641 0.5445664310017428 -0.018542966201724655 2.8448845452850735 -0.897333670894913
4.919532775878906 -1.469163143341877 -1.8571850061416626 2.384890003795288 -1.5963948408709925 3.339006185531616 -0.05859133850828414 -0.7219057939746175 0.5444536627100274 -0.018634195082733417 2.8449418994443993 -0.8970503608465539
4.919459342956543 -1.4690979284099122 -1.85713529586792 2.3849186140247802 -1.5963214079486292 3.3390257358551025 -0.058666379936745956 -0.7218963347590424 0.5445433664917734 -0.018471308854906384 2.844926769478619 -0.897293298661309
4.919480800628662 -1.4690935400179406 -1.857161045074463 2.384927673930786 -1.59633714357485 3.339010715484619 -0.0586457731681875 -0.7218904699460512 0.5445287578355525 -0.018529948881491808 2.8449197214754705 -0.897267100401292
4.91949987411499 -1.46906170368705 -1.857181429862976 2.384869261378906 -1.596353832875387 3.3389854431152344 -0.05862816831696605 -0.7218666744999651 0.5445243717299508 -0.018600537270881713 2.8449363131802077 -0.8971961148372891
4.91949987411499 -1.4690697279623528 -1.857161045074463 2.384882612819336 -1.5963500181781214 3.3389973640441895 -0.05862939766356563 -0.7218764872753445 0.5445365713481863 -0.01858220119400926 2.844920541663214 -0.8972303779652916
4.919471740722656 -1.4690935549191018 -1.8571521043777466 2.384887142772339 -1.5963133017169397 3.3389644622802734 -0.058649167345191475 -0.7218866854659493 0.5445295408477133 -0.01857195921345777 2.844972268451295 -0.8972482426095006
4.919485092163086 -1.4690848004869004 -1.8571609258651733 2.3849527078815917 -1.5963786284076136 3.339006185531616 -0.05863238948398468 -0.7218898628745536 0.5445389195885884 -0.018561874829405158 2.844864946623273 -0.8972905351502274
4.919480800628662 -1.4690816190889855 -1.85715651512146 2.384915514583252 -1.5963133017169397 3.339060068130493 -0.05866188285504951 -0.7218868942726733 0.5445372247822596 -0.018449051181823065 2.8449243575088112 -0.8972758188903277
4.919427394866943 -1.469139316385128 -1.8571724891662598 2.384857102031372 -1.5963013807879847 3.33898663520813 -0.05868667855660275 -0.721891974513959 0.544476120710516 -0.018470150611612193 2.8450480048516655 -0.8971296999487623
4.919427394866943 -1.4691067051938553 -1.85715913772583 2.384866161937378 -1.5963342825519007 3.339015007019043 -0.05868634367206573 -0.7218842547761752 0.5445089944707185 -0.01844595243894166 2.8449800765634228 -0.8971804043904141
4.919463634490967 -1.4690729093602677 -1.8571982383728027 2.3848811823078613 -1.5963786284076136 3.3389687538146973 -0.058645141545817826 -0.7218652474862916 0.54450608431443 -0.018583588760544275 2.8449397987741407 -0.8971717409433695
4.919443607330322 -1.4690697130611916 -1.8571183681488037 2.384887142772339 -1.5963500181781214 3.339015007019043 -0.05867119818542023 -0.7218842617903535 0.5445692338736152 -0.018478173536196466 2.8449015687233428 -0.8973014802459679
4.91945219039917 -1.4690653097680588 -1.8571442365646362 2.38493196546521 -1.5963457266436976 3.3390510082244873 -0.05867356871243197 -0.7218836112090233 0.544560520658105 -0.018436939633741153 2.8448796893484536 -0.8973264699872192
4.919445991516113 -1.4691142377308388 -1.8572051525115967 2.384857340449951 -1.5963004271136683 3.3389809131622314 -0.05867586979286476 -0.7218762800405851 0.5444690634585622 -0.018504104590263592 2.8450498891120772 -0.8971177971884301
4.919450283050537 -1.469089151625969 -1.8571982383728027 2.384899063701294 -1.5963500181781214 3.339027166366577 -0.05867111414208525 -0.7218741394993976 0.5444972838504589 -0.0184680779161872 2.844951400538692 -0.8971803967972973
4.919506072998047 -1.4691468489221116 -1.85715651512146 2.384910984630249 -1.596325699483053 3.339047908782959 -0.058633701106768917 -0.7219104959963348 0.5444910978860783 -0.018506388791353363 2.8449540736038093 -0.8971728436254437
4.919510364532471 -1.4691098493388672 -1.8571635484695435 2.384857340449951 -1.5963786284076136 3.338961362838745 -0.0586060459737184 -0.7218861452003751 0.5445022394183854 -0.01866029587353773 2.8449454912935668 -0.8971288077797748
4.919483661651611 -1.4690640729716797 -1.8571724891662598 2.384910984630249 -1.5963614622699183 3.3390183448791504 -0.058642924332501484 -0.7218745656693453 0.5445364827770238 -0.018534587515763725 2.8448964294572416 -0.8972537332804815
4.919483661651611 -1.4691023168018837 -1.8570910692214966 2.384960337276123 -1.5963581244098108 3.3389854431152344 -0.05862888686513204 -0.721914145426333 0.5445822058750338 -0.01858128843749565 2.8448496853209675 -0.897386492247957
4.91947603225708 -1.4691142600825806 -1.8571919202804565 2.384861631984375 -1.596332852040426 3.339006185531616 -0.05865104944441642 -0.7218812358409675 0.5444783584083481 -0.018525982235521658 2.8449985934116606 -0.8971129931933365
4.919373512268066 -1.4690696609071274 -1.85713529586792 2.3849243360706787 -1.5963056723224085 3.3389732837677 -0.05872349380698737 -0.721881817575778 0.544566038049172 -0.018417553636999713 2.8449536871583545 -0.8973748154059207
4.919459342956543 -1.4690652203610917 -1.857130765914917 2.384885473842285 -1.5963829199420374 3.338982105255127 -0.05864691112762457 -0.7218790996604175 0.5445628076451443 -0.018562250835949808 2.8448846618617387 -0.8972743909885952
4.919443607330322 -1.4690684390119095 -1.8572264909744263 2.384882612819336 -1.5963171164142054 3.3390228748321533 -0.05868594186828719 -0.7218581908527533 0.5444880147647064 -0.018449343772107114 2.8449958425981676 -0.8971679174095658
4.919493675231934 -1.469089151625969 -1.8572051525115967 2.384915514583252 -1.596304718648092 3.339010715484619 -0.05864671473554768 -0.7218782882933406 0.5444968593525581 -0.018532371422428105 2.844975012450913 -0.8972121928020195
4.919459342956543 -1.469109797184803 -1.8571654558181763 2.384882612819336 -1.596325699483053 3.3389854431152344 -0.0586590499629435 -0.7218878275915124 0.5445063577423475 -0.018529412162498763 2.8449815747937244 -0.8971940429223819
4.919541835784912 -1.4691142451814194 -1.8571274280548096 2.384866161937378 -1.5963743368731897 3.339006185531616 -0.05859074305015899 -0.7219000812916762 0.5445270236137265 -0.018640026102282655 2.844904575626724 -0.8971704801174811
4.9194769859313965 -1.469074086552002 -1.85715913772583 2.384890003795288 -1.5963667074786585 3.338977575302124 -0.058637623242706285 -0.7218774722218699 0.5445366023441199 -0.018585498082815722 2.844914741581976 -0.8972365547201853
4.919443607330322 -1.4691230815700074 -1.8571982383728027 2.384885473842285 -1.5963414351092737 3.3390347957611084 -0.058677212761276534 -0.7218842987861536 0.5444710572018167 -0.018442905577536486 2.844987827303402 -0.8971209197039598
4.919435977935791 -1.46914246053014 -1.8571521043777466 2.3849410253712158 -1.5963218847857874 3.3389687538146973 -0.05866885411808167 -0.7219091290154 0.5445057637306001 -0.01851819243492592 2.8449707598488545 -0.8972567388924462
4.919471740722656 -1.4690891665271302 -1.857163667678833 2.3848976331898193 -1.596292797719137 3.33903169631958 -0.05866772826493726 -0.7218851204170393 0.5445244182066046 -0.018466724186137887 2.844970550785127 -0.8972503944750748
4.919467926025391 -1.4691023168018837 -1.857157588005066 2.384939118022583 -1.5963457266436976 3.3389973640441895 -0.0586493620667953 -0.7218948330507988 0.5445276942780702 -0.018534555907109698 2.844915601643436 -0.8972759635195507
4.919529914855957 -1.4691098865917702 -1.857181429862976 2.384906454677246 -1.596292797719137 3.3389525413513184 -0.05860924110943331 -0.7218918965870371 0.5445006385160627 -0.018661264528861313 2.844993114096796 -0.8972147341849792
4.919487953186035 -1.4691142377308388 -1.8571476936340332 2.384849949473999 -1.5963171164142054 3.3389732837677 -0.058637546512801425 -0.7218910070370406 0.5445109021868142 -0.018583538299630296 2.844995919401485 -0.8971692880794415
4.919459342956543 -1.46905271828685 -1.857181429862976 2.384927435512207 -1.5963457266436976 3.339006185531616 -0.058662511748697965 -0.7218694653226598 0.5445415581436076 -0.018510317008056255 2.844906883777526 -0.8972947918876626
4.919455051422119 -1.4690934878638764 -1.8571486473083496 2.384845419520996 -1.5963414351092737 3.3390347957611084 -0.05866965351091625 -0.7218809185417444 0.5445213025662501 -0.018460754657466227 2.844960244160141 -0.8971710868649942
4.919409275054932 -1.4690520924380799 -1.8571431636810303 2.384894533748291 -1.5963133017169397 3.338994264602661 -0.05870257783961986 -0.7218717681481657 0.5445656635989243 -0.018441999270226703 2.8449453910339226 -0.8973323836475534
4.919445991516113 -1.4691439729980011 -1.8571475744247437 2.384890003795288 -1.5963829199420374 3.3390390872955322 -0.058662690470421504 -0.7219035952833517 0.5444946176680265 -0.01845991470990012 2.8449310420159777 -0.8971434626897485
4.91947603225708 -1.4690979433110734 -1.857181429862976 2.384861631984375 -1.5963581244098108 3.3389687538146973 -0.05863861662817389 -0.7218768233290309 0.5444981031662717 -0.018591490519775853 2.844970443839036 -0.8971428855935019
4.919422626495361 -1.4691349652460595 -1.8571397066116333 2.384943647975586 -1.5963299910174769 3.3390347957611084 -0.05868955519457589 -0.721909576609179 0.5445187220406605 -0.01840936993365351 2.844937550120333 -0.8972722105271448
4.919497013092041 -1.4690684241107483 -1.8571476936340332 2.384866161937378 -1.596332852040426 3.3390183448791504 -0.05863933031568067 -0.7218775432722373 0.544544170721705 -0.01854062952170989 2.8449311839164717 -0.8972335164156141
4.919480800628662 -1.46909353256736 -1.8571680784225464 2.384890003795288 -1.5963299910174769 3.3390347957611084 -0.05865348658692529 -0.721884139751528 0.5445155565339291 -0.018491951641973925 2.8449473623536132 -0.8972059936862543
4.91943883895874 -1.469039538209774 -1.8571431636810303 2.384915514583252 -1.5963133017169397 3.339027166366577 -0.05868812184710209 -0.7218722733441689 0.5445775113192375 -0.018437590208157897 2.844908816578228 -0.897365124537699
4.919459342956543 -1.469065287416317 -1.8571724891662598 2.384910984630249 -1.5963581244098108 3.3390016555786133 -0.05865784833466045 -0.7218734641909532 0.5445362113842112 -0.01852224583267606 2.8449103416395127 -0.8972620177423714
4.919522285461426 -1.4691098493388672 -1.857161045074463 2.384903593654297 -1.5963457266436976 3.3390555381774902 -0.05862214908328269 -0.7218957351074058 0.5445112050692408 -0.018528437202976596 2.8449160129027184 -0.897191058050257
4.919463634490967 -1.4690979284099122 -1.8571351766586304 2.384894533748291 -1.596353832875387 3.3389854431152344 -0.058648610325045175 -0.7218919901830282 0.5445391428629157 -0.01854946809158067 2.844923913147532 -0.8972507945878784
4.919455051422119 -1.4691067200950165 -1.857130765914917 2.384885473842285 -1.5963457266436976 3.338965654373169 -0.05865208829602084 -0.7218944303317375 0.5445353856702106 -0.018561577891955335 2.844945911831945 -0.8972426725371749
4.919435977935791 -1.4691261661103745 -1.8572142124176025 2.384890003795288 -1.5963013807879847 3.339027166366577 -0.05869074492746182 -0.7218827171639695 0.5444589224770097 -0.018424174771030602 2.845033344657066 -0.8971258983820625
4.919467926025391 -1.4690608915737648 -1.8571442365646362 2.384894533748291 -1.5963829199420374 3.338989734649658 -0.05864299770836552 -0.7218761460408187 0.5445571674530113 -0.018563426871910465 2.844880649419499 -0.8972710987720217
4.919467449188232 -1.4691098493388672 -1.8571139574050903 2.384899063701294 -1.596325699483053 3.339006185531616 -0.058654226115250285 -0.7219031785125913 0.5445478832205162 -0.01851272151103537 2.844932138215328 -0.8972795880540042
4.919480800628662 -1.4690608915737648 -1.8571770191192627 2.384882612819336 -1.5963056723224085 3.338961362838745 -0.05864756273140556 -0.721869158659982 0.5445327670727623 -0.018585898519055625 2.844974834188288 -0.8972554633599411
4.919497013092041 -1.4691230443171044 -1.857130765914917 2.3849078851887207 -1.5963786284076136 3.3389644622802734 -0.05861232203458984 -0.7219048392341231 0.54452765365807 -0.018637731540279992 2.8449047475285743 -0.8972252159890123
4.919431686401367 -1.4691142451814194 -1.857181429862976 2.384887142772339 -1.5963299910174769 3.3389437198638916 -0.05867017405340292 -0.7218839533294863 0.5444931883723951 -0.018551050493247914 2.845005426754964 -0.8971841571039436
4.91945219039917 -1.4690847036293526 -1.8571938276290894 2.38493196546521 -1.5963342825519007 3.33901047706604 -0.058669250327207566 -0.7218784253167527 0.5445110084600764 -0.01848779030710642 2.8449418855224344 -0.8972479648406637
4.91941499710083 -1.469105453496315 -1.8571442365646362 2.384894533748291 -1.5963133017169397 3.339006185531616 -0.05869689004508712 -0.7218909796180056 0.5445274490039639 -0.018431874516037495 2.84497491469929 -0.8972557554315929
4.91947603225708 -1.4691098493388672 -1.8571770191192627 2.384901924724243 -1.5963581244098108 3.3389644622802734 -0.05863561045269712 -0.7218875421432848 0.5445011645643949 -0.01859770873202754 2.8449512304332076 -0.8971879270495055
4.919427394866943 -1.4690483149937172 -1.85715651512146 2.38481251775708 -1.5963457266436976 3.3390228748321533 -0.058690909102091945 -0.721856601637019 0.5445405387301243 -0.018441045174909076 2.844964014369122 -0.8971824432991617
4.919411659240723 -1.4691142451814194 -1.857170820236206 2.384869022960327 -1.5963133017169397 3.338994264602661 -0.05869831595068657 -0.7218839171986282 0.5444966031807245 -0.018443095296007066 2.845016533001438 -0.8971769006834935
4.919389247894287 -1.4691292953542252 -1.8571486473083496 2.384910984630249 -1.596309010182516 3.3389687538146973 -0.05870708326947519 -0.7218988005907059 0.5445119720621163 -0.01844608238361286 2.8450017063275155 -0.897254770549102
4.91946268081665 -1.4691174116781731 -1.8572087287902832 2.384894533748291 -1.596325699483053 3.339015007019043 -0.058663818518351216 -0.7218823005391247 0.5444697940743661 -0.01849093265177547 2.844997850421477 -0.8971352177370171
4.9195075035095215 -1.4691699308208008 -1.8571759462356567 2.384873791331909 -1.5963414351092737 3.3390016555786133 -0.0586202215282085 -0.7219080965785035 0.5444540811933251 -0.018580234698542794 2.845001679058251 -0.8970660956965565
4.919531345367432 -1.4690920797041436 -1.857214093208313 2.384910984630249 -1.596325699483053 3.338998794555664 -0.05861277951574216 -0.7218780653294805 0.54448701329785 -0.018612165023480377 2.84496117883088 -0.8971738057073283
4.91946268081665 -1.4690422129682084 -1.8571089506149292 2.38487355291333 -1.59633714357485 3.3389644622802734 -0.05865227603768454 -0.7218757588566258 0.5445946004153103 -0.018572132371397727 2.8449047493175406 -0.8973459102626313
4.919407367706299 -1.4691067275455971 -1.8571009635925293 2.384824438686035 -1.5963004271136683 3.3389899730682373 -0.058701620666609514 -0.7218920215647848 0.544546408025602 -0.018438732350376318 2.8450085168284165 -0.8972293972644235
4.919443607330322 -1.4690483447960396 -1.8571654558181763 2.384878082866333 -1.5963175932513636 3.339006185531616 -0.05868102499031139 -0.7218648832558796 0.5445477345202049 -0.01847521367969766 2.844951740775421 -0.8972738544632017
4.919459342956543 -1.4691393685391922 -1.8572325706481934 2.384901924724243 -1.5963495413409632 3.3390555381774902 -0.05866823592269276 -0.7218850241957678 0.5444361795699547 -0.01843835417843754 2.8449934362944975 -0.8970635023959562
4.919491291046143 -1.4691023540547867 -1.8571785688400269 2.3849078851887207 -1.596304718648092 3.3390588760375977 -0.05865580204511055 -0.7218887705932391 0.5445048992512681 -0.018460662658348944 2.844960277367478 -0.8972108199128129
4.919471740722656 -1.46905271828685 -1.857100009918213 2.384873791331909 -1.596370045338766 3.339027166366577 -0.058649431185986284 -0.7218820629163429 0.5445914682348042 -0.01851074009167049 2.8448611631845178 -0.8973122762251292
4.9194793701171875 -1.4690786612084885 -1.8570771217346191 2.38484971105542 -1.596325699483053 3.338994264602661 -0.05864498268693464 -0.7218947846486001 0.5445881217527014 -0.018547894187569896 2.8449200446543093 -0.8973045081613931
4.91943883895874 -1.4690740343979378 -1.857149600982666 2.38487355291333 -1.59633714357485 3.3389854431152344 -0.05867334509875907 -0.7218761672557363 0.5445411356302663 -0.01850666993738047 2.8449510708260983 -0.8972491200546243
4.919449329376221 -1.4691010278514405 -1.8572503328323364 2.384878082866333 -1.596309010182516 3.3389899730682373 -0.058676064016587204 -0.7218636062713294 0.5444476305910257 -0.018499259933426458 2.845046930342799 -0.8970957325393049
4.91945219039917 -1.4691293028048058 -1.8572678565979004 2.384927673930786 -1.596309010182516 3.339047908782959 -0.05868294652662674 -0.7218770431197802 0.5444227213357222 -0.018420083616712303 2.8450299339034038 -0.8970889440599928
4.919447898864746 -1.4690891292742272 -1.8572041988372803 2.384899063701294 -1.5963457266436976 3.339019536972046 -0.058672606171098034 -0.7218725847579243 0.544493119574327 -0.01847345016797603 2.8449610773090286 -0.8971767035425349
4.919467926025391 -1.4691261661103745 -1.8571336269378662 2.384910984630249 -1.5963624159442347 3.339043617248535 -0.058652452542425904 -0.7219053552213107 0.5445220001182598 -0.018476137854974987 2.8449080903668547 -0.8972201148689739
4.919443607330322 -1.4691098493388672 -1.8571133613586426 2.384882612819336 -1.5963175932513636 3.3389480113983154 -0.05866218017320035 -0.7218992193061697 0.5445470287263915 -0.018557881360450838 2.8449689609011695 -0.8972788302744931
4.919463634490967 -1.4691292953542252 -1.8571724891662598 2.3848752218433837 -1.5963948408709925 3.3390138149261475 -0.0586450178786867 -0.7218907882596004 0.5444835259560938 -0.018526080927366958 2.844938410364151 -0.897104933380012
4.919431686401367 -1.4690683794072648 -1.857224702835083 2.384903593654297 -1.5963457266436976 3.3390138149261475 -0.05868565369635559 -0.7218598682007201 0.5444930687210677 -0.018458597506410115 2.8449637702937247 -0.8971874848540513
4.919471740722656 -1.4691714209369202 -1.857293725013733 2.384885473842285 -1.596309010182516 3.3389732837677 -0.05865338912717894 -0.7218803381389828 0.5443678593905722 -0.018552247678384363 2.845111469951181 -0.8969516830544648
4.919488430023193 -1.4690438669971009 -1.8571113348007202 2.384927673930786 -1.596325699483053 3.3389480113983154 -0.0586316202216882 -0.7218847485311055 0.5446029784567473 -0.01862718617298414 2.8448803417734942 -0.8974176554832298
4.919455051422119 -1.469057099228241 -1.8571268320083618 2.384870691890381 -1.5963709990130823 3.3389854431152344 -0.05865415146908813 -0.7218752574563609 0.5445687312373467 -0.0185461223100118 2.844896301173623 -0.8972772549770628
4.919455051422119 -1.4690704879215737 -1.8571654558181763 2.384854241008423 -1.5963414351092737 3.339019536972046 -0.05866898117597229 -0.7218697106729947 0.5445267275865124 -0.01848268914208679 2.8449546493858464 -0.8971943117170726
4.919483661651611 -1.4691230443171044 -1.8572041988372803 2.384903593654297 -1.5963457266436976 3.338977575302124 -0.05863586436989778 -0.7218868694258052 0.5444716857643975 -0.018583257620466836 2.844980259258028 -0.8971384672619843
4.919463634490967 -1.4691632103971024 -1.85716712474823 2.384894533748291 -1.5963214079486292 3.338994264602661 -0.05865446983354905 -0.721908525555798 0.5444701787230842 -0.01851977249295304 2.845008746354811 -0.8971357940205809
4.91949987411499 -1.46909353256736 -1.8571759462356567 2.38487355291333 -1.5963056723224085 3.338998794555664 -0.05863893984696587 -0.7218813647836344 0.5445080464424266 -0.01855888809438734 2.844985997361253 -0.8971896539860654
4.919447898864746 -1.4690904033235093 -1.8571044206619263 2.384915276164673 -1.5963385740863245 3.3390183448791504 -0.058668364577581095 -0.7218993992611004 0.544571093689538 -0.018474318597101143 2.8448957292775625 -0.8973349235307515
4.919495582580566 -1.4690565106323739 -1.8571158647537231 2.384885473842285 -1.5963004271136683 3.339027166366577 -0.05864819374341995 -0.7218844720879879 0.544580829256103 -0.018512354720533666 2.8449165577401505 -0.8973341901608927
4.91947603225708 -1.4691349652460595 -1.8571770191192627 2.38493196546521 -1.5963628927813929 3.3390183448791504 -0.058642524254549105 -0.7219010695369898 0.5444878900903285 -0.018522776832686817 2.844931294722275 -0.8971814063074677
4.919459342956543 -1.4691143047860642 -1.8572041988372803 2.384901924724243 -1.5963056723224085 3.3390510082244873 -0.05867767453051865 -0.7218840599262171 0.5444762558875246 -0.018425982391132377 2.844996910307188 -0.8971596875310024
4.919450283050537 -1.4691758689335366 -1.857229232788086 2.3849844175526123 -1.596304718648092 3.339047908782959 -0.05867837995318426 -0.7219106096325225 0.5444307866683953 -0.01841562601308581 2.8450037561805708 -0.89715735956586
4.919488430023193 -1.4691337284496804 -1.8571892976760864 2.384882612819336 -1.5963500181781214 3.339006185531616 -0.05863608951699846 -0.7218919061575553 0.5444704984584363 -0.01855120738734941 2.844978898563376 -0.8971069621798504
4.919471740722656 -1.4690640208176156 -1.85712730884552 2.384840889567993 -1.5963457266436976 3.339027166366577 -0.05865634454866005 -0.7218757163762971 0.5445571408626837 -0.018498462833654666 2.8449253690879783 -0.8972291441791344
4.919497013092041 -1.469097913508751 -1.8571654558181763 2.384910984630249 -1.5963342825519007 3.338994264602661 -0.05863180265411798 -0.7218895330277173 0.544519679036828 -0.018574778372959174 2.844937608759848 -0.8972344051463385
4.919447898864746 -1.4691098493388672 -1.85715651512146 2.384878082866333 -1.596309010182516 3.339006185531616 -0.05867483880500604 -0.7218894056771908 0.5445120014879014 -0.018476149658992407 2.844990356418004 -0.8972069808218139
4.919525623321533 -1.469077156191208 -1.8571680784225464 2.3849243360706787 -1.596304718648092 3.3390095233917236 -0.05862218050129023 -0.7218859869997096 0.5445349926245111 -0.018580680263740875 2.8449308730941056 -0.8972838940334024
4.919504642486572 -1.4691098493388672 -1.857184886932373 2.384890003795288 -1.5963414351092737 3.3389525413513184 -0.05861709098043792 -0.7218860197792645 0.544493644506569 -0.01864742665285835 2.8449724894529673 -0.8971669376842882
4.919492721557617 -1.4690696907094498 -1.8571577072143555 2.384903593654297 -1.596325699483053 3.339015007019043 -0.058642832234752695 -0.7218805734874199 0.5445432970943692 -0.01853600547634212 2.844922812095613 -0.89727411524809
4.919471740722656 -1.4690741163543244 -1.857153058052063 2.384894533748291 -1.5962970892535608 3.339015007019043 -0.05866411803260679 -0.7218815791662934 0.5445426744498324 -0.01849303886811803 2.844957047283128 -0.8972817000225685
4.919471740722656 -1.4690949779799958 -1.857185959815979 2.3849410253712158 -1.5963752905475062 3.3389689922332764 -0.05863626675855352 -0.7218847484446906 0.5445118070293992 -0.018593430069887295 2.844909403715097 -0.8972393091524548
4.91943883895874 -1.4691305992058297 -1.8572008609771729 2.384840889567993 -1.5963414351092737 3.3389973640441895 -0.058673997759877305 -0.7218795645665356 0.5444562485176215 -0.01848888759668385 2.845032098150885 -0.8970556156372131
4.919483661651611 -1.4691393685391922 -1.85719633102417 2.384861870402954 -1.5963743368731897 3.338998556137085 -0.05863300463169862 -0.7218883764498695 0.5444568396455577 -0.01856598539179118 2.8449829585239796 -0.8970514318510737
4.919456958770752 -1.4691023540547867 -1.8571395874023438 2.384894533748291 -1.5963133017169397 3.3390183448791504 -0.05866899186366536 -0.721893600220292 0.5445327614441351 -0.01847436176115898 2.8449561228828766 -0.8972554402051284
4.919492721557617 -1.469097913508751 -1.8571442365646362 2.384849949473999 -1.596353832875387 3.3389899730682373 -0.058630131515501706 -0.7218855117552853 0.5445234622824967 -0.018583818549707292 2.844948409981016 -0.8971719419597916
4.919455051422119 -1.4691468265703698 -1.8571724891662598 2.384882612819336 -1.596325699483053 3.3389811515808105 -0.05865890815113433 -0.7218990118093384 0.544475450016239 -0.01852839107595251 2.8450112086446437 -0.8971365456548074
4.919440269470215 -1.469129280453064 -1.8572131395339966 2.384894533748291 -1.5963175932513636 3.3389854431152344 -0.05867533596131817 -0.7218840180463713 0.5444592825409489 -0.0184970988101122 2.8450276667057253 -0.8971279870282856
4.919407367706299 -1.4690772083452721 -1.8571892976760864 2.384885473842285 -1.596304718648092 3.3390140533447266 -0.058710534050796785 -0.7218687439240892 0.5445111839837917 -0.018405433215271536 2.84499807742271 -0.89722552132584
4.919434547424316 -1.4690979284099122 -1.8571635484695435 2.3849844175526123 -1.5963457266436976 3.3390302658081055 -0.05867940910663473 -0.7218964219402457 0.5445341104681919 -0.018440555319360643 2.844889286805135 -0.8973349496904268
4.919472694396973 -1.4691129487803956 -1.8571442365646362 2.384873791331909 -1.5963214079486292 3.3390390872955322 -0.05865988466743072 -0.7218943857413673 0.5445170301692082 -0.0184703877118996 2.8449626886522843 -0.8971954564648341
4.919447898864746 -1.4691173744252701 -1.8571983575820923 2.3849243360706787 -1.5963624159442347 3.33901047706604 -0.058663986330079784 -0.7218869137770906 0.544482715865632 -0.01849364509937234 2.844948035193586 -0.8971734913350934
4.919459342956543 -1.469160334472992 -1.8571475744247437 2.38483635961499 -1.5963667074786585 3.339019298553467 -0.058652990149967346 -0.7219031188963572 0.5444737627012545 -0.018498882910583162 2.8449889354267546 -0.8970592000809964
4.919450283050537 -1.4690772157958527 -1.857193946838379 2.38487355291333 -1.5963385740863245 3.339015007019043 -0.05867263234726683 -0.7218676242403352 0.5445044757621572 -0.018480358215205484 2.8449693397994804 -0.8971763829184237
4.919508934020996 -1.4691469234279175 -1.8572007417678833 2.384887142772339 -1.5963624159442347 3.338965892791748 -0.058610013918064405 -0.7218948541617491 0.5444544416429059 -0.018642849143922405 2.844985808251348 -0.8970772415436997
4.919424057006836 -1.4691230815700074 -1.8571397066116333 2.384845419520996 -1.5963581244098108 3.339027166366577 -0.05868408870361385 -0.7218912389701427 0.5445073312204675 -0.018434738625500064 2.8449695203181222 -0.8971420508712411
4.919485092163086 -1.4690830570510407 -1.8571699857711792 2.384899063701294 -1.5963175932513636 3.3389973640441895 -0.058646441917212494 -0.7218813274853692 0.5445245593449207 -0.018545944316844646 2.844954494209169 -0.8972429153177555
4.919471740722656 -1.4691023391536255 -1.8571699857711792 2.384930296535156 -1.5962970892535608 3.3390183448791504 -0.05866261581302781 -0.721892451729198 0.5445171549864042 -0.018487472497362014 2.8449622528950513 -0.8972685433628401
4.919501304626465 -1.4691543218544503 -1.8572266101837158 2.384894533748291 -1.5963133017169397 3.339019298553467 -0.05863776053257583 -0.7218937867665158 0.5444308155238944 -0.01853273574939582 2.8450309192859815 -0.8970597465434683
4.919459342956543 -1.4691231113723298 -1.8572052717208862 2.38493196546521 -1.5963133017169397 3.3389732837677 -0.05865921898488288 -0.7218898894169358 0.5444772876944842 -0.018540143436348477 2.844997210900568 -0.8971981833924659
4.919455051422119 -1.4690860372832795 -1.8571395874023438 2.38493458806958 -1.596325699483053 3.3390345573425293 -0.05867093773489078 -0.7218929769999212 0.5445511313886197 -0.018454903044431002 2.8449076344071345 -0.8973218236756666
4.919471740722656 -1.4691173073700448 -1.8571919202804565 2.384939118022583 -1.5963500181781214 3.3390140533447266 -0.058649576797246764 -0.7218922212998256 0.5444907171535367 -0.018517008822978416 2.844937797391566 -0.8972033432217659
4.919480800628662 -1.469084696178772 -1.8571804761886597 2.3849033552357177 -1.5963414351092737 3.339043378829956 -0.05865353748820245 -0.7218796204801456 0.5445143871160545 -0.018484975407674575 2.8449299254973046 -0.8972113590348159
4.91948938369751 -1.4691456419280549 -1.8571803569793701 2.384948177928589 -1.5963786284076136 3.339022636413574 -0.058629129525954976 -0.7219066762058576 0.5444806041557401 -0.01854262286289008 2.8449126556760627 -0.8971724845538359
4.91949987411499 -1.4691425126842041 -1.8571138381958008 2.384869261378906 -1.5963876883136194 3.33901047706604 -0.0586159842022142 -0.7219110587697944 0.5445178269409765 -0.01858008688634132 2.8449108974470185 -0.8971552456590508
4.919426918029785 -1.4691054385951539 -1.8571982383728027 2.3849143224903564 -1.5963285605060022 3.3389973640441895 -0.05868534199958578 -0.7218808646905861 0.5444903547143247 -0.018467222467647385 2.844982948156918 -0.8972010947261616
4.919427394866943 -1.4690935176661988 -1.857161045074463 2.3848914343067626 -1.5963175932513636 3.339015007019043 -0.0586905396832707 -0.7218829869191832 0.5445220520402323 -0.01843875274061959 2.84497098482782 -0.8972385344787612
4.919520854949951 -1.4691306215575715 -1.857193946838379 2.384873791331909 -1.5962684790240687 3.339006185531616 -0.05863182484632512 -0.7218925932521618 0.5444694176905651 -0.018559854187379998 2.8450431429614347 -0.8971302698789562
4.919480800628662 -1.4690652650645752 -1.8571724891662598 2.384943647975586 -1.5963581244098108 3.338977813720703 -0.058636802774232034 -0.7218788678383914 0.5445433038900903 -0.01858691519898218 2.8448902999054617 -0.8973065064559506
4.9194416999816895 -1.4690815967372437 -1.8571654558181763 2.384894533748291 -1.596325699483053 3.3390467166900635 -0.058685672773358954 -0.7218791006271745 0.5445264682433721 -0.018417828544987414 2.844946318733784 -0.897239337921473
4.919447898864746 -1.4691023242524643 -1.8571351766586304 2.384927435512207 -1.5963500181781214 3.339047908782959 -0.05867198615025403 -0.7218979429617733 0.5445407734381245 -0.01843653406195719 2.8448983041320623 -0.8972819781772443
4.919443607330322 -1.4691469234279175 -1.8571395874023438 2.384901924724243 -1.5963342825519007 3.3390347957611084 -0.058673627861022454 -0.7219093095571587 0.5445022575533154 -0.018440574797367663 2.8449617554293476 -0.897193660539009
4.919483661651611 -1.469057099228241 -1.85719633102417 2.3848914343067626 -1.596288029347555 3.3390345573425293 -0.0586649841270564 -0.7218658779859631 0.5445207977367593 -0.01847734116071825 2.8449748238680015 -0.8972408777174633
4.919494152069092 -1.4691425126842041 -1.8571724891662598 2.384887142772339 -1.5963133017169397 3.339080572128296 -0.0586533221717333 -0.7219018979947245 0.5444767157762374 -0.01843681582724109 2.844981334475794 -0.8971276367403552
4.919467926025391 -1.4691261512092133 -1.8571475744247437 2.384857340449951 -1.596332852040426 3.338994264602661 -0.058651503895576926 -0.7218949274527537 0.5445031607807649 -0.018532181499943484 2.8449860374209504 -0.8971547769638233
4.91947603225708 -1.4691023391536255 -1.8571983575820923 2.3848587709614257 -1.5963667074786585 3.3390510082244873 -0.05865353307029479 -0.7218746722016309 0.5444790611867452 -0.018477754645922398 2.844958492206607 -0.8970894897427514
4.919480800628662 -1.4691023391536255 -1.8572008609771729 2.384910984630249 -1.596325699483053 3.3390390872955322 -0.05865578324680288 -0.7218824106474413 0.5444887167195618 -0.01848303950744047 2.8449627568697164 -0.8971798286219338
4.919463634490967 -1.4691129487803956 -1.8571724891662598 2.384873791331909 -1.596304718648092 3.3390095233917236 -0.05866580841522426 -0.7218871651562118 0.5444969345030491 -0.018491309047514923 2.8450034570450984 -0.8971740988409217
4.919471740722656 -1.4691305470517655 -1.85715913772583 2.384899063701294 -1.596325699483053 3.3389899730682373 -0.058648700917115854 -0.7218997457173335 0.544499807416108 -0.018540353481131342 2.8449760361010874 -0.8971934524795596
4.919427394866943 -1.469084696178772 -1.8571317195892334 2.384894533748291 -1.5963667074786585 3.3389732837677 -0.05867026455871156 -0.7218854930944454 0.5445509877738955 -0.01852158190356584 2.844915500367636 -0.8972759109333818
4.919501304626465 -1.4690891069224854 -1.8571635484695435 2.384927435512207 -1.596304718648092 3.3390095233917236 -0.05863853463818164 -0.721890324041965 0.5445307262996605 -0.01854597627355732 2.8449399549716707 -0.897282916894395
4.919443607330322 -1.469118670826294 -1.857189416885376 2.384885712260864 -1.5963133017169397 3.338994264602661 -0.05867544241958941 -0.7218851636617128 0.5444827199043313 -0.018488062062688566 2.845012187787888 -0.897162118905882
4.919422626495361 -1.469072775249817 -1.8571815490722656 2.384890242213867 -1.5963428656207483 3.3390140533447266 -0.05869069916713535 -0.7218695400707112 0.5445201189334359 -0.018444900391017337 2.844952506141074 -0.8972248485645775
4.919463634490967 -1.4690891069224854 -1.8571759462356567 2.384873791331909 -1.5963342825519007 3.339027166366577 -0.05866455451295516 -0.7218772583767885 0.5445096312231079 -0.01848019573301348 2.844962408472034 -0.8971821524288183
4.91943883895874 -1.4690438669971009 -1.857130765914917 2.384873791331909 -1.596325699483053 3.339006185531616 -0.0586813023393841 -0.7218705435204487 0.5445760505524894 -0.01847304611006338 2.8449246298335624 -0.8973172920242031
4.91951322555542 -1.4690363568118592 -1.8572007417678833 2.384906454677246 -1.596325699483053 3.3389689922332764 -0.05862355188586468 -0.7218594129278928 0.5445357961244748 -0.018630452716919044 2.8449329335370908 -0.8972699995914863
4.919520854949951 -1.4691113394549866 -1.8571521043777466 2.384890242213867 -1.596309010182516 3.3390140533447266 -0.05862307321439598 -0.721897019501476 0.5445164463563428 -0.0185687578766367 2.8449599710749474 -0.897211262944296
4.919504642486572 -1.4690815967372437 -1.8571442365646362 2.384927435512207 -1.59633714357485 3.338998556137085 -0.05862619435139759 -0.7218914801905604 0.5445500774091913 -0.01858181583633285 2.844898654557756 -0.8973030876043383
4.919471740722656 -1.4690771859935303 -1.857184886932373 2.384890242213867 -1.5963581244098108 3.3390302658081055 -0.05865483808361772 -0.7218729683050393 0.544513680794531 -0.018498398338294968 2.844928103222426 -0.8971933182558388
4.9194793701171875 -1.4690950077823182 -1.8571724891662598 2.3848811823078613 -1.5963543097125452 3.3390390872955322 -0.05865021137521269 -0.721881715302312 0.5445087505661138 -0.018494740452707055 2.84493604004712 -0.8971726116368911
4.919450283050537 -1.4690815967372437 -1.8572232723236084 2.384927435512207 -1.596325699483053 3.338986396789551 -0.05866966960933759 -0.7218694622390287 0.5444909238984553 -0.018514788587266944 2.84497445982577 -0.8972162332188511
4.919443607330322 -1.4690660920790215 -1.857193946838379 2.384878082866333 -1.5963543097125452 3.339022636413574 -0.058676107622941925 -0.7218635536015559 0.5445124740049505 -0.01846750517446664 2.8449466962825976 -0.8971888091841714
4.9194135665893555 -1.469118670826294 -1.8572098016738892 2.384824677104614 -1.596363369618551 3.339043378829956 -0.05869813237413937 -0.7218694361938442 0.5444527140862807 -0.01839744229010255 2.84501783991433 -0.8970219382358501
4.919467926025391 -1.4690979284099122 -1.857229232788086 2.384906454677246 -1.5963133017169397 3.3389973640441895 -0.058661540616385774 -0.7218724919859114 0.5444709609806001 -0.018517891337847012 2.8450041241251567 -0.8971590023498027
4.919525146484375 -1.469171443288662 -1.8571892976760864 2.3848365980335693 -1.5963261763202112 3.3389768600463867 -0.05860757888843784 -0.72190152603194 0.5444367725303738 -0.01863302141615038 2.845047781430518 -0.8970056311099015
4.919480800628662 -1.4691098493388672 -1.8571521043777466 2.384943409557007 -1.5963624159442347 3.339006185531616 -0.05863708248960657 -0.7218998224108557 0.544526781621599 -0.018547909694650623 2.844895123518583 -0.8972657477534572
4.919467449188232 -1.469101035302021 -1.857131838798523 2.384873791331909 -1.596325699483053 3.339031457901001 -0.05866144468999362 -0.7218926112819884 0.5445348004061977 -0.018476338123151363 2.8449472752456124 -0.8972283679856943
4.919467449188232 -1.4691380721381684 -1.8571486473083496 2.384861870402954 -1.596332852040426 3.339064121246338 -0.058664694331674 -0.7219003262306202 0.5444929049084557 -0.01843174524089065 2.8449744409922335 -0.8971296725526564
4.919508934020996 -1.4691142377308388 -1.8571351766586304 2.384878321284912 -1.5963624159442347 3.3390183448791504 -0.05861967364556916 -0.7218984065769951 0.5445234761314249 -0.018570407511001957 2.8449172393008624 -0.8971869538158824
4.919471740722656 -1.4690920275500794 -1.8572007417678833 2.3848530489155273 -1.5963581244098108 3.3389647006988525 -0.058642566037069126 -0.7218686106364743 0.5444860449636164 -0.018590787114223375 2.8449862202360503 -0.8971149860271593
4.919434547424316 -1.4690890920213242 -1.857224702835083 2.384890242213867 -1.5963133017169397 3.339022636413574 -0.058691472753744464 -0.7218665751111223 0.5444766168290709 -0.018434674781160974 2.845008414483767 -0.897156732198247
4.919492721557617 -1.4690608170679589 -1.857131838798523 2.384849949473999 -1.5963299910174769 3.339059591293335 -0.05865139617984097 -0.7218767583781907 0.5445571413463387 -0.01847492315028672 2.8449199908812433 -0.8972374099853024
4.919504642486572 -1.4689991560629387 -1.8571619987487793 2.384870691890381 -1.5963299910174769 3.338994264602661 -0.05863548034247698 -0.7218503057146242 0.5445831071576661 -0.0185857709085036 2.8449003185102573 -0.89731825325829
4.919508934020996 -1.4691023242524643 -1.8571351766586304 2.384915276164673 -1.5963919798480433 3.33901047706604 -0.058611357423857216 -0.721898291598037 0.5445384694226008 -0.018595685757187824 2.8448648184909984 -0.8972384442004514
4.91947603225708 -1.4690526586822052 -1.8571635484695435 2.3848575788685302 -1.5963581244098108 3.3389973640441895 -0.058646823054706004 -0.7218647932123708 0.5445414437288255 -0.018552204103640575 2.8449266098076933 -0.8972166175494042
4.919488430023193 -1.4691513788751145 -1.8571938276290894 2.3848976331898193 -1.5963214079486292 3.3390183448791504 -0.05864349165255987 -0.721900056469687 0.5444580925134539 -0.018520377296432487 2.845003740180709 -0.8971103091695499
4.919458389282227 -1.4691098493388672 -1.8571714162826538 2.384939118022583 -1.5963667074786585 3.339031457901001 -0.05865838151306885 -0.7218934669564607 0.5445104868370575 -0.018481554739967602 2.8449060487296203 -0.8972311612161757
4.919485092163086 -1.4691098493388672 -1.8571635484695435 2.3849186140247802 -1.5963218847857874 3.3389570713043213 -0.0586346842596598 -0.7218944711582325 0.544515719075041 -0.018604951194910967 2.844961406888803 -0.8972475807109703
4.9195075035095215 -1.4691098493388672 -1.8571770191192627 2.384915276164673 -1.5963743368731897 3.339026927947998 -0.058621212827710774 -0.7218915021298302 0.5445015395562793 -0.01856098068855653 2.844906318679535 -0.8971786044984376
4.919455051422119 -1.4691142824343224 -1.8571746349334717 2.3848649698444824 -1.5963743368731897 3.3389811515808105 -0.05865089399977805 -0.7218832021454353 0.5444917879868957 -0.01855124629071692 2.844963617792825 -0.8971275725418423
4.919427394866943 -1.4690979954651375 -1.8572402000427246 2.384890242213867 -1.596325699483053 3.339014768600464 -0.05869240960733266 -0.7218651695875467 0.5444586378481207 -0.018440816885436532 2.8450173332325877 -0.8971202867402264
4.919435977935791 -1.4691306141069909 -1.8571544885635376 2.384890242213867 -1.5963414351092737 3.3389854431152344 -0.0586700503665869 -0.7218971116422292 0.5445013027284771 -0.018503242225235358 2.8449763153751984 -0.897187282380016
4.919431686401367 -1.469123163526394 -1.8571680784225464 2.3849195676990966 -1.5963166395770472 3.3390345573425293 -0.0586889434265697 -0.7218961768648302 0.5445010873634121 -0.01841590587308337 2.844971328452192 -0.8972229305073998
4.919449329376221 -1.4690570917776604 -1.857193946838379 2.3848869043537597 -1.5963414351092737 3.3389811515808105 -0.0586671366500246 -0.7218617413951598 0.5445219793478816 -0.018529093382288548 2.8449547070629664 -0.8972267650129266
4.919456958770752 -1.469012701218464 -1.8571113348007202 2.3849686819263916 -1.5963299910174769 3.339026927947998 -0.05867020394187259 -0.7218781954054477 0.5446302041910738 -0.01847307200239214 2.8448210700502026 -0.8975030423508144
4.91947603225708 -1.4690482404879113 -1.8571699857711792 2.384885712260864 -1.5962803999530237 3.3389689922332764 -0.05865872803972817 -0.7218672618758759 0.5445478736263505 -0.018557171497835152 2.8449805926779717 -0.8972990541790068
4.91946268081665 -1.4690786761096497 -1.8571770191192627 2.384898825282715 -1.5963457266436976 3.3390674591064453 -0.058670790689861696 -0.721876799678827 0.5445194858587465 -0.018427093988712347 2.844922212166835 -0.8972145098105531
4.9194135665893555 -1.4690935176661988 -1.85719633102417 2.384939118022583 -1.5963133017169397 3.3390183448791504 -0.05870271880232283 -0.7218803257823307 0.544504674556176 -0.01841188488309534 2.8449697858155636 -0.8972597272265156
4.919520854949951 -1.4691588294557114 -1.857222080230713 2.3848976331898193 -1.596370045338766 3.339019298553467 -0.05861016410103689 -0.7218965105012243 0.5444303250161402 -0.01858651038880365 2.8449777069647793 -0.8970296767874639
4.919520854949951 -1.469112978582718 -1.8572074174880981 2.384841127986572 -1.5963495413409632 3.33901047706604 -0.058617187550133856 -0.7218764965407554 0.5444629867600846 -0.018590716573109324 2.844993774099527 -0.8970476120939741
4.919528484344482 -1.4690802183798333 -1.8571938276290894 2.3848768907734375 -1.5963414351092737 3.339022636413574 -0.05861672446684439 -0.7218737738078748 0.5445028384966236 -0.01858186930805051 2.844944388419739 -0.8971584624868278
4.919520854949951 -1.469080240731575 -1.8571815490722656 2.3848575788685302 -1.5963414351092737 3.339026927947998 -0.05862295117948517 -0.7218737136786152 0.5445082156067925 -0.018565072663812864 2.8449496494644912 -0.897149581010235
