gadestri/Universal-robots-Hand-tracking-to-move-the-robot/RTDE/2022_03_18_12_38_07.csv
actual_q_0 actual_q_1 actual_q_2 actual_q_3 actual_q_4 actual_q_5 actual_TCP_pose_0 actual_TCP_pose_1 actual_TCP_pose_2 actual_TCP_pose_3 actual_TCP_pose_4 actual_TCP_pose_5
4.919467926025391 -1.4690815967372437 -1.857193946838379 2.3848976331898193 -1.59633714357485 3.3389852046966553 -0.05865338289855569 -0.7218731745536344 0.5445070447226538 -0.018547278922742553 2.844960970468899 -0.897206101509754
4.919439315795898 -1.4691231113723298 -1.857130765914917 2.384927435512207 -1.5963628927813929 3.3389313220977783 -0.05865047562087187 -0.7219041682834846 0.5445327825835833 -0.01859588145998113 2.844928691029798 -0.8972778865827623
4.919439315795898 -1.4690890845707436 -1.8571157455444336 2.384906454677246 -1.5963323752032679 3.3390302658081055 -0.05867922400858756 -0.7218948158049909 0.5445615217366448 -0.01844200983612711 2.8449118148692847 -0.8973122628772757
4.919508457183838 -1.4690860149315377 -1.8571183681488037 2.3848976331898193 -1.5964162985431116 3.3390228748321533 -0.05860945994594188 -0.7218935907305594 0.5445581055202063 -0.018589144616841382 2.8448324138476293 -0.8972437820290105
4.919488906860352 -1.4691098493388672 -1.85712730884552 2.384906454677246 -1.5963628927813929 3.339010715484619 -0.05863170859287678 -0.7219012789731243 0.5445381802435251 -0.01855352242445369 2.8448989110715432 -0.8972465297660572
4.919492244720459 -1.4691067722490807 -1.8571680784225464 2.384878082866333 -1.596365753804342 3.3390390872955322 -0.05863730883182082 -0.7218869864367089 0.5445030323920829 -0.018518078501320322 2.8449298572048916 -0.8971498746795821
4.919504165649414 -1.4691350621036072 -1.8571655750274658 2.384894533748291 -1.5963671843158167 3.3389809131622314 -0.05861423217552879 -0.7218998605388499 0.5444901663925146 -0.018618027724757645 2.84494563014574 -0.8971457844915317
4.919463634490967 -1.4691023540547867 -1.8571745157241821 2.384885712260864 -1.5963414351092737 3.3390347957611084 -0.05866307527292465 -0.7218838324355114 0.5445034426059537 -0.01847241134574729 2.844954720968489 -0.8971769864655285
4.91947603225708 -1.4690979284099122 -1.85712730884552 2.38487355291333 -1.5963957945453089 3.338998794555664 -0.05863294804456923 -0.7218907809752282 0.5445395778107516 -0.018567319558063778 2.8448913559638207 -0.8972055259675479
4.919487953186035 -1.4690696609071274 -1.8571475744247437 2.384923143977783 -1.5963414351092737 3.3390393257141113 -0.05864649253224618 -0.721885235475437 0.5445537002113242 -0.018502180155844816 2.8448869044585803 -0.8973017879347387
4.919463634490967 -1.4690890845707436 -1.857153058052063 2.384910984630249 -1.5962875525103968 3.3389763832092285 -0.05866295904573589 -0.7218884657074833 0.5445368600528725 -0.0185319235382254 2.8449754895871977 -0.8972981134045452
4.919484615325928 -1.4691067722490807 -1.8571680784225464 2.384894533748291 -1.5962789694415491 3.339010715484619 -0.058656416441518706 -0.7218907860452612 0.5445092064353488 -0.018508026931490267 2.8449991768663487 -0.8972256570948418
4.919455051422119 -1.4691173446229477 -1.8571983575820923 2.3849410253712158 -1.5963705221759241 3.3389852046966553 -0.05865156691175279 -0.7218890706394085 0.5444865378718787 -0.01854362734159526 2.8449353789214293 -0.8971952548797909
4.919467449188232 -1.4691098493388672 -1.85715651512146 2.3848752218433837 -1.5963323752032679 3.339043617248535 -0.05866290681537383 -0.7218899749999929 0.5445097707955449 -0.018461297286881263 2.844958878987847 -0.8971793193146157
4.919435977935791 -1.469086007480957 -1.85712730884552 2.384866161937378 -1.5962994734393519 3.3390183448791504 -0.05868858990204963 -0.7218860229075368 0.5445482015526223 -0.01843869577805533 2.8449725790050016 -0.897267253724382
4.919442176818848 -1.4691142749837418 -1.8572052717208862 2.384923143977783 -1.5962923208819788 3.339015007019043 -0.058685482550298596 -0.721885601309647 0.544480991760713 -0.018446873117608373 2.8450085617783656 -0.8972045493113938
4.919463634490967 -1.4691394579461594 -1.8571770191192627 2.3848320680805664 -1.5963085333453577 3.3389809131622314 -0.05865864195666433 -0.7218894005153322 0.5444677010596221 -0.018532781329469006 2.845052482740542 -0.8970798330826676
4.919431686401367 -1.4690652427128335 -1.857218623161316 2.384828968639038 -1.5963628927813929 3.338989734649658 -0.05867887729436892 -0.7218493278538605 0.5444855635538542 -0.01850044411085142 2.844996096659243 -0.8970949442329146
4.919458866119385 -1.4691113916090508 -1.8571068048477173 2.384878082866333 -1.5963085333453577 3.3390183448791504 -0.058666771117717405 -0.7219027019848063 0.5445481914492152 -0.018475336923063725 2.8449548708141665 -0.8972673577487917
4.919398307800293 -1.4690652203610917 -1.8571680784225464 2.384857340449951 -1.5963581244098108 3.339043617248535 -0.058711367913359555 -0.7218641297582846 0.5445278898106803 -0.01837549722478452 2.844946513488588 -0.8971995718775403
4.919435024261475 -1.4691306513598938 -1.8571745157241821 2.384894533748291 -1.5963133017169397 3.3389854431152344 -0.05867801362709087 -0.721893599088171 0.5444876543717883 -0.01848856263432965 2.8450093042047313 -0.8971813683954291
4.919419765472412 -1.4691306141069909 -1.8571395874023438 2.384882612819336 -1.5963299910174769 3.339006185531616 -0.05868787447407239 -0.7218992609400149 0.5445107578964011 -0.018445726736096 2.844980248719141 -0.8972022579046618
4.919443607330322 -1.4690979433110734 -1.8571521043777466 2.3849186140247802 -1.5963791052447718 3.3389763832092285 -0.058655801450925686 -0.7218892314983081 0.5445306739571262 -0.018545253916061294 2.84490647983713 -0.8972526899388373
4.919463634490967 -1.4690608543208619 -1.8571680784225464 2.384934826488159 -1.5963671843158167 3.3389852046966553 -0.05864893628813938 -0.7218759957156448 0.5445475419750232 -0.018556294645271348 2.8448855896225815 -0.897303561366358
4.919455051422119 -1.4691262257150193 -1.8571680784225464 2.384890003795288 -1.5962846914874476 3.339015007019043 -0.05867598321280502 -0.7218952553617604 0.5444945474127146 -0.018462041188921387 2.845016154075589 -0.8971953624996493
4.919456481933594 -1.4690786835602303 -1.8572187423706055 2.384910984630249 -1.5963791052447718 3.3390183448791504 -0.058659835774311664 -0.7218665768488233 0.5444909140583647 -0.018502608955211806 2.844927151456106 -0.8971679083241365
4.9194231033325195 -1.4691230964711686 -1.8571770191192627 2.3848604398914794 -1.5963581244098108 3.339043617248535 -0.05868954447544757 -0.7218844542467882 0.5444815434497546 -0.018409176492595197 2.8449797434263493 -0.8971090651650808
4.919443607330322 -1.4691098120859643 -1.857189416885376 2.384936495418213 -1.5963042418109339 3.3389313220977783 -0.0586644000505024 -0.7218884080152549 0.5445008546938632 -0.018574115307405163 2.8449979492595334 -0.8972597355906893
4.919487953186035 -1.4691054683974762 -1.8572072982788086 2.384894533748291 -1.59633714357485 3.338994264602661 -0.058639704577522545 -0.7218793212808248 0.5444794974837883 -0.01856193406740595 2.844978634786062 -0.8971461568856811
4.919463634490967 -1.4691142749837418 -1.8571442365646362 2.384869022960327 -1.5963705221759241 3.3390228748321533 -0.05865213902722003 -0.7218921575379114 0.544514449302518 -0.01850302465656573 2.8449328418949844 -0.8971659493246553
4.919431686401367 -1.4690815967372437 -1.857122778892517 2.384906454677246 -1.596283260975973 3.339010715484619 -0.05869289720263286 -0.7218911098556609 0.544563179499123 -0.018436531289754123 2.844958243433545 -0.8973445736780258
4.919480323791504 -1.469130554502346 -1.8571397066116333 2.384890003795288 -1.5963342825519007 3.3390183448791504 -0.05864540617912331 -0.7219037954827578 0.5445116897623351 -0.018516469089077635 2.844953387733258 -0.8971954223567696
4.919418811798096 -1.4690727305463334 -1.857185959815979 2.384878082866333 -1.5963042418109339 3.3390555381774902 -0.058710927282355455 -0.7218681241402574 0.5445141694157781 -0.01836252801031422 2.8449850580404252 -0.8972158356714851
4.919467926025391 -1.4690994334271927 -1.8571654558181763 2.384906454677246 -1.5963042418109339 3.3390302658081055 -0.05866670979950444 -0.7218889922526507 0.5445174195921821 -0.018468359456935826 2.8449646472547783 -0.8972409868545589
4.919439315795898 -1.469086007480957 -1.8571983575820923 2.3849198061176757 -1.5963581244098108 3.3389809131622314 -0.05866776400680118 -0.721874398506034 0.544504585377525 -0.01852229300336635 2.8449442307373833 -0.8972193911627139
4.91947603225708 -1.4691067573479195 -1.8571351766586304 2.38493196546521 -1.5963042418109339 3.339006185531616 -0.058653344537964794 -0.7219025308398758 0.5445409276311245 -0.018514892028082642 2.8449382871807196 -0.897309340907995
4.919443607330322 -1.4690979433110734 -1.857151985168457 2.384901924724243 -1.5963881651507776 3.3389642238616943 -0.0586517786460555 -0.721886604256662 0.5445276407218906 -0.018566603722740455 2.8449123240283547 -0.897227931632432
4.9195170402526855 -1.4690803226879616 -1.8571680784225464 2.384923143977783 -1.5963299910174769 3.3389732837677 -0.058615298884314306 -0.7218853350365559 0.5445330048232214 -0.018631582922097135 2.8449241065139765 -0.8972733777102757
4.919435024261475 -1.4690860000303765 -1.8571724891662598 2.384854241008423 -1.596283260975973 3.3390138149261475 -0.05869467428802615 -0.7218738718174169 0.5445122312270214 -0.018435217999631437 2.845022663176683 -0.8972002900557238
4.919455051422119 -1.4690979284099122 -1.857161045074463 2.384885473842285 -1.59633714357485 3.3390347957611084 -0.05866988749829696 -0.7218850753474664 0.5445167650119542 -0.01845867258497335 2.844949450536693 -0.8972047062894952
4.919495582580566 -1.469097913508751 -1.857161045074463 2.384903593654297 -1.5963838736163538 3.3390390872955322 -0.058630435628228214 -0.7218886942026961 0.5445190403480967 -0.018531670317264732 2.844888553093807 -0.8971952083341201
4.919463634490967 -1.4691098865917702 -1.857193946838379 2.384906454677246 -1.596349064503805 3.339043617248535 -0.05866298724089053 -0.7218845575998628 0.5444871157325178 -0.018462849745374713 2.844950343709587 -0.8971628625504505
4.91945219039917 -1.4691067722490807 -1.8571804761886597 2.3848976331898193 -1.596349064503805 3.338994264602661 -0.0586612735684071 -0.721884233386135 0.5444991955429422 -0.01851720400523895 2.8449604832525233 -0.8971853101221506
4.919463634490967 -1.4690608394197007 -1.8571699857711792 2.38487355291333 -1.596374813710348 3.3390183448791504 -0.05865544672609964 -0.7218673969456019 0.5445329866271985 -0.01851211842824724 2.844910403552824 -0.8972078493251464
4.919435977935791 -1.4690890994719048 -1.857151985168457 2.384923143977783 -1.5963133017169397 3.3390512466430664 -0.05869151139398805 -0.7218889469421899 0.5445372059549289 -0.01839791348119559 2.844935371615614 -0.8972927596426625
4.919471740722656 -1.4691230666688462 -1.8571873903274536 2.384910984630249 -1.596325699483053 3.339015007019043 -0.05865533745114367 -0.7218922081766939 0.5444852211972551 -0.018504292361681475 2.844975516792336 -0.8971766435212701
4.919467449188232 -1.4690935176661988 -1.8572187423706055 2.38483635961499 -1.5963414351092737 3.3389854431152344 -0.05865478028031999 -0.7218629928203748 0.5444679355652984 -0.018546932073518586 2.845018345479137 -0.8970720081074212
4.919427394866943 -1.469105453496315 -1.8571983575820923 2.384861631984375 -1.5962994734393519 3.3389642238616943 -0.05868640752162002 -0.7218741074705556 0.5444816541899364 -0.018501409271683696 2.845047238459395 -0.8971520081770361
4.919508457183838 -1.4690935176661988 -1.857151985168457 2.384910984630249 -1.5962923208819788 3.3390183448791504 -0.058637425396749154 -0.7218932982034343 0.5445332448992999 -0.01853795497801328 2.8449517323684756 -0.8972738470340179
4.919435024261475 -1.4691262182644387 -1.8571983575820923 2.384910984630249 -1.5963671843158167 3.338982105255127 -0.05866628870159238 -0.7218870271229892 0.5444746842810355 -0.018517638896772333 2.844968214430643 -0.8971492485723646
4.919471740722656 -1.4691187155297776 -1.8572007417678833 2.384927673930786 -1.5963042418109339 3.3390347957611084 -0.05866467227277405 -0.7218905320145049 0.5444813461255325 -0.018466189622499504 2.8449834361950432 -0.8971946038224304
4.919467449188232 -1.4691306141069909 -1.85719633102417 2.384903593654297 -1.5963671843158167 3.3389809131622314 -0.058642407773286935 -0.7218899624119763 0.544471757045579 -0.018565299992631897 2.8449660543696615 -0.897129922447817
4.919483661651611 -1.469126210813858 -1.8571635484695435 2.384878082866333 -1.596325699483053 3.338989734649658 -0.058641141935943844 -0.7218949890893647 0.544495392861865 -0.018557481892585034 2.8449859980620933 -0.8971627836555309
4.919484615325928 -1.4691054236939927 -1.8571531772613525 2.384878082866333 -1.5963504950152796 3.338989734649658 -0.058635859090008964 -0.721889468935958 0.5445170648231014 -0.018570921302714476 2.8449461571965338 -0.8971911704098912
4.919488906860352 -1.4691847202232857 -1.8571094274520874 2.384861631984375 -1.5963628927813929 3.3389720916748047 -0.05861876459756202 -0.7219256767439843 0.5444920995418119 -0.01860687874280987 2.8449715647465115 -0.8971172549601726
4.919496536254883 -1.4691306364587327 -1.8571487665176392 2.384906454677246 -1.5963628927813929 3.339006185531616 -0.05862485954865758 -0.7219039134140535 0.544507645743272 -0.018569817337574384 2.8449243510173434 -0.8971891650885433
4.9194793701171875 -1.46908591807399 -1.8571395874023438 2.384861631984375 -1.5963457266436976 3.338994264602661 -0.058642800865043074 -0.7218834339945891 0.5445376624170741 -0.01855549900882359 2.8449398546097324 -0.8972161735726916
4.9195170402526855 -1.4690979284099122 -1.857122778892517 2.38487355291333 -1.5963581244098108 3.3389732837677 -0.05860659588024095 -0.7218949909646889 0.5445446775310809 -0.018644775082607284 2.8449146337962 -0.8972287205466968
4.919435024261475 -1.469142535035946 -1.8571635484695435 2.384894533748291 -1.5963581244098108 3.339060068130493 -0.058681166807139765 -0.721900134801761 0.5444844085130719 -0.01840278813476177 2.8449552337807367 -0.8971413361299219
4.919443607330322 -1.4691306141069909 -1.8572028875350952 2.3848320680805664 -1.596325699483053 3.3390767574310303 -0.05869012564058865 -0.7218795292238086 0.5444510386905644 -0.01837528110648408 2.845031037447844 -0.8970327484354087
4.919496536254883 -1.469093458061554 -1.8571983575820923 2.3849198061176757 -1.59633714357485 3.3389687538146973 -0.05862824861742829 -0.7218808296551709 0.5445002833536305 -0.018611129416428094 2.844953901485904 -0.8972116911425139
4.919471740722656 -1.4691217702678223 -1.857161045074463 2.384906454677246 -1.5963504950152796 3.339015007019043 -0.058648593793122386 -0.7218967931025495 0.5445045588164469 -0.01851626631820775 2.844940916071822 -0.8971943907186527
4.919508457183838 -1.4690815967372437 -1.85715651512146 2.384869261378906 -1.59633714357485 3.3389763832092285 -0.058621203399015026 -0.7218805898089 0.5445300820036417 -0.018618116717929963 2.8449467074030785 -0.8972118921243036
4.919471740722656 -1.4691186931780358 -1.8571654558181763 2.384894533748291 -1.5963414351092737 3.3390016555786133 -0.05864877109038652 -0.7218931058736735 0.5445016457715919 -0.01853101710171256 2.8449597456279054 -0.8971840457273766
4.919484615325928 -1.4691067722490807 -1.8571724891662598 2.384936495418213 -1.596353832875387 3.3390228748321533 -0.05864101826838285 -0.7218935427526034 0.5445118677521689 -0.018525174012255334 2.8449121108177358 -0.8972337230051208
4.91947603225708 -1.4690935027650376 -1.8571397066116333 2.384885473842285 -1.5963323752032679 3.3389687538146973 -0.05864201493909439 -0.7218892060714162 0.5445380364538017 -0.018580960003630718 2.8449478533928487 -0.897250800383449
4.919463157653809 -1.4691231411746521 -1.857184886932373 2.384910984630249 -1.596250359212057 3.3390228748321533 -0.058679995545392646 -0.7218944644309591 0.5444886815606428 -0.018446456759346738 2.845035614243541 -0.8972204102701513
4.91949987411499 -1.46906831980262 -1.8571938276290894 2.3848976331898193 -1.59633714357485 3.338989734649658 -0.058632196030383804 -0.7218704053925927 0.5445162210538858 -0.018586534732561482 2.844943142554174 -0.8972168702790297
4.919443607330322 -1.4690935027650376 -1.8572052717208862 2.384899063701294 -1.596320931111471 3.338956832885742 -0.05866865995301488 -0.7218735598749495 0.5444917198738227 -0.018545171892739874 2.8450010402121952 -0.897195944642006
4.919439315795898 -1.4691306141069909 -1.857161045074463 2.384915514583252 -1.59633714357485 3.339048147201538 -0.05868067294712469 -0.7219000223041416 0.5444995409967446 -0.0184167434619592 2.844952106624057 -0.8972017208928738
4.919467449188232 -1.4690904331258317 -1.857131838798523 2.384899063701294 -1.5963504950152796 3.339043617248535 -0.058658368270175294 -0.7218917430721659 0.5445461309346279 -0.018470800716263603 2.844901899907028 -0.8972609506317966
4.919484615325928 -1.4690608170679589 -1.8571680784225464 2.384878082866333 -1.596374813710348 3.3389809131622314 -0.05863269562237795 -0.7218692493514529 0.5445364284967372 -0.01859531224511499 2.844910015360509 -0.8972198022763854
4.919483661651611 -1.4691350397518654 -1.8571699857711792 2.384915514583252 -1.5963414351092737 3.3390421867370605 -0.05864664063615585 -0.7219018629803406 0.5444897739100003 -0.018489889157528763 2.844946779405318 -0.8971738590845291
4.919463634490967 -1.4690756362727662 -1.857122778892517 2.384878082866333 -1.5963414351092737 3.3389973640441895 -0.05865521920448268 -0.7218852779631182 0.5445607437863266 -0.018527516818952438 2.8449196465894104 -0.8972795228638492
4.919528961181641 -1.4690979284099122 -1.85715651512146 2.384890003795288 -1.5963085333453577 3.3389973640441895 -0.05861526281533585 -0.7218914444911325 0.5445228771056922 -0.01860403337124242 2.8449568377172594 -0.8972249907529929
4.9194464683532715 -1.4691632998040696 -1.8571815490722656 2.3849527078815917 -1.596374813710348 3.3389809131622314 -0.05865136464469624 -0.7219103806867335 0.5444696434721223 -0.01853890879270374 2.8449461160808984 -0.897172078196344
4.919467926025391 -1.4690815818360825 -1.8571635484695435 2.384910984630249 -1.5963457266436976 3.338994264602661 -0.058651328119409624 -0.7218821635731313 0.5445321817105895 -0.018539118911923367 2.844924556969869 -0.8972585420524918
4.919455051422119 -1.4691847202232857 -1.85715651512146 2.38487355291333 -1.596365753804342 3.338994264602661 -0.05864903846596025 -0.7219141766679845 0.5444580843962117 -0.018527476672381776 2.8449946951436944 -0.8970708370085644
4.91947603225708 -1.469105416243412 -1.857185959815979 2.384923143977783 -1.5962966124164026 3.339027166366577 -0.05866214286849543 -0.7218891050927287 0.5445012903047299 -0.018480289311781098 2.844975671482162 -0.8972309763677803
4.919492244720459 -1.4690438222936173 -1.857185959815979 2.3848797517963867 -1.596353832875387 3.3389854431152344 -0.058634964417135296 -0.7218601992375179 0.5445354089735523 -0.018590083176895696 2.8449235022609605 -0.8972296921919355
4.919487953186035 -1.4690682601979752 -1.8571983575820923 2.384857340449951 -1.5963581244098108 3.339027166366577 -0.0586447316541127 -0.7218629995900135 0.544503355858633 -0.01852550753803401 2.844947802213126 -0.897140308617927
4.919435977935791 -1.4691023540547867 -1.8571113348007202 2.384878082866333 -1.59633714357485 3.339015007019043 -0.05867706699275971 -0.7218962402408531 0.5445504361406674 -0.018460774826493158 2.844935604913018 -0.8972632843674099
4.919455051422119 -1.4691186931780358 -1.8571983575820923 2.384899063701294 -1.5963085333453577 3.339010715484619 -0.0586716174329744 -0.7218858310651672 0.544478181455164 -0.01847859227244572 2.845006387381901 -0.8971650865478181
4.919435024261475 -1.4690890994719048 -1.8571654558181763 2.384882612819336 -1.5963085333453577 3.338994264602661 -0.058683768825642704 -0.7218796036792403 0.544520892159753 -0.01847492251492939 2.8449868626190695 -0.8972341173497544
4.919483661651611 -1.4690652203610917 -1.8571397066116333 2.38487355291333 -1.5963133017169397 3.338994264602661 -0.058648272474968344 -0.7218787869604498 0.5445550670761634 -0.018547317238711194 2.8449449005612717 -0.8972763947224759
4.919463634490967 -1.4690979284099122 -1.8571451902389526 2.384899063701294 -1.5962803999530237 3.339027166366577 -0.05867385527904878 -0.7218926799972535 0.5445330289244272 -0.018456222395733447 2.8449769166770356 -0.8972745161170811
4.919471740722656 -1.4690890622190018 -1.857161045074463 2.3849243360706787 -1.5963504950152796 3.338956832885742 -0.05863907235382755 -0.7218868916746366 0.544532469778603 -0.018600005935015426 2.8449236367861293 -0.8972739429081463
4.919426441192627 -1.4690860000303765 -1.8572028875350952 2.384882612819336 -1.5963504950152796 3.338994264602661 -0.058682619578906955 -0.7218678646816077 0.54449369779462 -0.018481125588180054 2.844976389550994 -0.8971672205212761
4.919435977935791 -1.469160371725895 -1.857185959815979 2.384861631984375 -1.59633714357485 3.339010715484619 -0.05867615548955127 -0.7218966647769669 0.5444506097073908 -0.018463642068689237 2.8450295177336242 -0.8970637873061857
4.919504165649414 -1.469127708380558 -1.8571699857711792 2.384840889567993 -1.5963175932513636 3.339043617248535 -0.05864000019139343 -0.7218909829001579 0.5444808398072268 -0.01850572078485238 2.8450020515961976 -0.8970916401583405
4.919443607330322 -1.4691337060979386 -1.857131838798523 2.384899063701294 -1.596386734639303 3.339043617248535 -0.05866416526278853 -0.7219047647969291 0.5445151931695206 -0.018452501019762875 2.8449056446288 -0.897188125232349
4.919443607330322 -1.4690890473178406 -1.8571699857711792 2.3848914343067626 -1.5963671843158167 3.338994264602661 -0.05866431242738877 -0.7218786110385484 0.5445177848558539 -0.018513925929226873 2.844934241819549 -0.8972068615592143
4.919447898864746 -1.4690860000303765 -1.8571654558181763 2.384873791331909 -1.5963495413409632 3.3390183448791504 -0.05867041395149975 -0.7218772335081332 0.5445196091981712 -0.018477708067343866 2.8449477931268654 -0.8971971102109826
4.9194722175598145 -1.4691098493388672 -1.8571442365646362 2.384903593654297 -1.5963175932513636 3.338977575302124 -0.05864839996438747 -0.7218966769207371 0.5445268997498808 -0.018555845212843845 2.844960529748164 -0.8972540820804669
4.919435977935791 -1.4690771636417885 -1.8571635484695435 2.3849288660236816 -1.5963457266436976 3.3389854431152344 -0.058672512396706164 -0.7218810408326886 0.5445389996310775 -0.018506518172064525 2.8449212631266714 -0.8972966380689897
4.919439315795898 -1.469144159262516 -1.857153058052063 2.384915514583252 -1.5963299910174769 3.339006185531616 -0.05867258860646018 -0.721906459359858 0.5444975847342126 -0.018473098087366534 2.844971609655294 -0.8972063990672852
4.919450759887695 -1.4690740716508408 -1.857189416885376 2.384910984630249 -1.596386734639303 3.3390510082244873 -0.058667532192203574 -0.7218718288957421 0.5445151548730098 -0.018452259808643418 2.8448933284188365 -0.8972040696539199
4.919415473937988 -1.4690935176661988 -1.8571306467056274 2.384899063701294 -1.5963042418109339 3.338994264602661 -0.058696314870388476 -0.7218907447198334 0.5445474745970873 -0.018446013848849606 2.8449663469967614 -0.8973032684191818
4.919459342956543 -1.4691142973354836 -1.857153058052063 2.384882612819336 -1.5963414351092737 3.3389971256256104 -0.05865682831439022 -0.7218921214976033 0.5445118828559518 -0.018520166368436758 2.84496100415606 -0.897193906328793
4.919439315795898 -1.4691010427526017 -1.8571486473083496 2.384899063701294 -1.5963457266436976 3.3390347957611084 -0.05867808582963083 -0.7218898536225471 0.5445264239124226 -0.018440560321341372 2.8449323954596686 -0.8972339972323482
4.919471740722656 -1.4691186633757134 -1.8571441173553467 2.384882612819336 -1.5963085333453577 3.339027166366577 -0.05866047091553511 -0.7218977975415372 0.5445155402286885 -0.01848004547356976 2.844974343764609 -0.8972092674669576
4.919463634490967 -1.4690318641117592 -1.85712730884552 2.3848959642597656 -1.5963838736163538 3.3390183448791504 -0.058652784372684265 -0.7218701372810712 0.5445895453950184 -0.018518116370597994 2.844844495138975 -0.8973294288661187
4.919430732727051 -1.4691186857274552 -1.8571680784225464 2.384915514583252 -1.5963085333453577 3.3390274047851562 -0.0586904912190747 -0.7218941115216956 0.5445038143583679 -0.018421102259814078 2.844979631304082 -0.8972294371541358
4.919487953186035 -1.4691306364587327 -1.8571350574493408 2.384866161937378 -1.5963323752032679 3.339006185531616 -0.058638304538812434 -0.7219020589512404 0.5445108992102641 -0.01854369397000394 2.844967804777783 -0.8971713697921229
4.919524669647217 -1.469130666261055 -1.857131838798523 2.384936495418213 -1.5963581244098108 3.338982105255127 -0.05859922275651429 -0.7219135648203874 0.544527119716171 -0.0186425089612737 2.844897594392423 -0.8972540692549615
4.919492244720459 -1.4691173893264313 -1.8571182489395142 2.38487355291333 -1.5963581244098108 3.3390228748321533 -0.05863260982034778 -0.7219021403702706 0.5445331349520218 -0.01853857259032543 2.8449183604290593 -0.8972037460927484
4.919443607330322 -1.4690727454474946 -1.8571395874023438 2.384866161937378 -1.5963166395770472 3.339010715484619 -0.05867930709825566 -0.7218782449865966 0.5445479242986687 -0.01846828177108748 2.844957866587469 -0.897259381026186
4.919492244720459 -1.4690608170679589 -1.8571317195892334 2.384906454677246 -1.596325699483053 3.338965654373169 -0.05863268528378646 -0.7218834356265799 0.5445711261540145 -0.018606453929846743 2.844911452024512 -0.8973346736842334
4.919439315795898 -1.4690859925797959 -1.857161045074463 2.3849198061176757 -1.596374813710348 3.339010715484619 -0.05866796512562776 -0.7218832624736407 0.5445315386070818 -0.018488376567878485 2.844900120549855 -0.8972546858612191
4.9193902015686035 -1.4691262182644387 -1.8571654558181763 2.384882612819336 -1.59633714357485 3.338977575302124 -0.0587035994747046 -0.7218892113616695 0.54449490527646 -0.018447231065283676 2.8450025394160505 -0.8971811092061232
4.919454574584961 -1.4691143196872254 -1.8571724891662598 2.384906454677246 -1.5963628927813929 3.339006185531616 -0.05865757929812526 -0.7218899440250881 0.5445010298670003 -0.018510019105149725 2.8449399726616535 -0.8971875360781029
4.9194464683532715 -1.4690978911570092 -1.8571759462356567 2.384861870402954 -1.5963013807879847 3.3389854431152344 -0.058675806234993966 -0.7218781545746134 0.5445032364052993 -0.018499872523998987 2.845016684091189 -0.8971835914978095
4.91947603225708 -1.4691262406161805 -1.8571351766586304 2.384927435512207 -1.59633714357485 3.339043617248535 -0.058651963336217285 -0.721908402804858 0.5445246077776861 -0.018476161045453576 2.8449173545539588 -0.8972520198010033
4.919443607330322 -1.469109834437706 -1.857185959815979 2.384903593654297 -1.596325699483053 3.3390228748321533 -0.05867830286389322 -0.7218852820000391 0.544493817843104 -0.018453407181829088 2.844976407504839 -0.89719040508
4.919406890869141 -1.4691098493388672 -1.8571486473083496 2.384936495418213 -1.59633714357485 3.3389809131622314 -0.05869116642596279 -0.7218957629671936 0.5445294088770466 -0.018467350225759918 2.84494333243234 -0.8972942762777114
4.91947603225708 -1.4690890994719048 -1.8571949005126953 2.384948177928589 -1.5962994734393519 3.3390016555786133 -0.05865747776947688 -0.7218841697024575 0.5445114226020481 -0.018518275499829064 2.8449594746747233 -0.8972781226174839
4.919455051422119 -1.4690890845707436 -1.85712730884552 2.38487355291333 -1.5963628927813929 3.3390016555786133 -0.058656758778033884 -0.7218873274336283 0.5445464417708122 -0.01851857992094544 2.8449174079497017 -0.8972386250919632
4.919447898864746 -1.4691260767034073 -1.857161045074463 2.3849078851887207 -1.59633714357485 3.3389971256256104 -0.05866493675222206 -0.7218972709999735 0.5445027001797749 -0.018501652599921727 2.844964179979484 -0.8972059523995789
4.919500827789307 -1.469056398873665 -1.8571351766586304 2.3849186140247802 -1.5963414351092737 3.338989734649658 -0.05862787464254348 -0.7218830462792706 0.5445728598719222 -0.018591667423855873 2.844882415197826 -0.8973374355276222
4.919492244720459 -1.4691023540547867 -1.8571442365646362 2.384910984630249 -1.5962994734393519 3.338989734649658 -0.058640807437322987 -0.7218968220576565 0.5445336350645058 -0.018558915125678047 2.84495781051881 -0.8972774343906361
4.919439315795898 -1.469109834437706 -1.8571983575820923 2.384894533748291 -1.5963085333453577 3.338994264602661 -0.05868050421242588 -0.7218809453389062 0.5444839313050709 -0.01847983883433338 2.845011800876654 -0.8971772651684695
4.919496536254883 -1.469126248066761 -1.8571699857711792 2.384866161937378 -1.5963175932513636 3.338973045349121 -0.05863102256747169 -0.721892612471955 0.5444888587076652 -0.018595595868602533 2.8450046941383205 -0.8971431308503435
4.919447898864746 -1.4690979433110734 -1.857161045074463 2.384878082866333 -1.5963342825519007 3.3389852046966553 -0.0586660958256563 -0.7218831474362613 0.5445168377346092 -0.01851777183326907 2.8449703158042383 -0.8972075102639103
4.919480323791504 -1.4691218745759507 -1.8571397066116333 2.38493458806958 -1.596325699483053 3.3390138149261475 -0.058645939165352934 -0.721906940000321 0.5445267647831614 -0.018519505707449212 2.844928475901958 -0.8972726196059796
4.919463634490967 -1.4690281984261055 -1.8572027683258057 2.384885712260864 -1.5963299910174769 3.338998794555664 -0.058665513733736886 -0.7218505341755821 0.5445348982135126 -0.018519514430068534 2.8449441973802356 -0.8972519274461653
4.919471740722656 -1.4690651905587693 -1.857122778892517 2.384866400355957 -1.5963838736163538 3.339019536972046 -0.0586452268652863 -0.7218795629819473 0.5445640243560429 -0.018527052041842657 2.844878320498259 -0.8972490867001391
4.919483661651611 -1.469147616331913 -1.8572187423706055 2.3849186140247802 -1.5963323752032679 3.338982105255127 -0.05863830672361435 -0.7218945718515262 0.5444467479893974 -0.01856987878843313 2.8450051053162806 -0.8971124003885695
4.919471740722656 -1.46906981736932 -1.8571218252182007 2.38493196546521 -1.5963085333453577 3.338982105255127 -0.05865277955006607 -0.7218919380998956 0.5445772807369067 -0.01854623426327947 2.8449104364454607 -0.8973802269956321
4.919455051422119 -1.469081738298275 -1.8571442365646362 2.384857340449951 -1.5963457266436976 3.338977575302124 -0.05865772063491807 -0.721878622166827 0.5445366997341652 -0.018544672142630437 2.8449532439115974 -0.8972178912058246
4.919480323791504 -1.4691217702678223 -1.8571486473083496 2.3849288660236816 -1.5963457266436976 3.338998794555664 -0.058639057131175495 -0.7219032569669521 0.5445189060128607 -0.01854981675581679 2.8449248965422615 -0.8972452916136343
4.919496536254883 -1.4690774467638512 -1.8571892976760864 2.384894533748291 -1.5962923208819788 3.3390347957611084 -0.05865281308727824 -0.7218758726674415 0.5445124826009836 -0.018496969971730226 2.8449742796722584 -0.8972222652479894
4.919471740722656 -1.4691594702056427 -1.8571442365646362 2.384943647975586 -1.5962923208819788 3.3389973640441895 -0.05865363833059689 -0.7219206663336281 0.5445003016354746 -0.01851453061215527 2.8449825345586994 -0.8972510692288085
4.9194231033325195 -1.469106489127018 -1.8571442365646362 2.384890003795288 -1.5963838736163538 3.3390183448791504 -0.05867751670537202 -0.7218894434335236 0.5445237572677162 -0.01845833158652395 2.8449158751976533 -0.8972064417615776
4.919459342956543 -1.4690893676928063 -1.8571770191192627 2.384960337276123 -1.5963581244098108 3.338982105255127 -0.058651146288453485 -0.7218874163428896 0.5445262727816225 -0.01854976021617423 2.844902401359159 -0.8972939173991333
4.919467449188232 -1.469138891702034 -1.8571815490722656 2.384943647975586 -1.59633714357485 3.3390016555786133 -0.05865088542788218 -0.7219029604105807 0.5444851389978063 -0.01852244319203075 2.844956597247874 -0.8972045815299671
4.919377326965332 -1.4690569651177903 -1.8571892976760864 2.38483635961499 -1.5963299910174769 3.338973045349121 -0.05872118521387294 -0.7218519364095404 0.5445162354999034 -0.018432853052318725 2.8450131563896193 -0.8971871152032503
4.919443607330322 -1.469118410055973 -1.857161045074463 2.3849524694630126 -1.5963414351092737 3.3389809131622314 -0.058663273266083955 -0.7219000376552263 0.5445170986619194 -0.01852110018954684 2.8449334001960005 -0.8972780575922633
4.919431686401367 -1.4691064667752762 -1.857185959815979 2.384882612819336 -1.5963504950152796 3.3390138149261475 -0.058680306198020074 -0.7218797563150949 0.5444917179884362 -0.018460655989857567 2.844972452926713 -0.8971575491367555
4.919480323791504 -1.4690936592272301 -1.8571442365646362 2.3849691587635498 -1.5963175932513636 3.3389732837677 -0.058641199696430335 -0.7219002429867215 0.5445510686605052 -0.018574310600397975 2.8449087892669462 -0.8973633714138196
4.919402599334717 -1.4691098493388672 -1.8571654558181763 2.384878082866333 -1.5963042418109339 3.339015007019043 -0.058710818333569545 -0.7218848313170433 0.5445050959614458 -0.01839682765081589 2.84500953273199 -0.8972047526471346
4.919459342956543 -1.4690979656628151 -1.8571442365646362 2.384894533748291 -1.5963581244098108 3.3390228748321533 -0.05865859060589999 -0.7218899016785041 0.544531058853163 -0.018491813355901325 2.8449181015244185 -0.8972297073618626
4.919480323791504 -1.4690936592272301 -1.8571486473083496 2.3849362569996337 -1.5963323752032679 3.33903169631958 -0.05865047247322733 -0.7218950071421248 0.5445392308350663 -0.018497559758865172 2.844905645570968 -0.8972936430595573
4.919403076171875 -1.4691108998707314 -1.8571486473083496 2.3849033552357177 -1.596353832875387 3.3389854431152344 -0.05869182291123153 -0.721891014385071 0.5445216670882134 -0.01846286354886023 2.8449508130779453 -0.8972391532963767
4.91949987411499 -1.4691432800940056 -1.85715651512146 2.384894533748291 -1.59633714357485 3.3389732837677 -0.058621543784110074 -0.7219054341502589 0.5444922743215458 -0.018609065033169635 2.8449725209823318 -0.897165369610639
4.91945219039917 -1.4690612864545365 -1.8571521043777466 2.3849198061176757 -1.5963414351092737 3.3390421867370605 -0.05867381535393771 -0.7218786489676011 0.544555352599596 -0.01844736001904108 2.8448952518266397 -0.8973089801955973
4.919484615325928 -1.469081738298275 -1.857130765914917 2.384906454677246 -1.5963342825519007 3.3390016555786133 -0.05864175633086405 -0.7218908584101198 0.5445560528949227 -0.01854780615444515 2.8449101472472673 -0.8972976263006479
4.919512748718262 -1.469074086552002 -1.8571486473083496 2.384873791331909 -1.5963175932513636 3.338940143585205 -0.05861540887800246 -0.7218807740242866 0.5445436764783937 -0.018667267528223522 2.8449579203169466 -0.8972554559563153
4.919439315795898 -1.4690487173250695 -1.8571094274520874 2.384857340449951 -1.5963791052447718 3.3389809131622314 -0.058662861836365814 -0.7218734467323947 0.5445850459512204 -0.018534443322533845 2.844887120301363 -0.8972935894255718
4.919492244720459 -1.4691013109735032 -1.8571395874023438 2.384882612819336 -1.596374813710348 3.338989734649658 -0.05862434274841061 -0.7218916755571889 0.5445304894002599 -0.018593344375662374 2.8449105368611325 -0.8972065109974751
4.919487953186035 -1.4690936517766495 -1.8571892976760864 2.384873791331909 -1.5963085333453577 3.338994264602661 -0.058646672246592785 -0.7218774002755635 0.5444979726290425 -0.018549394757811564 2.8449961506764176 -0.8971736066535704
4.91945219039917 -1.4691174936345597 -1.857131838798523 2.3848323064991455 -1.596328083668844 3.339024066925049 -0.058670316118722615 -0.7218917872224542 0.5445154315867502 -0.018465598540474745 2.8449870614645585 -0.8971536006260548
4.9194793701171875 -1.4691260394505044 -1.8571397066116333 2.384906454677246 -1.5963457266436976 3.339010715484619 -0.058641907251201345 -0.7219039668372618 0.5445179798664438 -0.01853143963978952 2.8449331951943515 -0.8972192119754981
4.919439315795898 -1.4691226494363328 -1.857151985168457 2.384899063701294 -1.5962994734393519 3.338982105255127 -0.05867670787951951 -0.7218973686767862 0.5445115767800346 -0.018493834905651294 2.8449984016792347 -0.8972357045996239
4.919435977935791 -1.4690936592272301 -1.857193946838379 2.384927435512207 -1.596320931111471 3.338977575302124 -0.05867693463584639 -0.721879988995803 0.5445051086309963 -0.018505253611471952 2.8449734694177042 -0.8972465576884994
4.919447898864746 -1.4690689382008095 -1.85715651512146 2.384899063701294 -1.596325699483053 3.338998794555664 -0.058672099860289206 -0.7218771557240022 0.5445443129839136 -0.01849542308714112 2.8449401020271954 -0.8972827232539126
4.919463634490967 -1.4690979284099122 -1.8571486473083496 2.384923143977783 -1.5963791052447718 3.3390138149261475 -0.05864844231801283 -0.7218922904335462 0.5445330849353248 -0.018520516223499126 2.8448871438488967 -0.8972520654347405
4.919450759887695 -1.469086007480957 -1.8571475744247437 2.384873791331909 -1.59633714357485 3.339027166366577 -0.05867197911142219 -0.7218821414865256 0.5445331765842544 -0.018463957239503125 2.844943832626047 -0.8972254468774433
4.919488906860352 -1.4690902841142197 -1.8572027683258057 2.3849195676990966 -1.596353832875387 3.339027166366577 -0.05864198427822137 -0.7218784007493879 0.5444969798524 -0.018524711897597582 2.8449290186834597 -0.8971907042184551
4.919455051422119 -1.4690902766636391 -1.8571983575820923 2.3848959642597656 -1.5963414351092737 3.339006185531616 -0.058665473266488834 -0.7218743538407864 0.544496633910321 -0.01850075177852489 2.8449649363449168 -0.8971823621022669
4.919431686401367 -1.469077469115593 -1.8571395874023438 2.3849362569996337 -1.5962966124164026 3.3389973640441895 -0.05868763295488909 -0.7218891294916618 0.5445592124228429 -0.01846156618376621 2.844940105713596 -0.8973631671825906
4.919528961181641 -1.469081738298275 -1.857185959815979 2.384906454677246 -1.5963957945453089 3.339006185531616 -0.05859955057744481 -0.721878581700824 0.54451265636908 -0.0186312171512614 2.844881804734575 -0.8971808434834891
4.919508457183838 -1.469065548186638 -1.8571654558181763 2.384841127986572 -1.596353832875387 3.3389732837677 -0.058619199058018545 -0.7218684198921493 0.5445286512875188 -0.018630139832871498 2.8449468665607256 -0.8971752300174194
4.919480323791504 -1.469089390044548 -1.8571577072143555 2.384873791331909 -1.5963323752032679 3.3389644622802734 -0.05863960062220981 -0.7218820304342091 0.5445251198724242 -0.01859275871192882 2.8449636628952177 -0.8972164128599756
4.919487953186035 -1.4691098493388672 -1.8572052717208862 2.3848725992390136 -1.5964000860797327 3.338965654373169 -0.05861995809229464 -0.7218763446799333 0.544473002751215 -0.018631283052224962 2.844949441708544 -0.8970854052798144
4.91947603225708 -1.469081738298275 -1.857161045074463 2.384870691890381 -1.5963581244098108 3.3389899730682373 -0.05864273235615958 -0.7218774377244819 0.5445259225068086 -0.018562197811948164 2.8449368601496188 -0.8972000359458706
4.919484615325928 -1.4690936592272301 -1.8571395874023438 2.38491074621167 -1.5962994734393519 3.3389883041381836 -0.05864644721193221 -0.7218943480613019 0.5445431852747896 -0.018550424253163732 2.8449519878791425 -0.8972968352260159
4.919427394866943 -1.4691098493388672 -1.8571770191192627 2.384923143977783 -1.5963504950152796 3.3389687538146973 -0.05867274277600472 -0.7218878285844075 0.5445053682529316 -0.018519147298099954 2.844956012281107 -0.8972293777843334
4.919496536254883 -1.4690936592272301 -1.85712730884552 2.3848575788685302 -1.5963457266436976 3.338961362838745 -0.05862281260895005 -0.7218892059484131 0.5445417504275908 -0.018626825572844938 2.8449430444077284 -0.8972199273745954
4.919471740722656 -1.4690367963961144 -1.8571680784225464 2.38491074621167 -1.596349064503805 3.3389732837677 -0.05864724393519484 -0.7218649874022274 0.5445603400939258 -0.018576888549464123 2.8449010107065567 -0.8973139181339191
4.919439315795898 -1.4690732073834916 -1.8571362495422363 2.384906454677246 -1.596349064503805 3.339006185531616 -0.058672923321893236 -0.7218835007627533 0.5445573325917923 -0.018483831897578424 2.844906997807393 -0.897301882357634
4.919467926025391 -1.4691303086331864 -1.8571022748947144 2.3849097925373535 -1.596323315297262 3.338956832885742 -0.05864227694223992 -0.7219142325853027 0.5445461157852965 -0.01858246244919394 2.8449448039000496 -0.8972932057833876
4.919540882110596 -1.4690979284099122 -1.8571157455444336 2.38491074621167 -1.596325699483053 3.338994264602661 -0.058599534725203926 -0.7219042562353271 0.5445574391246278 -0.01863435101713396 2.8449022460702387 -0.8972967425438754
4.919504165649414 -1.4691183877042313 -1.8571351766586304 2.384906454677246 -1.5964000860797327 3.3389854431152344 -0.05860705741030346 -0.7219020146399722 0.5445261290652739 -0.018627833329526902 2.8448810424961835 -0.8972065489860597
4.9194231033325195 -1.4691183877042313 -1.8571724891662598 2.384885712260864 -1.596325699483053 3.338998794555664 -0.05868748853445461 -0.7218876469209883 0.5444952850644189 -0.018458560408283232 2.844995642740049 -0.897181762524471
4.9194231033325195 -1.4691303086331864 -1.85712730884552 2.3848530489155273 -1.5963504950152796 3.339027166366577 -0.058685132792864275 -0.7218979775540606 0.5445133682389197 -0.01843006809501415 2.844968029533269 -0.8971635458912482
4.919512748718262 -1.4691226494363328 -1.857185959815979 2.384890242213867 -1.5963166395770472 3.338961362838745 -0.05861768699538018 -0.7218916004870882 0.5444843404756894 -0.01863470686275351 2.8449968838208477 -0.8971585495577796
4.9195170402526855 -1.4691303086331864 -1.8571938276290894 2.384927435512207 -1.596320931111471 3.3390016555786133 -0.058620441392837924 -0.7218980993224555 0.5444790431192216 -0.01858527956382443 2.8449691223609688 -0.8971766446219726
4.919492244720459 -1.4691064667752762 -1.8571770191192627 2.384899063701294 -1.5963133017169397 3.3389732837677 -0.05863611365070501 -0.7218882184309239 0.5445037953181309 -0.018587720587353248 2.844980951943856 -0.8972076699898167
4.91947603225708 -1.4691064667752762 -1.8571815490722656 2.384902163142822 -1.596328083668844 3.338965654373169 -0.05864311828152869 -0.7218861093041222 0.5445008347960922 -0.018582232371341205 2.844975943928549 -0.8972025642167313
4.919430732727051 -1.4691098493388672 -1.8571983575820923 2.384923143977783 -1.5963495413409632 3.339027166366577 -0.05868317664539735 -0.7218836127480927 0.5444875343149975 -0.018439761473370113 2.8449549877525313 -0.8971889874859248
4.919471740722656 -1.4691303086331864 -1.85715651512146 2.384906454677246 -1.5963414351092737 3.339019536972046 -0.058650671021134755 -0.7219012193747588 0.5445021459746759 -0.018505573999179823 2.8449496786292916 -0.8971929605727141
4.919463634490967 -1.4691098493388672 -1.8571395874023438 2.384878321284912 -1.5963495413409632 3.339003086090088 -0.05865282627314579 -0.7218932962024909 0.5445239504642437 -0.01852187989598677 2.844943317333959 -0.8972058237664288
4.919431686401367 -1.4690689382008095 -1.857184886932373 2.3849033552357177 -1.5963628927813929 3.3389899730682373 -0.05867498877160172 -0.7218688578467969 0.5445230338812538 -0.018501338488892554 2.844931285342861 -0.8972354269539621
4.919431686401367 -1.4690979284099122 -1.8571442365646362 2.384882612819336 -1.5963133017169397 3.3389599323272705 -0.058676577321887476 -0.7218871143246376 0.5445317045768776 -0.0185215515211822 2.8449844948867824 -0.8972556696903534
4.919484615325928 -1.4690774467638512 -1.8571724891662598 2.38491074621167 -1.5963457266436976 3.338977575302124 -0.058636756048875055 -0.7218792917161877 0.5445287326739116 -0.018586482629292748 2.8449273925001903 -0.8972517664367146
4.919459342956543 -1.4691021975925942 -1.8571679592132568 2.384939118022583 -1.59633714357485 3.338965892791748 -0.05865182456399297 -0.7218916539820204 0.5445210654850559 -0.018563007256382505 2.844938892279005 -0.897274728373314
4.919495582580566 -1.469065548186638 -1.8572311401367188 2.3848814207264404 -1.596374813710348 3.3390555381774902 -0.05864230618579914 -0.7218577570464499 0.5444838975157353 -0.01850303934237507 2.84492916945835 -0.8971162677610942
4.919471740722656 -1.4690612864545365 -1.857131838798523 2.3848649698444824 -1.596325699483053 3.339019536972046 -0.05865917719136944 -0.7218773764711746 0.5445610290965602 -0.018500283801395984 2.8449297375706784 -0.8972714020723525
4.919484615325928 -1.4691021975925942 -1.8571486473083496 2.384906454677246 -1.596365753804342 3.338982105255127 -0.058630171084538635 -0.7218927592017573 0.5445281206396432 -0.018589153450459812 2.84491321468149 -0.897233134528981
4.919431686401367 -1.4691098493388672 -1.8571892976760864 2.384861870402954 -1.5963705221759241 3.3390183448791504 -0.05867712934349395 -0.7218768520595098 0.5444821705447931 -0.01846306908457003 2.8449720816622097 -0.8971089609241749
4.919443607330322 -1.4690936592272301 -1.8572027683258057 2.384927435512207 -1.5963085333453577 3.3389689922332764 -0.058672988161480685 -0.7218785501103062 0.5444989912026905 -0.018522432523607798 2.844989145212643 -0.897241537987656
4.919508457183838 -1.469150760476925 -1.8571475744247437 2.3848814207264404 -1.5962875525103968 3.3389854431152344 -0.05862829321643279 -0.7219104540757478 0.544492143391408 -0.018581186377064872 2.845014846889508 -0.897172127894418
4.919487953186035 -1.4691303086331864 -1.857161045074463 2.3849186140247802 -1.5963085333453577 3.3389732837677 -0.05863719133016694 -0.7219030752479958 0.5445032577222518 -0.018579394493761926 2.8449787584741677 -0.897226829529743
4.919455051422119 -1.4691303235343476 -1.8571815490722656 2.384902163142822 -1.5963457266436976 3.338961362838745 -0.058651652397257156 -0.7218928401850626 0.5444839621009077 -0.018566050823883913 2.8449830069818423 -0.897166068734376
4.919443607330322 -1.4690487173250695 -1.8571486473083496 2.384902163142822 -1.5963457266436976 3.33901047706604 -0.05867399463099011 -0.7218716148646185 0.5445640768420519 -0.018482541163931315 2.8449026638826105 -0.8973124382323365
4.919463634490967 -1.4690979284099122 -1.8571486473083496 2.38491074621167 -1.5963342825519007 3.3389899730682373 -0.05865419532636533 -0.7218915373740324 0.5445324638942359 -0.018533860549464907 2.844937079802555 -0.8972641081564074
4.9195170402526855 -1.46906981736932 -1.857189416885376 2.3849522310444335 -1.596328083668844 3.339006185531616 -0.058623345235604474 -0.7218808598102728 0.5445289164557101 -0.01858379848749027 2.8449064040978937 -0.8972924988529462
4.919487953186035 -1.469089390044548 -1.857161045074463 2.3848694997974853 -1.5963414351092737 3.33903169631958 -0.05864560355696392 -0.7218816442188453 0.5445195610774783 -0.018511887886453922 2.844942653387901 -0.8971864605529843
4.919471740722656 -1.469052979057171 -1.8571351766586304 2.384885712260864 -1.5963414351092737 3.3390228748321533 -0.0586565261951372 -0.7218760480976354 0.5445678379234625 -0.018502996267432785 2.844900194612219 -0.8972969198699623
4.919444561004639 -1.469086007480957 -1.8571486473083496 2.384885712260864 -1.596374813710348 3.33901047706604 -0.05866438215791121 -0.7218819219880648 0.5445342581416175 -0.01849622243964516 2.8449121771361585 -0.8972244144144241
4.919459342956543 -1.4690612864545365 -1.8571654558181763 2.384890242213867 -1.5963504950152796 3.339015007019043 -0.05866268737155613 -0.721871278165958 0.5445400559446323 -0.018499854058407036 2.844919249088512 -0.8972503489440822
4.919500827789307 -1.4690612864545365 -1.8571983575820923 2.384906454677246 -1.5963123480426233 3.338944673538208 -0.05862874321366296 -0.7218682045456171 0.544521330779254 -0.01864083031638321 2.844967018730379 -0.8972541383961754
4.919450759887695 -1.469102219944336 -1.8571068048477173 2.3848413664051513 -1.5963581244098108 3.33903169631958 -0.05866567845311877 -0.7218927918132323 0.5445457834242822 -0.018467469260835093 2.8449304089720107 -0.8972026277381914
4.919504165649414 -1.4690902766636391 -1.857214331626892 2.384894533748291 -1.596328083668844 3.3390016555786133 -0.0586329997242247 -0.7218735080873748 0.5444847308854953 -0.01857048622768991 2.844974871275199 -0.8971572955507781
4.919480323791504 -1.4691303086331864 -1.8572142124176025 2.384882612819336 -1.596374813710348 3.3390183448791504 -0.05864026402824475 -0.7218836971973253 0.544453060275502 -0.018533214107865154 2.844971296231642 -0.8970640018789364
4.919487953186035 -1.469150760476925 -1.8571815490722656 2.3849150377460937 -1.59633714357485 3.3389732837677 -0.058630342332241576 -0.7219041643275739 0.5444721447069818 -0.018591502996561426 2.844983231764657 -0.8971516658549513
4.919435977935791 -1.4690689382008095 -1.857161045074463 2.384938879604004 -1.5963671843158167 3.339027166366577 -0.05867612108126269 -0.7218799882742872 0.5445468087607125 -0.01845724829043139 2.8448807612477887 -0.8973047713174983
4.919430732727051 -1.4690936592272301 -1.857151985168457 2.384906454677246 -1.5963581244098108 3.339006185531616 -0.05867635510484229 -0.7218862495997822 0.544531004632047 -0.01847493202409745 2.844924438223643 -0.897250115717372
4.919504165649414 -1.4691183728030701 -1.85715651512146 2.384938879604004 -1.5963414351092737 3.3390228748321533 -0.05862796680258247 -0.7219033162366836 0.5445166664460146 -0.018547397373201224 2.844912863976458 -0.8972455736347781
4.919476509094238 -1.469086007480957 -1.8572098016738892 2.384890242213867 -1.596374813710348 3.33901047706604 -0.05864433292860709 -0.7218697126094396 0.5444888790523026 -0.018540197948435536 2.8449391324681157 -0.8971420348151457
4.919487953186035 -1.469175250535347 -1.857100009918213 2.384915276164673 -1.59633714357485 3.3390183448791504 -0.05863323834487246 -0.7219330455277626 0.5445155462966349 -0.018528685506929314 2.8449365286809782 -0.8972196868444156
4.919450759887695 -1.4691226792386551 -1.8571815490722656 2.384898825282715 -1.5963628927813929 3.3390390872955322 -0.0586668713489168 -0.7218898707824117 0.5444859158237476 -0.018457278556982423 2.8449485369180763 -0.8971480962428348
4.919455051422119 -1.4691183877042313 -1.8571983575820923 2.384894533748291 -1.5963323752032679 3.339027166366577 -0.058669613584635044 -0.7218846567043345 0.544476441300864 -0.018466054445593013 2.844985599558224 -0.8971433643889033
4.9194722175598145 -1.4691260394505044 -1.857185959815979 2.384882612819336 -1.5963671843158167 3.3390345573425293 -0.05864991360833194 -0.7218888931110959 0.5444771085823082 -0.01849588490257593 2.844955401226771 -0.8971101702765479
4.91947603225708 -1.4691141185215493 -1.8571183681488037 2.384906454677246 -1.5963414351092737 3.3389899730682373 -0.058640985184033885 -0.7219045271507598 0.5445431147538748 -0.018555056539280627 2.8449218773388942 -0.8972709625997736
4.919450759887695 -1.4690570172718544 -1.8571815490722656 2.3848575788685302 -1.5963175932513636 3.339003086090088 -0.058675961927025885 -0.7218617005962086 0.5445256260349461 -0.018489062969924173 2.844978748131167 -0.8972121692737229
4.919431686401367 -1.469077469115593 -1.8571183681488037 2.384890242213867 -1.5963504950152796 3.338994264602661 -0.058674942525434245 -0.7218864854021744 0.5445650505748032 -0.018490833196507423 2.844912275906142 -0.8973014523791913
4.919439315795898 -1.4691388246468087 -1.8571654558181763 2.384890242213867 -1.5963342825519007 3.338998556137085 -0.05867179949353437 -0.7218979419351479 0.5444870952036883 -0.018485583222754003 2.84499001929323 -0.897162090584506
4.919528961181641 -1.469077469115593 -1.8571983575820923 2.3848933416553955 -1.5963504950152796 3.338982105255127 -0.05860633546339985 -0.7218732429024641 0.5445054997685773 -0.018644487863446534 2.84493769785014 -0.8971813087342649
4.919496536254883 -1.4691055801561852 -1.8571395874023438 2.384898825282715 -1.596325699483053 3.3389689922332764 -0.05862751912812601 -0.721896732133436 0.5445325035248779 -0.01860650925814685 2.844947041919007 -0.8972521804781539
4.919483661651611 -1.469150760476925 -1.8571654558181763 2.384959860438965 -1.5962761084186 3.338998556137085 -0.058650247613770023 -0.7219158201729778 0.5444938254531472 -0.018522163575141967 2.8449900774657304 -0.8972621871409461
4.919435024261475 -1.469155029659607 -1.857185959815979 2.384866400355957 -1.5963166395770472 3.338994264602661 -0.05867850626493982 -0.7218957157670385 0.5444562359997063 -0.01847648837704934 2.845044174092753 -0.8970918180684906
4.91945219039917 -1.469086007480957 -1.8571983575820923 2.384894533748291 -1.5963013807879847 3.3390345573425293 -0.05868255629175171 -0.7218738920124906 0.5444994690994928 -0.018438033733738656 2.8449895772448355 -0.8972025743369538
4.9194722175598145 -1.4691183877042313 -1.857190489768982 2.3848976331898193 -1.5963342825519007 3.3390510082244873 -0.0586610149234963 -0.7218882066407888 0.54448225155309 -0.018457572147788412 2.8449669175657375 -0.8971489594321166
4.91947603225708 -1.4690401789597054 -1.8571983575820923 2.38491074621167 -1.596325699483053 3.338965654373169 -0.05864922320438458 -0.7218597085718963 0.5445358816648974 -0.018582358046928277 2.8449417382034063 -0.8972818788493389
4.919455051422119 -1.4691021975925942 -1.8571745157241821 2.3848694997974853 -1.5963457266436976 3.3390183448791504 -0.05866548495220089 -0.7218807603521208 0.5445007639069925 -0.01848549914218707 2.844967420810313 -0.8971580254771975
4.919439315795898 -1.4691302937320252 -1.857184886932373 2.384906454677246 -1.5963414351092737 3.33909273147583 -0.05868998669890167 -0.7218933580193583 0.54447854411638 -0.018354594469395774 2.844958025278225 -0.89714678964616
4.919459342956543 -1.469089427297451 -1.85715651512146 2.384902163142822 -1.5963581244098108 3.3389689922332764 -0.05864901497141987 -0.7218843096490347 0.5445307703473247 -0.01856851136218049 2.844928841528153 -0.8972456379424153
4.919427394866943 -1.4690936592272301 -1.857161045074463 2.384915276164673 -1.596365753804342 3.3389811515808105 -0.05867232966812852 -0.7218845714428664 0.544526420801314 -0.01850918099463721 2.844925397780902 -0.8972513610206695
4.9195170402526855 -1.4690527480891724 -1.857130765914917 2.3849446016499023 -1.5963414351092737 3.3389973640441895 -0.05861704770997534 -0.7218873763731489 0.5445835816505901 -0.018604208072473184 2.844855198275498 -0.8973785343647592
4.9194464683532715 -1.4691303086331864 -1.8571068048477173 2.3848749834248046 -1.5963133017169397 3.339015007019043 -0.058672657623863214 -0.7219081179796167 0.5445344312455851 -0.018464192906719436 2.844968763842068 -0.8972383325507393
4.919427394866943 -1.4691270899823685 -1.8571815490722656 2.3848740297504882 -1.5963414351092737 3.3389973640441895 -0.05868066940402231 -0.7218867883478424 0.5444797638325406 -0.01847339868842438 2.845000367456841 -0.8971331710374922
4.919504165649414 -1.4690655407360573 -1.8571815490722656 2.384922905559204 -1.5963495413409632 3.3390390872955322 -0.058634960477572315 -0.7218763004428677 0.544530620419309 -0.0185285569661975 2.8448948858995644 -0.8972538562764417
4.919435024261475 -1.4691098493388672 -1.8571892976760864 2.384890242213867 -1.59633714357485 3.33901047706604 -0.0586799787610531 -0.7218817115593662 0.5444887590799782 -0.018463934573523997 2.844982720236493 -0.8971659476525715
4.919484615325928 -1.4691303086331864 -1.85712730884552 2.384922905559204 -1.5963414351092737 3.339031457901001 -0.058641807659377834 -0.7219113695586468 0.5445271022986977 -0.018507696031656914 2.844915008915475 -0.8972494324874294
4.919512748718262 -1.469146491294243 -1.857190489768982 2.384890242213867 -1.596325699483053 3.338977813720703 -0.05861734579159636 -0.7218989452328801 0.5444636529515099 -0.018614759607133338 2.8450031919333485 -0.8971123193568625
4.9194722175598145 -1.4690936666778107 -1.857185959815979 2.3848859506794433 -1.596288029347555 3.339043378829956 -0.05867188034123992 -0.7218800726601315 0.5445019228338115 -0.018447867256126745 2.84499539226231 -0.8971988163316257
4.919487953186035 -1.4691141185215493 -1.857161045074463 2.384890242213867 -1.596325699483053 3.3389899730682373 -0.05863854559880808 -0.7218931934286955 0.544508050251292 -0.018563667545432903 2.8449681942510505 -0.8971978697235703
4.919439315795898 -1.469121792619564 -1.857184886932373 2.384890242213867 -1.5963323752032679 3.338994264602661 -0.058673644240420555 -0.7218872108657667 0.544484395410368 -0.018490761871763815 2.8449941168664794 -0.8971607431937683
4.919463634490967 -1.4690732073834916 -1.857126235961914 2.384890242213867 -1.5963390509234827 3.339031457901001 -0.05866253275307985 -0.7218857023345208 0.5445612464840829 -0.018477932352251814 2.8449063976869615 -0.897289036736638
4.919456481933594 -1.4690936592272301 -1.8571202754974365 2.3849186140247802 -1.5963299910174769 3.3389732837677 -0.058655694090399266 -0.7218974034906231 0.5445590233194572 -0.01854632671644437 2.844921289897407 -0.8973255747934576
4.919455051422119 -1.469106451874115 -1.857161045074463 2.384906454677246 -1.5963085333453577 3.339022636413574 -0.05867277887466553 -0.7218915883775034 0.5445160014340426 -0.018462836405829852 2.844968014168916 -0.8972392464838478
4.919487953186035 -1.4691055801561852 -1.8571770191192627 2.3849143224903564 -1.596353832875387 3.3390140533447266 -0.05863776379305874 -0.7218891096034205 0.5445051988380656 -0.018542244815011974 2.8449291856959396 -0.897200467139856
4.919450759887695 -1.4691217702678223 -1.8571654558181763 2.384931727046631 -1.596365753804342 3.3389689922332764 -0.05865077008561445 -0.7218969765292779 0.5445071325494578 -0.018559045086712384 2.844932327347422 -0.8972276022154223
4.91947603225708 -1.4690902766636391 -1.8571654558181763 2.38491074621167 -1.59633714357485 3.339015007019043 -0.058650971473730946 -0.7218857207560561 0.5445242563118521 -0.018516916244588594 2.8449311164460895 -0.8972428584808354
4.919435024261475 -1.4691226941398163 -1.857151985168457 2.384878321284912 -1.5963166395770472 3.3389899730682373 -0.05867801257972552 -0.7218939443319706 0.5445068442462311 -0.01848424586148091 2.8449965085706657 -0.8971978061453634
4.9194793701171875 -1.4690979284099122 -1.8571395874023438 2.38493458806958 -1.596365753804342 3.339006185531616 -0.05863783495096171 -0.721897215666261 0.5445427246411029 -0.018547920043433894 2.844883006281165 -0.8972851925624359
4.919463634490967 -1.4690774467638512 -1.85715651512146 2.384862108821533 -1.5963457266436976 3.3389601707458496 -0.05864891134851652 -0.721875088675057 0.5445318326406922 -0.01858149709492894 2.844957264539693 -0.8972153325882959
4.919467449188232 -1.4691064444235344 -1.857131838798523 2.384882612819336 -1.5963457266436976 3.33901047706604 -0.058652139751905925 -0.7218949440382434 0.5445328911091796 -0.018515321202687438 2.8449340105571994 -0.897226409071451
4.919450759887695 -1.4691013109735032 -1.8571486473083496 2.3849360185810546 -1.59629995027651 3.339027166366577 -0.05867769186495042 -0.7218967874002793 0.5445347996357089 -0.018446977776468396 2.844945787883682 -0.8973071708921138
4.9194231033325195 -1.4691303309849282 -1.8571983575820923 2.384902163142822 -1.596325699483053 3.3389899730682373 -0.05868575558980361 -0.7218878087038619 0.5444708929647316 -0.018470345975213798 2.8450111866824055 -0.8971548687720218
4.9194111824035645 -1.4691055727056046 -1.8571680784225464 2.3849281507679443 -1.596353832875387 3.3390345573425293 -0.05869641617829227 -0.7218888727996213 0.5445140653234477 -0.018404276129573766 2.8449301763282455 -0.897242260328609
4.919455051422119 -1.4691098493388672 -1.8571486473083496 2.384927197093628 -1.5963414351092737 3.339022636413574 -0.05866390989664753 -0.7218977040343857 0.5445262634161209 -0.018478259354369204 2.8449228058990674 -0.8972616422590429
4.919467449188232 -1.4691302862814446 -1.857181429862976 2.384870691890381 -1.5963504950152796 3.339027166366577 -0.05865543374995885 -0.7218899586106857 0.5444758857887665 -0.018491919257624997 2.8449792236452267 -0.8971058464710985
4.919455051422119 -1.4691141557744523 -1.857214331626892 2.3848773676105957 -1.5963299910174769 3.339022636413574 -0.05867083720419457 -0.7218769900168938 0.5444641360905557 -0.018471015495453165 2.8450065854854767 -0.8971066490018742
4.919427394866943 -1.4690979433110734 -1.8571679592132568 2.384898825282715 -1.5963299910174769 3.3390018939971924 -0.05868497859441549 -0.7218834133949268 0.5445152720053482 -0.018462887838970037 2.8449665925708842 -0.8972292109203225
4.919500827789307 -1.469074049299099 -1.8571654558181763 2.384817524547241 -1.5963414351092737 3.3389315605163574 -0.05861925310425987 -0.7218676332159701 0.5445196690860559 -0.018672680455181917 2.8449890134418068 -0.8971484435104868
4.919508457183838 -1.4690774542144318 -1.8572027683258057 2.384898825282715 -1.59633714357485 3.3389482498168945 -0.05861755546993939 -0.721871680398567 0.5445045650886557 -0.018657392333086373 2.84496152660785 -0.8972007136943989
4.919500827789307 -1.4690893825939675 -1.8571635484695435 2.38491074621167 -1.5963414351092737 3.33901047706604 -0.05863117541152707 -0.7218871451680093 0.5445263477671539 -0.018560628203517098 2.8449204829083827 -0.8972403061973505
4.919504165649414 -1.4691184026053925 -1.8571679592132568 2.38491074621167 -1.596325699483053 3.3389899730682373 -0.05862634425793756 -0.721896791471933 0.54450384774382 -0.018586581676390965 2.844958239302012 -0.8972072258475552
4.919430732727051 -1.4690688860467453 -1.857161045074463 2.3848740297504882 -1.596353832875387 3.3390095233917236 -0.058681133086204 -0.721871007266597 0.5445350297446134 -0.018468353811349113 2.8449373865943524 -0.8972291998495666
4.919463157653809 -1.4691753697446366 -1.8571486473083496 2.384866400355957 -1.596374813710348 3.338998556137085 -0.058642462675705304 -0.7219120503184844 0.5444687849140648 -0.01853738576206553 2.8449778481964345 -0.8970770263493787
4.919463157653809 -1.4690817457488556 -1.8571892976760864 2.384906454677246 -1.5963581244098108 3.3390390872955322 -0.05866224135718108 -0.7218753338075047 0.5445100839470585 -0.018473542703281443 2.844923765023734 -0.8972030528373285
4.919500827789307 -1.4690859925797959 -1.8571983575820923 2.38491074621167 -1.596353832875387 3.339052200317383 -0.05863864506024803 -0.7218777312278729 0.5445008392980362 -0.018506141743401386 2.844919828923181 -0.8971831911045268
4.919427394866943 -1.4691141185215493 -1.8571654558181763 2.3848859506794433 -1.5963085333453577 3.3389854431152344 -0.05868558791315409 -0.721888408819412 0.5445044298314952 -0.018476081537966222 2.8450045396844548 -0.8972082583787956
4.919492244720459 -1.469069780116417 -1.857161045074463 2.384938879604004 -1.5963042418109339 3.3390421867370605 -0.05865264438734413 -0.7218854697069336 0.5445473275170535 -0.018486961371464203 2.844914070330466 -0.8973232331504131
4.919458866119385 -1.469086007480957 -1.857161045074463 2.384927197093628 -1.5963457266436976 3.338994264602661 -0.05865698964526485 -0.7218860106539373 0.5445341676490453 -0.01852631518177516 2.8449180979944027 -0.8972795873288895
4.91947603225708 -1.4690816712430497 -1.8571679592132568 2.384898825282715 -1.59629995027651 3.339022636413574 -0.05866196918638718 -0.721881534337 0.5445266993163143 -0.018489081708790114 2.844963082415987 -0.8972534177375925
4.919463157653809 -1.4690894347480317 -1.8571442365646362 2.3849150377460937 -1.5963547865497034 3.3389899730682373 -0.058650195607982694 -0.7218895743404204 0.5445420335209603 -0.018542904606073527 2.844909827867739 -0.8972763333481512
4.919455051422119 -1.4690936368754883 -1.8571655750274658 2.384878321284912 -1.5963166395770472 3.3390018939971924 -0.05866876501238361 -0.7218816531214951 0.5445163906537006 -0.018496084892079597 2.844978718762477 -0.8972122590674564
4.919487953186035 -1.469118410055973 -1.8571724891662598 2.3849193292805175 -1.5963581244098108 3.3389647006988525 -0.058625730956252065 -0.7218947430317444 0.5445020378020802 -0.018614334506072586 2.844939789786198 -0.8972035395687671
4.9193902015686035 -1.469085955326893 -1.85712730884552 2.3849031168171386 -1.5963175932513636 3.3390183448791504 -0.05871657988284576 -0.7218878458096167 0.5445550078320887 -0.0183822112192765 2.844946940700615 -0.8973164542450061
4.919484615325928 -1.469171204870083 -1.857161045074463 2.384906454677246 -1.5963042418109339 3.33904767036438 -0.05865253744728512 -0.721916778439049 0.5444704073541681 -0.018465706498120727 2.8449980164267914 -0.8971437317112463
4.919483661651611 -1.4691260618022461 -1.857184886932373 2.3848587709614257 -1.5963504950152796 3.338961362838745 -0.05863153642264885 -0.7218861762339994 0.5444758084418773 -0.01860860230272093 2.8449978991764944 -0.8971006506550139
4.919504165649414 -1.4690936592272301 -1.85715651512146 2.384882612819336 -1.59633714357485 3.339006185531616 -0.05862894256146385 -0.721886797790851 0.5445234377663752 -0.0185693871393101 2.8449398310051803 -0.8972086106886548
4.919504165649414 -1.4691260394505044 -1.8571487665176392 2.3848578172871093 -1.5963581244098108 3.3389899730682373 -0.058618835543467154 -0.7218960558081959 0.5445019356950382 -0.01860133073797145 2.8449574055125484 -0.8971340982798303
4.919460773468018 -1.469077469115593 -1.8571724891662598 2.384882612819336 -1.596320931111471 3.3390345573425293 -0.05867155828348951 -0.721875426529918 0.5445221603183757 -0.018459909003571636 2.844957349848185 -0.8972205664125271
4.919508457183838 -1.4690894049457093 -1.857185959815979 2.38491074621167 -1.5963628927813929 3.3389732837677 -0.05861461530642828 -0.7218811920195938 0.5445099434898192 -0.018633728597322374 2.844924077606666 -0.8972045348740655
4.919406890869141 -1.4691108998707314 -1.857184886932373 2.384898825282715 -1.5963433424579065 3.339022636413574 -0.058700759772441935 -0.7218826364320667 0.5444925328632165 -0.018409622719388043 2.8449746830038904 -0.8971818646746603
4.919435977935791 -1.469118410055973 -1.8571228981018066 2.384878321284912 -1.596374813710348 3.339043378829956 -0.05867354093082719 -0.7218985248530987 0.5445288284555381 -0.01843696843713032 2.8449151234389496 -0.8972006978200108
4.919463634490967 -1.4690527704409142 -1.85715651512146 2.3849193292805175 -1.5963056723224085 3.339015007019043 -0.05866914763160644 -0.7218758103920095 0.5445595114897321 -0.018486043033924954 2.8449256988012914 -0.897336133044518
4.919463634490967 -1.4691271495870133 -1.857151985168457 2.384882612819336 -1.59629995027651 3.339055299758911 -0.05867359205972824 -0.7218990161666388 0.5445030803026469 -0.018424147284965088 2.844986790496057 -0.8971879274051769
4.919504165649414 -1.4690979284099122 -1.8571892976760864 2.3848911958881835 -1.5963953177081507 3.339022636413574 -0.05862017044683145 -0.7218802234118251 0.5444954389100525 -0.018571775161540544 2.84490629897243 -0.8971359704769868
4.919450759887695 -1.4691055578044434 -1.857122778892517 2.3848869043537597 -1.5963581244098108 3.3390510082244873 -0.05866887783398977 -0.7218965541297363 0.5445397042881437 -0.018439829971925323 2.844909569309352 -0.8972341822515195
4.919516086578369 -1.4691021975925942 -1.8571486473083496 2.3848911958881835 -1.5963628927813929 3.3390390872955322 -0.05861974884456528 -0.7218932848491127 0.5445235388200623 -0.018551302890820815 2.844902853689401 -0.8971965878306007
4.919439315795898 -1.4690936592272301 -1.8571770191192627 2.3848869043537597 -1.596365753804342 3.339006185531616 -0.058670223133734045 -0.7218778747756701 0.5445080624151188 -0.01848988995451082 2.844943688764937 -0.8971843714920709
4.919480323791504 -1.4690936666778107 -1.8571351766586304 2.3848740297504882 -1.59633714357485 3.3390095233917236 -0.058645942896844425 -0.7218894045939672 0.5445378016611424 -0.018531203228179704 2.844937277126028 -0.8972297692997729
4.919480323791504 -1.469155104165413 -1.8571486473083496 2.3848869043537597 -1.596353832875387 3.3389973640441895 -0.05863555396973028 -0.721909184241505 0.5444874099288435 -0.018554489055657427 2.8449653897765264 -0.8971399400587159
4.919450759887695 -1.4690774244121094 -1.8571475744247437 2.3849238592335205 -1.5963953177081507 3.339043378829956 -0.058661358046117384 -0.7218845040837759 0.544547008148522 -0.01846805860911612 2.844856238258033 -0.8972700220264578
4.919435977935791 -1.4691064369729538 -1.857153058052063 2.384898825282715 -1.5963671843158167 3.3390140533447266 -0.05867137647391176 -0.7218896589489499 0.5445193775288762 -0.018474948715703793 2.844927130995616 -0.8972137811487181
4.91947603225708 -1.4690655407360573 -1.8571306467056274 2.3849238592335205 -1.5963495413409632 3.3389854431152344 -0.05864204497493396 -0.721886376812709 0.5445708901718391 -0.018566190599804144 2.844882996192624 -0.8973397245986665
4.919439315795898 -1.4691055727056046 -1.8571395874023438 2.3849119383045654 -1.5963414351092737 3.3390390872955322 -0.05867876886795326 -0.7218955586550039 0.5445326250231058 -0.01843268216580945 2.8449240482401845 -0.8972588677135891
4.919496536254883 -1.4690120753696938 -1.8571724891662598 2.384854479427002 -1.59633714357485 3.3389735221862793 -0.058635615627541965 -0.7218492670169891 0.544563468639798 -0.018606403771037477 2.8449263050328426 -0.8972668582139807
4.919484615325928 -1.4690936592272301 -1.8571486473083496 2.3848740297504882 -1.5963457266436976 3.3390018939971924 -0.05864008702085537 -0.7218860934941047 0.5445276295969088 -0.018551776924137016 2.844939424621539 -0.8972077475469638
4.919450759887695 -1.4691108998707314 -1.8571395874023438 2.3849150377460937 -1.5963504950152796 3.339006185531616 -0.05866148407494784 -0.7218979122874574 0.5445302746786341 -0.018499842461155432 2.8449230985742546 -0.897255283625904
4.919500827789307 -1.46907743186269 -1.8571679592132568 2.3848911958881835 -1.5963166395770472 3.339059591293335 -0.05864810603335928 -0.7218804297532965 0.5445266591376501 -0.018479371350808602 2.844936084207133 -0.8972276604033057
4.919480323791504 -1.4691098493388672 -1.8571395874023438 2.3848869043537597 -1.5963953177081507 3.339022636413574 -0.05863406129960867 -0.7218944331662557 0.5445239292834323 -0.018538768145158906 2.8448916369862287 -0.8971856759726556
4.919456481933594 -1.469086007480957 -1.8571983575820923 2.384959860438965 -1.5963414351092737 3.3390018939971924 -0.05866224927289973 -0.7218815454588351 0.5445121986004121 -0.018509443209711807 2.844923411710682 -0.8972747119558759
4.919427394866943 -1.4690979209593316 -1.857161045074463 2.384890242213867 -1.5963910261737269 3.339006185531616 -0.05867189065691675 -0.7218823008749867 0.5445172193674619 -0.01848482465706597 2.844916887997314 -0.8971934229536135
4.919443607330322 -1.469065473680832 -1.8571983575820923 2.3848978716083984 -1.5963614622699183 3.339022636413574 -0.05867424701734941 -0.7218647674798778 0.5445132544482243 -0.01847082879287658 2.8449309999451238 -0.897206532226903
4.91949987411499 -1.4691184026053925 -1.857157588005066 2.3848869043537597 -1.5963628927813929 3.3389854431152344 -0.05862022353318093 -0.7218947339170163 0.5445062597066354 -0.018604041206971247 2.8449384997905365 -0.8971708728378949
4.919467449188232 -1.4690740642002602 -1.8572028875350952 2.3849031168171386 -1.5963414351092737 3.3389856815338135 -0.05865372570785228 -0.7218689512238795 0.5445064627246505 -0.018547890686995586 2.8449549760460684 -0.897209297031361
4.919463634490967 -1.4691021975925942 -1.8571815490722656 2.3848740297504882 -1.5963414351092737 3.339006185531616 -0.05865810087681542 -0.7218801606957508 0.54449678978354 -0.01851291134596741 2.844973206672827 -0.8971576856377786
4.919496536254883 -1.4690936666778107 -1.8571442365646362 2.384833975429199 -1.59633714357485 3.339031457901001 -0.05864007640235204 -0.7218829978350025 0.544522484307705 -0.018522506723175278 2.8449581167054627 -0.8971560998469575
4.919496536254883 -1.4690774467638512 -1.8571680784225464 2.384927197093628 -1.5963581244098108 3.3389689922332764 -0.05862299762443149 -0.7218828473438214 0.5445352291131661 -0.01862153844403541 2.844903344462469 -0.8972725416198493
4.919521331787109 -1.469086007480957 -1.8571475744247437 2.3849193292805175 -1.5963581244098108 3.339006185531616 -0.058610960976910986 -0.7218916478047166 0.5445421682385535 -0.018604029845456303 2.844885202753167 -0.8972657013190423
4.919455051422119 -1.4691465732506295 -1.857184886932373 2.3848869043537597 -1.5963457266436976 3.33901047706604 -0.0586607112930083 -0.7218963294815497 0.5444657328504526 -0.018495537992434953 2.8449926924148317 -0.8971094720917956
4.919419765472412 -1.4691140887192269 -1.8571680784225464 2.384898825282715 -1.596325699483053 3.339014768600464 -0.05869280548179166 -0.7218889513447597 0.5445036980148276 -0.018431365725550364 2.844979083041229 -0.8972086188779972
4.919435024261475 -1.4690979284099122 -1.8571442365646362 2.3849150377460937 -1.5963581244098108 3.3390183448791504 -0.05867472120922932 -0.7218911926970737 0.5445352207244601 -0.018463856797953225 2.844912869467282 -0.8972630868799849
4.919435024261475 -1.4691260618022461 -1.8571983575820923 2.384890242213867 -1.5963791052447718 3.339006185531616 -0.058668898413813904 -0.7218841166652132 0.5444697442829736 -0.018488660843664326 2.8449653873907055 -0.8971103673049494
4.91947078704834 -1.4690902468613167 -1.8571654558181763 2.38491074621167 -1.5964162985431116 3.3390183448791504 -0.058637514337492626 -0.7218832994987242 0.544522237558741 -0.018540951123928805 2.8448672782924853 -0.8972008701617925
4.919414520263672 -1.4691055578044434 -1.8571724891662598 2.3849150377460937 -1.5963414351092737 3.339026927947998 -0.05869587211484341 -0.7218864674422697 0.5445087070869781 -0.018414010962262622 2.8449520986796144 -0.897226188535144
4.919435977935791 -1.469146506195404 -1.857151985168457 2.384927435512207 -1.5963705221759241 3.3389689922332764 -0.058657945872150244 -0.7219074383881269 0.5444991915836417 -0.018539933400587277 2.844941996087367 -0.8972070604366125
4.919463634490967 -1.4690979284099122 -1.85715651512146 2.3848740297504882 -1.596365753804342 3.339043378829956 -0.05865898041327467 -0.7218844407575582 0.544517003784904 -0.018471770215262428 2.8449260957525384 -0.8971766504102955
4.9194464683532715 -1.4690979209593316 -1.8571157455444336 2.384902163142822 -1.5963457266436976 3.33904767036438 -0.05867393215080677 -0.7218976426476045 0.5445537093036361 -0.018433262465995855 2.8449030035027425 -0.8972825921689486
4.919471740722656 -1.4691345629147072 -1.8571486473083496 2.384898825282715 -1.5963085333453577 3.3389973640441895 -0.05865321396201106 -0.7219042161002562 0.5445051124802052 -0.01852212094274332 2.844984307404051 -0.8972095597196837
4.919439315795898 -1.4690740194967766 -1.8572176694869995 2.384890242213867 -1.5963414351092737 3.3390464782714844 -0.0586871352260347 -0.7218627029502489 0.5444910130190415 -0.018420896728382586 2.8449646937986484 -0.8971656897029017
4.919471740722656 -1.4691303458860894 -1.857131838798523 2.3849193292805175 -1.5963323752032679 3.339026927947998 -0.05865257892074585 -0.7219092448755383 0.544523306583745 -0.018491573520237625 2.8449319168874347 -0.8972467847240521
4.919463634490967 -1.4691260692528267 -1.85712730884552 2.3848327833363037 -1.5963581244098108 3.3390345573425293 -0.05865644926101794 -0.7218959753234285 0.5445119516415384 -0.018480581080326512 2.84495929736588 -0.8971283665497107
4.919450759887695 -1.4690774467638512 -1.857184886932373 2.3848532873341064 -1.596374813710348 3.3389973640441895 -0.058660652456755225 -0.7218659698341872 0.5445068419134573 -0.018522819358259494 2.8449510689799027 -0.8971449394094312
4.919495582580566 -1.4691013556769867 -1.8571724891662598 2.3849193292805175 -1.59633714357485 3.3389973640441895 -0.058632687476486006 -0.7218900763080707 0.5445134360121718 -0.018569452890725553 2.844936269824419 -0.8972297067616051
4.919463634490967 -1.4691098642400284 -1.8571724891662598 2.384906454677246 -1.5963323752032679 3.3389899730682373 -0.05865507172035333 -0.7218895237457192 0.5445053482222145 -0.018532113263502493 2.8449635926005863 -0.8972112881157612
4.919443607330322 -1.46907743186269 -1.857153058052063 2.384931727046631 -1.5963504950152796 3.339006185531616 -0.05866939114275406 -0.7218846101731999 0.5445465822054848 -0.01849026422276116 2.8449021866106547 -0.8973060445548958
4.919471740722656 -1.469048635368683 -1.857122778892517 2.3849519926258544 -1.5963671843158167 3.33901047706604 -0.05864621868661283 -0.7218856375665116 0.5445929063885873 -0.01853330188707384 2.844830819880289 -0.8973973254156756
4.919520378112793 -1.4690936592272301 -1.8571745157241821 2.384862108821533 -1.5963581244098108 3.339006185531616 -0.05861394830141585 -0.7218800689857445 0.5445053027264943 -0.01860145805814976 2.8449424264931102 -0.8971423654509835
4.919439315795898 -1.4690893825939675 -1.857102394104004 2.3849193292805175 -1.5963414351092737 3.3389930725097656 -0.058668789573107616 -0.7218991930265123 0.5445747987315329 -0.018499524271819574 2.8448974018971223 -0.897349652649192
4.919427394866943 -1.4690979284099122 -1.857161045074463 2.38491074621167 -1.596381966267721 3.338998556137085 -0.05867189983588125 -0.7218852430562287 0.5445216633555936 -0.01849168577291667 2.844913434504856 -0.8972273906145064
4.919492244720459 -1.4691098120859643 -1.8571351766586304 2.384906454677246 -1.5963791052447718 3.3389811515808105 -0.05862019914761045 -0.7218987811085766 0.5445327244365691 -0.018607603990112454 2.8448969332976692 -0.8972325236436444
4.91947603225708 -1.4691141185215493 -1.8571983575820923 2.384894533748291 -1.596407715474264 3.339006185531616 -0.05863359991431129 -0.721882080277146 0.5444781736862325 -0.018560334334331515 2.8449212697599693 -0.8971087390437701
4.919492244720459 -1.469065510933735 -1.857131838798523 2.3848630624958496 -1.5963581244098108 3.33901047706604 -0.05863498760742944 -0.7218788386124118 0.5445571938529892 -0.018557051614241406 2.8449040102914855 -0.8972435182992419
4.9194231033325195 -1.4691389215043564 -1.8571724891662598 2.3848911958881835 -1.5963581244098108 3.3389647006988525 -0.05867175251605575 -0.7218944179599809 0.5444823023928359 -0.018521515337304846 2.8449869784891115 -0.8971509458057579
4.91947603225708 -1.4690936592272301 -1.857185959815979 2.384882612819336 -1.59629995027651 3.339014768600464 -0.05866086745664982 -0.7218791792580895 0.5445018235161638 -0.01849946699101518 2.844993727226231 -0.8971928577833278
4.919455051422119 -1.469061293905117 -1.8572142124176025 2.3849357801624755 -1.596365753804342 3.3389732837677 -0.05865540599428279 -0.7218645882462988 0.5445129070112125 -0.018559325656925918 2.84492035863029 -0.8972471142122854
4.919447898864746 -1.4690774244121094 -1.85712730884552 2.3848859506794433 -1.5963881651507776 3.3389647006988525 -0.058649452251324875 -0.7218833194865253 0.5445574241833491 -0.018572976782191265 2.8448927909817363 -0.897266189265779
4.91947603225708 -1.469097913508751 -1.857185959815979 2.3849150377460937 -1.5963581244098108 3.3390018939971924 -0.05864400659062154 -0.7218833701031194 0.5445041501471232 -0.01854456183399865 2.8449321358127553 -0.8972021936050804
4.919487953186035 -1.4691098642400284 -1.8571815490722656 2.3848578172871093 -1.59633714357485 3.3390183448791504 -0.0586437692811595 -0.7218823734425428 0.5444880495973615 -0.01852788987703495 2.8449821702941844 -0.8971206231474216
4.919480323791504 -1.4691303458860894 -1.8571654558181763 2.3848416048237304 -1.5963581244098108 3.339006185531616 -0.05864020459188633 -0.7218901689311011 0.5444826791182685 -0.018543757198260513 2.8449828267372568 -0.8970855724057033
4.9194722175598145 -1.4690528896502038 -1.85715651512146 2.3848697382160644 -1.59629995027651 3.339022636413574 -0.05866703314813023 -0.7218698669575976 0.5445496634176094 -0.01848440452902653 2.844957004090725 -0.8972690434658506
4.91947603225708 -1.4691184398582955 -1.8571654558181763 2.38491074621167 -1.5963910261737269 3.33901047706604 -0.05863579486046394 -0.7218942314386425 0.5445035113797942 -0.018547374651292293 2.844905947102947 -0.8971770528991242
4.919435024261475 -1.469109871690609 -1.8571361303329468 2.38491074621167 -1.5963166395770472 3.3389976024627686 -0.05867881777566008 -0.7218976855623571 0.5445338486312902 -0.018474282934935013 2.8449567096795607 -0.8972784860097005
4.919483661651611 -1.469118395154812 -1.857161045074463 2.3849074083515625 -1.5963414351092737 3.3389811515808105 -0.058635577859506294 -0.7218962646413134 0.544508304766034 -0.01857735625432218 2.8449507133420813 -0.8972094099135521
4.919509410858154 -1.4690740716508408 -1.8571486473083496 2.384862108821533 -1.5963042418109339 3.3389976024627686 -0.0586324903504488 -0.7218800292472578 0.5445400473205735 -0.01857450254025866 2.844962879571639 -0.8972361716059463
4.919467449188232 -1.46908604473386 -1.8571724891662598 2.384894533748291 -1.596320931111471 3.338994264602661 -0.058657834779401216 -0.7218800120497318 0.5445197156394613 -0.01852665794390054 2.8449633853186436 -0.8972317604074194
4.919430732727051 -1.4691098865917702 -1.8571770191192627 2.384878321284912 -1.5963581244098108 3.3390140533447266 -0.058678715595971986 -0.7218822799496594 0.5444950749615058 -0.018462555572294287 2.844965650961381 -0.8971552400721247
4.919443607330322 -1.469130316083767 -1.8571815490722656 2.3848816591450195 -1.5963323752032679 3.338994264602661 -0.0586699649699781 -0.7218901323675329 0.5444793262883527 -0.018496678374989545 2.845001533140414 -0.897141366345868
4.919455051422119 -1.469081738298275 -1.8571068048477173 2.3849186140247802 -1.5963166395770472 3.339022636413574 -0.058669689765812515 -0.7218972592353045 0.5445763708279674 -0.018468495848550696 2.8449046687968993 -0.8973573401981048
4.919492721557617 -1.4691056099585076 -1.857161045074463 2.384878321284912 -1.596374813710348 3.339022636413574 -0.05863138661379591 -0.7218878834609047 0.5445094675348893 -0.018546527054121555 2.844921112695348 -0.8971595170773997
4.919497013092041 -1.4690979284099122 -1.8571770191192627 2.3848869043537597 -1.5963414351092737 3.338982105255127 -0.05862900076422471 -0.7218831509473302 0.5445064013850622 -0.018594927559355875 2.844956871543686 -0.8971850018316337
4.91947603225708 -1.4690774616650124 -1.8571442365646362 2.384898825282715 -1.5963118712054651 3.3390183448791504 -0.05865752358621147 -0.721885363874613 0.5445474022098846 -0.018501311025014285 2.844937014971703 -0.897285403304527
4.919398784637451 -1.469097913508751 -1.857193946838379 2.384922905559204 -1.5963299910174769 3.339014768600464 -0.05870888084583915 -0.7218788999099504 0.5444999561706789 -0.018403456218516693 2.84497224100362 -0.8972298881652443
4.919398307800293 -1.469097913508751 -1.8571815490722656 2.3848458963581542 -1.5963414351092737 3.339026927947998 -0.058710404644128675 -0.7218712267579679 0.5444936634892409 -0.0183904552231595 2.8450000094766073 -0.897134388456426
4.919402599334717 -1.469114140873291 -1.8571815490722656 2.3849236208149414 -1.5963166395770472 3.3389647006988525 -0.05869740064163784 -0.7218877446272223 0.5445000037693337 -0.018473983917495503 2.84499624093485 -0.8972420209491928
4.919447898864746 -1.4691422668150445 -1.857130765914917 2.384894533748291 -1.5963166395770472 3.339006185531616 -0.05866895733763425 -0.7219091593575677 0.5445119944831839 -0.01847960572365881 2.8449781212019047 -0.8972160840568582
4.919447898864746 -1.4690936219743271 -1.857097864151001 2.3848954874226074 -1.5962923208819788 3.338977813720703 -0.05867076255167554 -0.7219002045435886 0.5445722798339901 -0.018510801573016232 2.844953386637203 -0.8973455700542097
4.919480323791504 -1.4691345927170296 -1.8571486473083496 2.3849431711384277 -1.596325699483053 3.3389899730682373 -0.058640519977271835 -0.7219102005772142 0.5445135450447516 -0.018553009332415837 2.844942475667724 -0.8972598065819768
4.919431686401367 -1.4691056099585076 -1.8571724891662598 2.384894533748291 -1.5963614622699183 3.3390140533447266 -0.05867693659967775 -0.721884014468172 0.544504554647276 -0.018465760380755467 2.844947165661257 -0.8971869269251062
4.91945219039917 -1.4691098493388672 -1.8572142124176025 2.384894533748291 -1.596374813710348 3.3389930725097656 -0.0586567929599418 -0.7218760868983276 0.5444703359629866 -0.018529796795513802 2.844964699730355 -0.8971181259779069
4.91941499710083 -1.4691217702678223 -1.8571983575820923 2.384927435512207 -1.5963085333453577 3.3390018939971924 -0.05869782377054899 -0.7218883245512442 0.544481842421889 -0.018434369522796437 2.8450033984503835 -0.8972088448913488
4.9194793701171875 -1.469057248239853 -1.8571182489395142 2.3848654466816406 -1.596386734639303 3.3389692306518555 -0.05862952130672341 -0.7218774685091904 0.5445741871737252 -0.018611129693870392 2.8448790621671107 -0.8972714840977071
4.919427394866943 -1.4691141185215493 -1.8571892976760864 2.3848978716083984 -1.5964120070086878 3.3389976024627686 -0.05866549396206876 -0.7218816410326516 0.5444858258934487 -0.01850565580478111 2.844924903551971 -0.8971344459107097
4.919427394866943 -1.469065548186638 -1.8571442365646362 2.384885712260864 -1.5963628927813929 3.338998556137085 -0.0586784115147168 -0.7218748744099408 0.5445524438744042 -0.018483936519944327 2.844913774855533 -0.897269977149863
4.919434547424316 -1.469159447853901 -1.857161045074463 2.3848647314259033 -1.5963628927813929 3.339022636413574 -0.05867243011238459 -0.7219021071215435 0.5444697221534082 -0.018457053206390267 2.8449880170856963 -0.897086799506419
4.919445991516113 -1.469097950761654 -1.857161045074463 2.384873791331909 -1.59633714357485 3.339026927947998 -0.05867517604019923 -0.7218828719275061 0.5445146997745366 -0.018456922292124457 2.8449609840276944 -0.8971922982646573
4.91945219039917 -1.4690358203700562 -1.857151985168457 2.384894533748291 -1.5963457266436976 3.3389899730682373 -0.058665077678960634 -0.7218654468906829 0.5445696193644263 -0.018524106207441424 2.844904172897553 -0.8973173698051673
4.919459342956543 -1.4691022348454972 -1.8570977449417114 2.384866161937378 -1.59629995027651 3.33901047706604 -0.058667341556094973 -0.7219001681607382 0.5445595180940929 -0.018483635145452093 2.8449596628660077 -0.8972818392504762
4.919467449188232 -1.469118410055973 -1.857151985168457 2.384899063701294 -1.5963085333453577 3.339026927947998 -0.058663515822735525 -0.7218977960492351 0.5445129827225607 -0.018474222079396745 2.844970096094428 -0.897222090579327
4.919488430023193 -1.469085970228054 -1.8571770191192627 2.384927673930786 -1.5963447729693812 3.338994264602661 -0.058636671867028735 -0.7218839826871272 0.544522225468074 -0.018567509543359687 2.844920766337681 -0.8972534735123524
4.919431686401367 -1.4691098120859643 -1.8571724891662598 2.384878082866333 -1.5963628927813929 3.339006185531616 -0.05867517463357082 -0.7218831436965361 0.5444986210661331 -0.01847740574314135 2.844960715789047 -0.8971599199895807
4.919480800628662 -1.4690817159465333 -1.8571724891662598 2.384927435512207 -1.5963910261737269 3.3389527797698975 -0.05862361516245967 -0.7218813334238496 0.544528643692289 -0.018637129918871266 2.844889920961102 -0.8972499083279196
4.919501304626465 -1.4690654960325737 -1.8571486473083496 2.3848811823078613 -1.596320931111471 3.3390510082244873 -0.05864525515362926 -0.7218792730727497 0.5445477484369433 -0.018494903912424684 2.8449212731605553 -0.8972554591636986
4.919487953186035 -1.4690732073834916 -1.8571521043777466 2.384849949473999 -1.596374813710348 3.338994264602661 -0.05863191514519643 -0.7218740312489401 0.5445340251053735 -0.018580930840127633 2.844921056922528 -0.8971834200187812
4.919463634490967 -1.4691422817162056 -1.85715651512146 2.3848811823078613 -1.5963495413409632 3.3389811515808105 -0.05864687605832126 -0.7219008982085109 0.5444898260885702 -0.018551975288500305 2.8449776584514574 -0.8971477111105196
4.91941499710083 -1.4691022050431748 -1.8572098016738892 2.3848811823078613 -1.596374813710348 3.3389933109283447 -0.0586843782973797 -0.7218704341857063 0.5444763672260735 -0.018476801952290126 2.8449751356141544 -0.8971236639014981
4.919402122497559 -1.4690979284099122 -1.8571770191192627 2.384854241008423 -1.596320931111471 3.3389899730682373 -0.05870454121157818 -0.7218737957548105 0.5445002968720943 -0.018439282576022557 2.8450167136150677 -0.8971692413663479
4.919425964355469 -1.4690979284099122 -1.85715651512146 2.384869261378906 -1.596370045338766 3.3389856815338135 -0.058673933080841914 -0.7218807837542867 0.5445176616708176 -0.018502346217659428 2.8449494840480964 -0.8971868298541126
4.919504642486572 -1.4691141185215493 -1.8572052717208862 2.3848869043537597 -1.59633714357485 3.339055061340332 -0.05863911449471228 -0.7218835491477653 0.5444717499462729 -0.018498855802294784 2.844968299767747 -0.8971116289951871
4.919497013092041 -1.469065548186638 -1.857151985168457 2.384915276164673 -1.596353832875387 3.339059591293335 -0.05864188614845317 -0.7218820791245728 0.5445507838492444 -0.01849180631611278 2.8448745645189204 -0.8972783382052143
4.919480800628662 -1.4691022050431748 -1.8571680784225464 2.3848811823078613 -1.59629995027651 3.339022636413574 -0.05865746523270618 -0.721886697006911 0.5445089065204055 -0.01849524952708285 2.8449856220406216 -0.8972009664584557
4.919443607330322 -1.4691388395479699 -1.8571892976760864 2.384901924724243 -1.596325699483053 3.3390018939971924 -0.058672218037448993 -0.721894326278024 0.5444714419610965 -0.018482515114556747 2.845002710020914 -0.897148862185524
4.919455051422119 -1.4691508126309891 -1.8571654558181763 2.384939118022583 -1.5963414351092737 3.339014768600464 -0.058659861839435966 -0.7219097677978792 0.5444876609238953 -0.018488187507320602 2.844953359565009 -0.8972016427343343
4.91947603225708 -1.469106489127018 -1.8571724891662598 2.384906454677246 -1.596370045338766 3.3389933109283447 -0.05863851098260987 -0.7218880696171062 0.5445066698946123 -0.0185623000083631 2.8449267860461998 -0.8971925235814552
4.919520854949951 -1.4691055801561852 -1.8571430444717407 2.38495580732312 -1.59633714357485 3.3390140533447266 -0.05861496865971242 -0.7219052896141391 0.5445394094955666 -0.018582444285903783 2.8448872792507864 -0.8973043897163787
4.919497013092041 -1.4690936517766495 -1.857151985168457 2.384894533748291 -1.596353832875387 3.33894944190979 -0.05861858374946188 -0.721887958815691 0.5445304534988816 -0.018647865473960815 2.8449317466850643 -0.8972344811619718
4.919440269470215 -1.4691217702678223 -1.857151985168457 2.3849033552357177 -1.59633714357485 3.339055061340332 -0.05868185951171967 -0.72189753895941 0.5445099591630689 -0.018408589085238583 2.8449465338699467 -0.8972078387945767
4.919497013092041 -1.4691141185215493 -1.857122778892517 2.384887142772339 -1.5963414351092737 3.339006185531616 -0.05862976863851341 -0.7219022668203626 0.5445355317694992 -0.018561538804248583 2.844927127633454 -0.8972316600269279
4.919467926025391 -1.4691098493388672 -1.85712730884552 2.384845419520996 -1.596370045338766 3.3390140533447266 -0.05864748285022547 -0.7218916052850378 0.5445259910771617 -0.0185218060017634 2.844935544021964 -0.8971640012320475
4.91951322555542 -1.4690979284099122 -1.857151985168457 2.384960337276123 -1.596320931111471 3.3389813899993896 -0.05861860234435551 -0.7219006372129193 0.5445402000741937 -0.018610697074988934 2.84490842510146 -0.8973254322518154
4.919455051422119 -1.469081738298275 -1.85712730884552 2.384882612819336 -1.5963004271136683 3.339006185531616 -0.05867209376751937 -0.7218876870579062 0.5445547111966598 -0.01848376411248693 2.844956926520183 -0.8972932623464679
4.919463634490967 -1.4690979284099122 -1.8571635484695435 2.384930296535156 -1.5963414351092737 3.33901047706604 -0.05865688114092865 -0.7218906604867865 0.5445242304684549 -0.018507719491705977 2.8449234624628152 -0.8972625239139461
4.919504642486572 -1.469057248239853 -1.8571442365646362 2.384923143977783 -1.5963214079486292 3.338977813720703 -0.05862757978593003 -0.7218824111809741 0.5445671416528365 -0.018604691570912237 2.8449039841066184 -0.8973425612611003
4.919508934020996 -1.4690689382008095 -1.857100009918213 2.384906454677246 -1.59633714357485 3.3390018939971924 -0.058622978023990566 -0.7218950439210974 0.5445881316108997 -0.018584356145126574 2.8448742278932904 -0.8973497356774857
4.919431686401367 -1.4691098493388672 -1.8571442365646362 2.3848766523548584 -1.5963581244098108 3.339067220687866 -0.058686894443512994 -0.7218906047357301 0.5445180138728939 -0.018388960292049564 2.8449330158728543 -0.897186354174679
4.91947603225708 -1.4690979284099122 -1.8571351766586304 2.384915276164673 -1.5963495413409632 3.3389856815338135 -0.0586401389988437 -0.7218956531525607 0.5445432907072958 -0.01856492360958933 2.844911261378166 -0.8972785223071713
4.919501304626465 -1.469065548186638 -1.8571789264678955 2.384906454677246 -1.5963495413409632 3.3390183448791504 -0.0586332225528257 -0.7218742856922351 0.5445299965820919 -0.018553978095669596 2.8449092370615725 -0.8972398940189467
4.91948938369751 -1.4690655705383797 -1.8572142124176025 2.384894533748291 -1.5963948408709925 3.3389899730682373 -0.05862809357236387 -0.7218619321231096 0.5445006817602543 -0.018597264531202615 2.844911819676476 -0.8971601289642313
4.919445991516113 -1.4690616887858887 -1.8571486473083496 2.384901924724243 -1.596365753804342 3.3390183448791504 -0.05866833896118422 -0.7218758906002599 0.5445543009645802 -0.0184835877620138 2.8448920657434638 -0.8972819292006227
4.919430255889893 -1.469086007480957 -1.8571654558181763 2.384910984630249 -1.5963905493365687 3.338982105255127 -0.058665749985813254 -0.7218797134072258 0.5445269234472847 -0.018523285628671796 2.8449048839302673 -0.8972358979253958
4.919455051422119 -1.4690936741283913 -1.8571635484695435 2.384906454677246 -1.5963299910174769 3.3389899730682373 -0.058662552818229276 -0.7218854718407454 0.544523412604314 -0.01851941805680976 2.844952115899424 -0.8972480277300039
4.919480323791504 -1.4691141185215493 -1.8571815490722656 2.384890003795288 -1.5963581244098108 3.338994264602661 -0.05863862234021178 -0.7218869583781199 0.5444915710985937 -0.018561073139590312 2.844955707518602 -0.8971532961989674
4.919443607330322 -1.469086007480957 -1.8571724891662598 2.3848766523548584 -1.5963414351092737 3.3389856815338135 -0.05866918035901559 -0.7218755150708884 0.5445159995416752 -0.018514269222362496 2.8449660886100796 -0.8972031709425713
4.919447898864746 -1.4690894347480317 -1.8571654558181763 2.384833498592041 -1.596309010182516 3.3389813899993896 -0.05867307654919931 -0.721873642554204 0.544511437329214 -0.018511418738875168 2.8450168329080796 -0.8971672690229772
4.919529914855957 -1.4691183877042313 -1.8572028875350952 2.384894533748291 -1.5963457266436976 3.338977813720703 -0.058603036536044456 -0.7218870112546948 0.5444741355750712 -0.018648713218829823 2.8449699614125996 -0.8971250714708155
4.919447898864746 -1.4691183877042313 -1.8571983575820923 2.384936495418213 -1.5963214079486292 3.3389899730682373 -0.05866882182563615 -0.721889792697153 0.5444859939392103 -0.018504132271884306 2.844979493612105 -0.8972145362882735
4.91943883895874 -1.4690530014089127 -1.8571892976760864 2.38493196546521 -1.5962885061847132 3.338998556137085 -0.05868901359809427 -0.7218685451486591 0.5445379216929943 -0.01846568821695819 2.8449629372252665 -0.897326173420685
4.91946268081665 -1.469155029659607 -1.8571770191192627 2.3849143224903564 -1.5963457266436976 3.33901047706604 -0.0586534592476841 -0.7219054016247826 0.5444711650996505 -0.018506557762958384 2.84497409424486 -0.8971440918804138
4.919492721557617 -1.4690527480891724 -1.857131838798523 2.384927435512207 -1.5963581244098108 3.338961362838745 -0.05862421972214588 -0.7218824831684112 0.5445800660420728 -0.018628422029046007 2.844868061699245 -0.8973569922664715
4.919422626495361 -1.469068968003132 -1.8571486473083496 2.384923143977783 -1.5962885061847132 3.338988780975342 -0.058695748290910246 -0.7218817317325794 0.5445561521590709 -0.018457098796990482 2.844959630117405 -0.8973525981697905
4.919422626495361 -1.4691217702678223 -1.857153058052063 2.38493196546521 -1.5963414351092737 3.3390018939971924 -0.058682436949797266 -0.7218993860601558 0.5445161886431946 -0.01846137761983628 2.8449435885514993 -0.8972566598825179
4.91946268081665 -1.46906981736932 -1.8571521043777466 2.384939118022583 -1.5963133017169397 3.339026927947998 -0.05866845679027735 -0.7218855038376077 0.5445543375972364 -0.01847104729923088 2.8449124692479986 -0.8973395432819186
4.919431686401367 -1.4691098418882866 -1.8571475744247437 2.38493458806958 -1.596325699483053 3.3389899730682373 -0.058677639643020724 -0.7218976311132612 0.5445298681034689 -0.018484450357876388 2.8449444401949147 -0.8972925803200654
4.919422626495361 -1.4690979284099122 -1.8571654558181763 2.384882612819336 -1.5963500181781214 3.3389933109283447 -0.0586824900393269 -0.7218808846142366 0.5445137717583661 -0.01847745142215327 2.8449621043712026 -0.8972026778207707
4.919455051422119 -1.4691388395479699 -1.8572052717208862 2.384890003795288 -1.5963214079486292 3.3389649391174316 -0.05865875747436175 -0.721889216841008 0.5444582205247135 -0.018548979435752653 2.8450295381140376 -0.89711870279958
4.9194416999816895 -1.4690979284099122 -1.8571745157241821 2.384885712260864 -1.5963214079486292 3.3390183448791504 -0.0586805198546462 -0.7218813176551462 0.5445074900562379 -0.018455608848948955 2.844978008669335 -0.8972012678751152
4.919431686401367 -1.4691141706756135 -1.8571699857711792 2.3848976331898193 -1.5963285605060022 3.338939905166626 -0.058668891239743046 -0.721888095898295 0.5445040925517248 -0.018556173838154017 2.84499384740358 -0.8972152803935166
4.919431686401367 -1.4691141110709687 -1.85712730884552 2.384890003795288 -1.596332852040426 3.3390259742736816 -0.0586829354367941 -0.7218981988443038 0.5445322981827059 -0.01843652290889797 2.8449474609601006 -0.8972430607426021
4.919450283050537 -1.4690817457488556 -1.8571475744247437 2.384939118022583 -1.5962961355792444 3.338982105255127 -0.058671319314959273 -0.7218900443019964 0.5445512185561536 -0.018509231609573275 2.8449452126300026 -0.8973501394962632
4.919431686401367 -1.4691021975925942 -1.8572098016738892 2.384890242213867 -1.5963495413409632 3.3390345573425293 -0.058685957739333064 -0.7218738135245809 0.5444775500636378 -0.018430268714664085 2.8449756601702503 -0.8971379326976656
4.919450283050537 -1.4690936592272301 -1.857161045074463 2.38487355291333 -1.5963614622699183 3.339006185531616 -0.05866280615452893 -0.7218806603517294 0.5445176455548922 -0.01850379244838332 2.8449426051076703 -0.8971879749626644
4.919459342956543 -1.4691141185215493 -1.8571306467056274 2.384939118022583 -1.5963743368731897 3.339038848876953 -0.05865502215943501 -0.7219047219246735 0.5445379607002045 -0.018476743167622312 2.8448750307929753 -0.8972744487111735
4.919430255889893 -1.4690979209593316 -1.8571724891662598 2.384885473842285 -1.5963133017169397 3.338998556137085 -0.058686609892079536 -0.7218810832276004 0.5445097615264861 -0.01846386541016842 2.8449913019411683 -0.8972142104369805
4.919492721557617 -1.469081738298275 -1.8571486473083496 2.384885712260864 -1.5963500181781214 3.3389604091644287 -0.05862565472365858 -0.7218833047090659 0.5445393005880339 -0.018624699816451876 2.8449292550118956 -0.8972438114732811
4.91947603225708 -1.4690732148340722 -1.8571577072143555 2.384923143977783 -1.596309010182516 3.3390183448791504 -0.05865854388529458 -0.7218839950972146 0.5445449783973204 -0.01849995175034405 2.8449300473567574 -0.8973072956061633
4.919450283050537 -1.4691064220717927 -1.857184886932373 2.384885712260864 -1.5963786284076136 3.3390140533447266 -0.05866043272109939 -0.7218807518393398 0.5444924686226024 -0.018499667221244406 2.844942023330552 -0.8971444206943454
