gadestri/Universal-robots-Hand-tracking-to-move-the-robot/RTDE/robot_data.csv
actual_q_0 actual_q_1 actual_q_2 actual_q_3 actual_q_4 actual_q_5 actual_TCP_pose_0 actual_TCP_pose_1 actual_TCP_pose_2 actual_TCP_pose_3 actual_TCP_pose_4 actual_TCP_pose_5
4.919897556304932 -1.470939965253212 -1.8523684740066528 2.3782097536274414 -1.598597828541891 3.3405895233154297 -0.05793772887161463 -0.7227646479816804 0.5454590663669046 -0.017925222169076178 2.8449023851317135 -0.8905707165680862
4.91993522644043 -1.4709604916027565 -1.8523545265197754 2.3781606394001464 -1.598553482686178 3.340601682662964 -0.05792197704489499 -0.7227721432107375 0.5454465019160444 -0.017940651696446916 2.844960110611908 -0.8905096020622826
4.919926643371582 -1.4709226203015824 -1.8523774147033691 2.3781682687946777 -1.5986302534686487 3.3405773639678955 -0.057909811605100246 -0.7227513030039912 0.545455856995265 -0.01799846391566524 2.844891716832272 -0.8905054151056276
4.919865608215332 -1.470980705027916 -1.8523995876312256 2.378152056331299 -1.5986140410052698 3.3405685424804688 -0.05795307282969135 -0.7227613021032947 0.5453962040986514 -0.017914736709617633 2.8449827273234436 -0.8903982997015965
4.919907569885254 -1.4709850338152428 -1.8523366451263428 2.3781725603291015 -1.598593537007467 3.3405895233154297 -0.0579274444372522 -0.7227839672561194 0.5454446648345155 -0.01793683619548569 2.84493440829256 -0.8905031468641148
4.919885635375977 -1.4709117797068139 -1.8523615598678589 2.3782009321400146 -1.598597828541891 3.3405818939208984 -0.05794682175318705 -0.7227542614989633 0.545482402613766 -0.017919963316034355 2.844890974480214 -0.8906098717156979
4.919787406921387 -1.4709032115391274 -1.8523659706115723 2.378152056331299 -1.598602596913473 3.3405985832214355 -0.0580221792410788 -0.7227378417388881 0.5454748939077667 -0.017758465435280306 2.8449361181060433 -0.8905632616029494
4.919878005981445 -1.4709969025901337 -1.852403163909912 2.378246470088623 -1.5985429922686976 3.3405940532684326 -0.05796171745021195 -0.7227820897686807 0.5454015958382954 -0.017864031079455465 2.8449852816306906 -0.8905294181286357
4.919885635375977 -1.470943236058094 -1.8522934913635254 2.3781606394001464 -1.5985859076129358 3.3405849933624268 -0.05794535821645823 -0.7227766454440411 0.5455043652734131 -0.017910709046614317 2.84490201553074 -0.8906105567614252
4.919882297515869 -1.470939965253212 -1.8523942232131958 2.378152056331299 -1.5986021200763147 3.3406314849853516 -0.057958900901232444 -0.7227500918473783 0.5454270037766744 -0.01784456604117086 2.844944250879108 -0.890450829564218
4.919869899749756 -1.4709194165519257 -1.8523774147033691 2.3781518179127197 -1.5986021200763147 3.3406314849853516 -0.057968542687834974 -0.7227460358264901 0.5454539567164731 -0.017827901201141496 2.8449244248058054 -0.8905031555511003
4.919895648956299 -1.4709681060961266 -1.8523545265197754 2.3781935411640625 -1.5986021200763147 3.340585231781006 -0.057934899854224904 -0.7227755348070997 0.545446914496568 -0.01793007396301464 2.8449192229703026 -0.8905287428919991
4.9198689460754395 -1.4709108260324975 -1.8523545265197754 2.3781725603291015 -1.598593537007467 3.3405447006225586 -0.05795296830032846 -0.7227504401948145 0.5454840734868504 -0.01794721354081552 2.844920330521988 -0.8905953830915421
4.919865608215332 -1.470951886182167 -1.8523818254470825 2.3781563478657226 -1.5985515753375452 3.3406689167022705 -0.05798815061375302 -0.7227587596839214 0.5454290480160231 -0.01774459950715339 2.8449777396686997 -0.8904802072587232
4.919815540313721 -1.4709605288556595 -1.8523545265197754 2.3781606394001464 -1.5986231009112757 3.3405728340148926 -0.057987034984024466 -0.7227629717839829 0.5454456336309056 -0.017843350328002945 2.844941526706261 -0.890501730074828
4.919894218444824 -1.470923737888672 -1.8523703813552856 2.3781768518635253 -1.5986393133746546 3.3405849933624268 -0.05793203500442088 -0.7227525227999001 0.545461621767407 -0.017945878980816725 2.844881957177585 -0.8905249875801079
4.919865608215332 -1.4708988604000588 -1.8523774147033691 2.3782262045093994 -1.598593537007467 3.3405864238739014 -0.05796427395738342 -0.7227483176358991 0.5454842849358937 -0.017883250885461492 2.84488482875478 -0.8906453384563982
4.919861316680908 -1.470947579746582 -1.8523774147033691 2.378180428142212 -1.5985892454730433 3.340622663497925 -0.057973063501016525 -0.7227597433071189 0.5454405229957053 -0.01782194768718397 2.8449391235765575 -0.8905141961758808
4.9198079109191895 -1.4709475871971627 -1.852386236190796 2.3781606394001464 -1.598581616078512 3.340606212615967 -0.05801111065072267 -0.7227518467184633 0.5454306699468958 -0.017765615349471436 2.8449808695648438 -0.8904936309363578
4.9198455810546875 -1.4709313449314614 -1.8524290323257446 2.3781890112110595 -1.598593537007467 3.3406152725219727 -0.05798563262567835 -0.7227416422041917 0.5454145595159412 -0.01781123414822719 2.844958194923917 -0.8904805160939071
4.919861316680908 -1.470898912554123 -1.8523907661437988 2.3781966406055908 -1.5985949675189417 3.3405940532684326 -0.057970012365718464 -0.7227409021639466 0.5454681322409756 -0.017866333461323207 2.844909477620497 -0.8905860912636351
4.919886589050293 -1.470939965253212 -1.8523942232131958 2.3782009321400146 -1.5985735098468226 3.3405611515045166 -0.05794710410415429 -0.7227569705669001 0.5454393141284919 -0.017938238232790855 2.8449533295662923 -0.8905450781137649
4.919981479644775 -1.4709237304380913 -1.8523659706115723 2.3781563478657226 -1.598560635243551 3.3405356407165527 -0.05787733543644184 -0.7227574007022818 0.5454643630666701 -0.01810427679813694 2.844945171511026 -0.8905379334727075
4.919861316680908 -1.470938802962639 -1.8523366451263428 2.378163977260254 -1.598564926777975 3.3405895233154297 -0.0579710252833975 -0.7227644038419072 0.5454758380194122 -0.017859194181796486 2.844946314731016 -0.8905782024303506
4.919881343841553 -1.4708946359208603 -1.8523499965667725 2.3781682687946777 -1.598621670399801 3.3405685424804688 -0.057943440338907526 -0.7227453915894143 0.545496523218262 -0.017944169548885 2.844878213199663 -0.8905951808455292
4.919865608215332 -1.4708989051035424 -1.8524155616760254 2.3781890112110595 -1.598560635243551 3.3405940532684326 -0.057976145892653125 -0.7227351075266316 0.545448738336203 -0.017856104971997962 2.844956413873373 -0.890560056351218
4.919882297515869 -1.4709399727037926 -1.852386236190796 2.378147526378296 -1.598581616078512 3.3405611515045166 -0.05794936435306727 -0.7227511190927887 0.5454347532562365 -0.017935559113937027 2.844975799794708 -0.8904803843729671
4.919910430908203 -1.470919431453087 -1.8523908853530884 2.3781725603291015 -1.598593537007467 3.3406314849853516 -0.05794133401648767 -0.7227482326746505 0.5454480069699615 -0.017881424955204957 2.8449164745447626 -0.8905095293403199
4.919894218444824 -1.470935658817627 -1.8523411750793457 2.3781563478657226 -1.598553482686178 3.3405730724334717 -0.05794725291141243 -0.722763180771925 0.5454738823571349 -0.017924059580539897 2.8449566270781337 -0.8905689331758351
4.919915199279785 -1.470951886182167 -1.8523730039596558 2.37820212423291 -1.5985730330096644 3.3405940532684326 -0.057931022212538735 -0.7227685288810562 0.5454463373461176 -0.01793206990522681 2.8449318092754647 -0.8905472237603786
4.919878005981445 -1.4710216981223603 -1.8523818254470825 2.378131313914917 -1.5985601584063929 3.3405895233154297 -0.05795701878119661 -0.7227797888990319 0.545377788087594 -0.017877187800283443 2.845045502186642 -0.8903613876795351
4.919837474822998 -1.4709182691625138 -1.8523684740066528 2.3781606394001464 -1.5985692183123987 3.3405985832214355 -0.05799232278742684 -0.7227476054904867 0.5454650182901484 -0.01781404603256134 2.8449559005686753 -0.8905591718299637
4.919861316680908 -1.4709595006755372 -1.8523075580596924 2.3781847196766357 -1.598630730305807 3.3405940532684326 -0.057953456377968976 -0.7227798397501364 0.5454857407841356 -0.017883093061806812 2.8448736393428913 -0.890581255712449
4.919894218444824 -1.4709399503520508 -1.8523749113082886 2.3782262045093994 -1.5985859076129358 3.3405985832214355 -0.05794452535548751 -0.7227655886297495 0.5454574327949272 -0.017902134857571847 2.8449046170593455 -0.8905894935362418
4.919917583465576 -1.4709476020983239 -1.8523942232131958 2.378152056331299 -1.598597828541891 3.3405940532684326 -0.057926408819114254 -0.7227545358371377 0.5454229139026923 -0.01794586158944602 2.844952373468175 -0.8904432936709455
4.9198455810546875 -1.4709595006755372 -1.8523774147033691 2.378180428142212 -1.598593537007467 3.340622663497925 -0.05798257563782828 -0.7227629663604622 0.5454321294283102 -0.017801238711228514 2.844947117346894 -0.89049900310602
4.919926166534424 -1.4709032636931916 -1.8524199724197388 2.3782095152088623 -1.598527733479635 3.340564012527466 -0.05793325266577106 -0.7227424630390207 0.5454480632474406 -0.017969917958846834 2.8449675436944455 -0.8905874579920595
4.919898509979248 -1.4709766817143937 -1.8523375988006592 2.3781933027454834 -1.598581616078512 3.3406107425689697 -0.05794100687228803 -0.7227836456159363 0.5454534489084588 -0.017888693475217984 2.844923959773572 -0.8905449937393881
4.9198899269104 -1.4709118095091362 -1.8523659706115723 2.378176136607788 -1.598593537007467 3.3405940532684326 -0.05794796516098401 -0.7227503385037177 0.5454739607915541 -0.01790645859088009 2.8449084505697275 -0.8905695495343506
4.919878005981445 -1.4709807124784966 -1.8523411750793457 2.378152056331299 -1.5985859076129358 3.3406107425689697 -0.057955820029023136 -0.722777286072189 0.5454398059422996 -0.01786095161454415 2.8449559352352844 -0.8904809969189855
4.919861316680908 -1.4709356662682076 -1.8523330688476562 2.3781682687946777 -1.5985773245440882 3.3405566215515137 -0.05796166409746806 -0.7227639989141007 0.5454822361753834 -0.01791189914439127 2.8449373685193913 -0.890592887244156
4.919852256774902 -1.4709108260324975 -1.8523331880569458 2.3781606394001464 -1.5985859076129358 3.340618133544922 -0.057980475270130075 -0.7227540315780598 0.5454958899691164 -0.01781589715464068 2.8449072042343047 -0.8906008219291054
4.919852256774902 -1.4709356662682076 -1.8523331880569458 2.3781933027454834 -1.5985601584063929 3.3405401706695557 -0.057968197395826336 -0.7227671408172144 0.5454879297754175 -0.01791485987005931 2.844942327626402 -0.8906406964588539
4.9198899269104 -1.4709519383362313 -1.8523377180099487 2.3781890112110595 -1.5985730330096644 3.340585231781006 -0.0579460827206537 -0.7227736389498944 0.5454706973596796 -0.01790950775464376 2.844926710331274 -0.8905836596375032
4.919910907745361 -1.4709594634226342 -1.852332353591919 2.3782052236744384 -1.5985692183123987 3.3405566215515137 -0.05792487136705933 -0.7227808050346073 0.5454736241766257 -0.017978415189683593 2.844922634040717 -0.8906061459563345
4.919898509979248 -1.4709151324680825 -1.8523615598678589 2.3782095152088623 -1.5985949675189417 3.3405940532684326 -0.05794008861647533 -0.7227575985109511 0.5454814503796227 -0.01791963026218172 2.84488380751972 -0.8906134908926393
4.919849872589111 -1.4709118169597168 -1.8524200916290283 2.3781444269367675 -1.5985515753375452 3.3405985832214355 -0.057990899589918043 -0.7227319268037339 0.5454277412439166 -0.017822332548124393 2.845005087033951 -0.8904836561074493
4.919906139373779 -1.470963792209961 -1.852350115776062 2.378152056331299 -1.5985692183123987 3.340601682662964 -0.05793919373231757 -0.7227710883692596 0.5454454869418294 -0.01790643502934948 2.844959455717287 -0.8904968752576752
4.919857025146484 -1.470931352382042 -1.852403163909912 2.3781606394001464 -1.5986140410052698 3.3405730724334717 -0.057963813163639084 -0.7227435683385214 0.5454293502632787 -0.01789732986341882 2.8449501605363063 -0.8904721672354843
4.919836521148682 -1.4709681060961266 -1.8523375988006592 2.3781933027454834 -1.5985844771014612 3.3405895233154297 -0.057981615315215444 -0.7227766639008393 0.5454599738352337 -0.017832351159049267 2.844937549102325 -0.8905714916335374
4.9198737144470215 -1.470989355151989 -1.8524119853973389 2.3781725603291015 -1.598609749470846 3.3405520915985107 -0.057944387274742465 -0.722764611860568 0.5453854002516191 -0.017947374886114257 2.844988528484168 -0.8904015900776464
4.919886589050293 -1.470935658817627 -1.852386236190796 2.378143234843872 -1.5985730330096644 3.340622663497925 -0.05796078257855744 -0.722750204778646 0.5454352949128567 -0.017850225926030472 2.844966757542798 -0.8904719442065244
4.919906139373779 -1.4708988604000588 -1.8523545265197754 2.3781606394001464 -1.5985849539386194 3.3406436443328857 -0.05794876806845537 -0.7227481028456374 0.5454873344349254 -0.017855453554197993 2.8448936309150197 -0.8905729909726172
4.919827938079834 -1.4709433031133194 -1.8523526191711426 2.3781933027454834 -1.598581616078512 3.3405895233154297 -0.0579910858561814 -0.7227637975750256 0.5454659297163011 -0.017819099394699004 2.844936040488727 -0.890587873219388
4.919894218444824 -1.470927045946457 -1.8523684740066528 2.3781725603291015 -1.598527733479635 3.3405895233154297 -0.05795793935738666 -0.7227566843775136 0.5454625210276838 -0.017888579330035972 2.8449752288041683 -0.8905761955654131
4.919878005981445 -1.4709595006755372 -1.8523590564727783 2.3781890112110595 -1.598593537007467 3.3405940532684326 -0.05795232807059708 -0.7227700779381402 0.545448536992682 -0.017888599892112143 2.8449289251920926 -0.8905344665789074
4.919882297515869 -1.4709225308946152 -1.8523818254470825 2.3781401354023437 -1.598597828541891 3.3406107425689697 -0.05795675771001011 -0.722745085362912 0.5454469038208962 -0.017872806007437927 2.8449415889110163 -0.8904812678146734
4.919907569885254 -1.4709549781731148 -1.8523457050323486 2.3781768518635253 -1.5985773245440882 3.3405401706695557 -0.05792396462540891 -0.7227715208583247 0.5454614127394442 -0.0180003093636012 2.844943873769551 -0.8905556122054419
4.919852256774902 -1.470915087764599 -1.8523942232131958 2.3781606394001464 -1.598597828541891 3.3405654430389404 -0.057970178308843934 -0.7227399848980269 0.5454480440036563 -0.017894684353132812 2.844950799023235 -0.8905171735255993
4.919861316680908 -1.4709604916027565 -1.8524225950241089 2.3781444269367675 -1.5985730330096644 3.3406360149383545 -0.05798165768840547 -0.722749208903959 0.5453903659575065 -0.017793751361001482 2.845007351532794 -0.8903937070342716
4.919854164123535 -1.4709550005248566 -1.8523898124694824 2.3781682687946777 -1.5985892454730433 3.340618133544922 -0.057977737583681584 -0.7227572914341737 0.5454237545988072 -0.017817620933789816 2.8449618770210714 -0.8904735141270271
4.919910430908203 -1.4708989051035424 -1.8523942232131958 2.3781606394001464 -1.598555866871969 3.3405072689056396 -0.05792735028592505 -0.7227380439874004 0.5454620531857499 -0.01804150439271228 2.844973877106335 -0.8905613912417107
4.919857025146484 -1.4709399503520508 -1.8523898124694824 2.3781768518635253 -1.5985849539386194 3.340639114379883 -0.057981681143772626 -0.7227536261594202 0.5454353699369469 -0.017790314766476783 2.8449449191969123 -0.8905028622938114
4.919894218444824 -1.4709020790508767 -1.852386236190796 2.3781444269367675 -1.5985401312457483 3.340606212615967 -0.05796194055260537 -0.7227395365390317 0.5454601689136122 -0.017870384983029952 2.844973966353573 -0.8905380396226785
4.919854164123535 -1.470939965253212 -1.8523703813552856 2.3781444269367675 -1.598581616078512 3.340606212615967 -0.05797786485628276 -0.7227533926554628 0.5454448037644319 -0.017831792705506225 2.8449642664079433 -0.8904941610418409
4.919926166534424 -1.4709194240025063 -1.8523457050323486 2.378213091487549 -1.598548714314596 3.340606212615967 -0.05793173847536942 -0.7227664286916156 0.5454919224835572 -0.01792088968210983 2.844901950369425 -0.8906507160180795
4.919921875 -1.4709723827293892 -1.8523818254470825 2.3781933027454834 -1.598597828541891 3.3406107425689697 -0.05792303434862053 -0.722772427422232 0.5454225935171997 -0.017928247284805018 2.844929485661911 -0.8904780382810045
4.91990327835083 -1.4709063333323975 -1.8524200916290283 2.3781890112110595 -1.598614517842428 3.3405940532684326 -0.057936407639489935 -0.7227373796012783 0.5454388306236655 -0.0179338450241145 2.8449101754934594 -0.8905076549309645
4.919894218444824 -1.470959485774376 -1.8523659706115723 2.3781563478657226 -1.5985444227801722 3.340592861175537 -0.05795269742111775 -0.7227662248758422 0.5454381949097987 -0.017890517988679664 2.844989406326912 -0.890504538619882
4.919865131378174 -1.4709313821843644 -1.8523863554000854 2.3782173830219726 -1.598602596913473 3.3405818939208984 -0.05795993453814898 -0.7227562452741971 0.5454531067216217 -0.01789201320144884 2.8449098502453793 -0.8905738952727882
4.919898509979248 -1.4709432435086747 -1.852342128753662 2.3781725603291015 -1.5985692183123987 3.340585231781006 -0.05794204868008868 -0.7227678347542885 0.5454702972781302 -0.017919929343710055 2.8449350661574537 -0.8905676024687239
4.919878005981445 -1.4709151101163407 -1.8523242473602295 2.3782095152088623 -1.5985773245440882 3.3406600952148438 -0.05797003124773914 -0.7227666016923258 0.5455081495762064 -0.01778937839523149 2.844864329208559 -0.8906640574317641
4.9198455810546875 -1.4709724125317116 -1.8523457050323486 2.3782095152088623 -1.5985906759845179 3.340547800064087 -0.0579650953913623 -0.7227783359397034 0.5454550966038898 -0.017907288386236307 2.844937960240786 -0.8905798098352633
4.919898509979248 -1.4708945912173768 -1.8523457050323486 2.3781682687946777 -1.5985859076129358 3.340622663497925 -0.05794959222443003 -0.7227490180779457 0.5454990617439563 -0.017875326509061217 2.8448870826088193 -0.8906060169466523
4.919878005981445 -1.4709681284478684 -1.8523907661437988 2.3781768518635253 -1.598593537007467 3.3405685424804688 -0.057948588022127934 -0.7227635972357802 0.5454169487642662 -0.017923789629253884 2.8449676386594294 -0.8904689634497756
4.91987419128418 -1.4709151324680825 -1.8523852825164795 2.3781444269367675 -1.598597828541891 3.340585231781006 -0.05795819686983149 -0.7227414327045034 0.5454510287332159 -0.017897754272567522 2.84494477749608 -0.8904990128160101
4.9198408126831055 -1.4709594336203118 -1.8523571491241455 2.3781444269367675 -1.5985682646380823 3.3406195640563965 -0.05799104082949445 -0.7227632570220959 0.5454412035695286 -0.01778757646921731 2.844979242920868 -0.8904929313599972
4.919827938079834 -1.470935658817627 -1.8523242473602295 2.3781649309345703 -1.5985773245440882 3.3406524658203125 -0.05800434738139891 -0.7227648498349671 0.5454854082734784 -0.0177281823823174 2.844919419438033 -0.8905878589871075
4.919836521148682 -1.470931426887848 -1.8523703813552856 2.3781768518635253 -1.5985515753375452 3.3405730724334717 -0.05799065685607367 -0.7227541845565574 0.5454587749693901 -0.01784075164028668 2.844976049155599 -0.890575465099134
4.9198737144470215 -1.4709108260324975 -1.8523907661437988 2.3781682687946777 -1.598614517842428 3.3405611515045166 -0.05794998857607597 -0.7227410704824835 0.5454548271647635 -0.017939143781818344 2.844923177781169 -0.8905254732499992
4.919865608215332 -1.4709280741265793 -1.852386236190796 2.378180428142212 -1.598609749470846 3.3405685424804688 -0.0579565464813773 -0.7227497186819042 0.5454485245742537 -0.017914716667092836 2.844927779097301 -0.890527456056275
4.919906139373779 -1.4709562075189133 -1.8523615598678589 2.3782095152088623 -1.598548714314596 3.3405730724334717 -0.05793782801813677 -0.7227737147280704 0.5454546461993129 -0.017938256506625512 2.8449500616489063 -0.8905857312293285
4.919832229614258 -1.470951886182167 -1.8523818254470825 2.3781933027454834 -1.5985892454730433 3.3405985832214355 -0.0579888988398755 -0.7227600111658371 0.5454374169146898 -0.01781480145884746 2.8449499866557546 -0.8905303716184975
4.919882297515869 -1.4709810403040429 -1.8523730039596558 2.3781606394001464 -1.598555866871969 3.3405818939208984 -0.0579551968405548 -0.7227716819751024 0.5454187709842038 -0.017893716057589645 2.8450009421183995 -0.8904703201608776
4.919915199279785 -1.470919431453087 -1.8523774147033691 2.3781444269367675 -1.5985906759845179 3.340639114379883 -0.05794009051804009 -0.7227480603517146 0.5454525598370766 -0.017876128317657787 2.8449246911390853 -0.8904888109039512
4.9198737144470215 -1.470955030327179 -1.8523526191711426 2.3781563478657226 -1.598593537007467 3.340606212615967 -0.057958692002122794 -0.7227654574111867 0.5454497919697959 -0.017865174376286076 2.844940454514796 -0.8905035714358837
4.9198737144470215 -1.4709270533970376 -1.852320909500122 2.3781649309345703 -1.5985730330096644 3.3405773639678955 -0.057957878406408564 -0.7227644631394906 0.5454962581722471 -0.017898523976435887 2.8449217804840075 -0.8906120216756122
4.919907569885254 -1.4709270533970376 -1.852386236190796 2.3781933027454834 -1.5985725561725062 3.340655565261841 -0.05795155069033492 -0.7227555929995494 0.5454500578654518 -0.017833630779880743 2.8449175348879527 -0.8905404967924028
4.919877052307129 -1.470935658817627 -1.8523728847503662 2.3781563478657226 -1.5985401312457483 3.3406214714050293 -0.05797385638926221 -0.7227555287276466 0.5454487855995555 -0.017823858572788277 2.8449799410651906 -0.8905272917977923
4.919857025146484 -1.4709356737187882 -1.8523950576782227 2.3781682687946777 -1.5985725561725062 3.340618133544922 -0.05798115657477654 -0.7227497630587776 0.5454336335674814 -0.017814448655631355 2.844965983525322 -0.8905008063194437
4.919843673706055 -1.470894606118538 -1.8523749113082886 2.3781725603291015 -1.5985773245440882 3.340622663497925 -0.05799254585870507 -0.7227396714336727 0.5454780079099222 -0.017792794645935417 2.8449238236646672 -0.8905880211530035
4.919861316680908 -1.470939965253212 -1.8523684740066528 2.378152056331299 -1.5985859076129358 3.340585231781006 -0.05796728482618357 -0.7227549410696255 0.5454482517154025 -0.01787390325566498 2.8449581043334637 -0.8905074425984408
4.919869422912598 -1.470951886182167 -1.8523615598678589 2.3781890112110595 -1.598593537007467 3.340580701828003 -0.057956592484707366 -0.7227661063905083 0.5454523358117541 -0.01789554678273393 2.844931214110723 -0.8905456859078255
4.9198899269104 -1.4710097026875992 -1.8523375988006592 2.3781120020100097 -1.5985401312457483 3.3405654430389404 -0.05794731990301132 -0.7227844217597204 0.5454170230308658 -0.017920571462271037 2.8450415293590097 -0.8904240487645317
4.9198737144470215 -1.470980667775013 -1.852386236190796 2.3781563478657226 -1.5985692183123987 3.3405699729919434 -0.05795684370545419 -0.7227667886571585 0.5454082157920596 -0.017904204603554453 2.845005815358814 -0.8904441809870227
4.919882297515869 -1.4709485706738015 -1.8523287773132324 2.3781563478657226 -1.598602596913473 3.3405985832214355 -0.05794819614218066 -0.7227690221672093 0.5454723207587335 -0.017893131949200464 2.8449138766841853 -0.8905392357296896
4.9198455810546875 -1.4709270533970376 -1.8523852825164795 2.378189726466797 -1.5985844771014612 3.3406150341033936 -0.05798570007679562 -0.7227509340614098 0.5454509987540525 -0.017808686792543122 2.8449353550082703 -0.89055091673319
4.919885635375977 -1.470923737888672 -1.8523950576782227 2.3781563478657226 -1.5985692183123987 3.3405654430389404 -0.05795203580768545 -0.7227450032622726 0.5454412622810881 -0.01792881409629068 2.844973954002214 -0.8905073535156838
4.919898509979248 -1.4709151324680825 -1.8523457050323486 2.3781682687946777 -1.5985601584063929 3.340618133544922 -0.05795298872353243 -0.7227569992548304 0.5454855440958064 -0.017869537089434073 2.8449218964860377 -0.8905931120602677
4.919878005981445 -1.470919431453087 -1.8523590564727783 2.3781606394001464 -1.5985892454730433 3.3406107425689697 -0.057960330462921386 -0.7227522207397821 0.5454704808590981 -0.017863646685289614 2.844920992401592 -0.8905490800798432
4.919858455657959 -1.4709637698582192 -1.8523590564727783 2.3781649309345703 -1.5985859076129358 3.3406436443328857 -0.05797828744604033 -0.7227679728179823 0.545439589398761 -0.017786406329129905 2.84494570659635 -0.8904944285209054
4.919902801513672 -1.4709075105241318 -1.8523287773132324 2.378152056331299 -1.598621670399801 3.340606212615967 -0.057933747356999715 -0.7227545410283273 0.5454993409455038 -0.017921086458564876 2.8448683277227893 -0.890572821650832
4.919841289520264 -1.4709270533970376 -1.8523942232131958 2.3782095152088623 -1.5986054579364222 3.3405730724334717 -0.05797570944237721 -0.722750176754936 0.5454488270373876 -0.017871839357104635 2.844922898508879 -0.8905634947510392
4.919878005981445 -1.470993587081768 -1.8523571491241455 2.378147764796875 -1.598630730305807 3.3406028747558594 -0.057944094823630006 -0.722776145111764 0.5454170763252516 -0.0178917763112762 2.844941897249689 -0.890414013304975
4.919914722442627 -1.4708989051035424 -1.852350115776062 2.3782052236744384 -1.5985949675189417 3.3406107425689697 -0.057932405309331664 -0.7227550995379122 0.5455000556754733 -0.017919567033415042 2.8448610186537944 -0.8906383568238435
4.919861316680908 -1.4709638071111222 -1.8523898124694824 2.3781933027454834 -1.5986054579364222 3.3406150341033936 -0.05796697408920801 -0.7227637874745899 0.5454222013958305 -0.01783957442597522 2.84493760720787 -0.8904859074390681
4.919886589050293 -1.4708998960307618 -1.852386236190796 2.3781933027454834 -1.598581616078512 3.3405489921569824 -0.05794565413929527 -0.722743179593474 0.5454718929997958 -0.017960396481007945 2.8449245387595785 -0.8905974380142604
4.9198527336120605 -1.4709063482335587 -1.8523287773132324 2.378180428142212 -1.5985601584063929 3.3405685424804688 -0.05797575556449527 -0.7227563401343584 0.5455082988831006 -0.017875877592994097 2.8449223326995448 -0.8906629497915427
4.919910430908203 -1.4709108260324975 -1.852350115776062 2.378147764796875 -1.5986054579364222 3.3405861854553223 -0.05792890313508066 -0.722750676929847 0.5454810545225913 -0.01795239940646998 2.8449023468393815 -0.890545068391503
4.919902801513672 -1.470911831860878 -1.8523818254470825 2.3781890112110595 -1.5985601584063929 3.3406107425689697 -0.05794997700100017 -0.722750165961469 0.5454647798317829 -0.017885504004250326 2.844930170882911 -0.8905775734380286
4.919858455657959 -1.4710087117603798 -1.8523367643356323 2.3781606394001464 -1.598597828541891 3.3406436443328857 -0.057971207678787356 -0.7227884331859464 0.5454240726736286 -0.01779122076091437 2.8449526980602995 -0.8904518285353027
4.919812202453613 -1.470931352382042 -1.852403163909912 2.3781933027454834 -1.5985692183123987 3.340618133544922 -0.058014387568304814 -0.7227471916794812 0.5454354631763026 -0.017749365596767406 2.8449672708160993 -0.8905401161952305
4.9198737144470215 -1.4709806603244324 -1.8523287773132324 2.3781890112110595 -1.5985859076129358 3.3406524658203125 -0.05796555907421136 -0.7227855302404734 0.5454551706883358 -0.01779608602599603 2.844916447519718 -0.8905400616826539
4.919898509979248 -1.470985324387886 -1.8523287773132324 2.3781563478657226 -1.598555866871969 3.340601682662964 -0.05794491652925586 -0.7227843915285761 0.5454478153437331 -0.017889556032503525 2.8449697791700985 -0.8905110556986728
4.919886589050293 -1.4709237304380913 -1.8523615598678589 2.3781606394001464 -1.598614517842428 3.340606212615967 -0.05794732242556469 -0.7227529064740709 0.5454651157140298 -0.017893620204291107 2.844903503773196 -0.8905255998590966
4.919898509979248 -1.4709849816611786 -1.8523730039596558 2.378147764796875 -1.598555866871969 3.3406269550323486 -0.05795241827536338 -0.7227728009943092 0.5454121819972669 -0.017852368014928077 2.844996207178966 -0.8904355318342707
4.919895172119141 -1.4709270533970376 -1.8524199724197388 2.378152056331299 -1.5986159483539026 3.3406028747558594 -0.05794310044326348 -0.7227393464102687 0.5454170217758261 -0.01790956282965195 2.8449445438136536 -0.8904293018688657
4.919849872589111 -1.4710055080107232 -1.8523818254470825 2.3781890112110595 -1.598597828541891 3.3405730724334717 -0.057965278277922874 -0.7227790404111631 0.5453998474687916 -0.017878703486244 2.844980515356259 -0.8904495113778375
4.9198527336120605 -1.470939965253212 -1.8523703813552856 2.3781563478657226 -1.598593537007467 3.3405818939208984 -0.05797108829661189 -0.7227543245441561 0.5454475577035109 -0.017869921957352822 2.844953469740445 -0.8905089383245486
4.919885635375977 -1.470960521405079 -1.8523375988006592 2.3781606394001464 -1.598581616078512 3.340601682662964 -0.057950587786043554 -0.7227725643964377 0.5454585956959449 -0.017883422049710693 2.8449395953612453 -0.8905270699905333
4.919895172119141 -1.4709075105241318 -1.852325439453125 2.3781682687946777 -1.598581616078512 3.3406107425689697 -0.05794862108726562 -0.7227582641163048 0.5455058661811045 -0.01788579679605992 2.844889762562396 -0.8906212094736682
4.919869899749756 -1.470976711516716 -1.852403163909912 2.3781768518635253 -1.598597828541891 3.3406269550323486 -0.05796500073421672 -0.722763792057119 0.5453997599269284 -0.017830505606543107 2.8449651441900676 -0.8904284983171554
4.919898509979248 -1.470894606118538 -1.8523774147033691 2.378230257625244 -1.598555866871969 3.3406643867492676 -0.05796461866239269 -0.72275121369483 0.5454866305299212 -0.017801978863245145 2.8448829425545537 -0.8906546926693087
4.919878005981445 -1.4709432658604165 -1.8523615598678589 2.3781933027454834 -1.598548714314596 3.340622663497925 -0.05796934402829135 -0.7227658383512346 0.5454590111087237 -0.01782784639551974 2.8449473300063315 -0.890577028494014
4.919882297515869 -1.4709892284921189 -1.8523615598678589 2.3781606394001464 -1.598626438771383 3.3405699729919434 -0.057935681745716325 -0.7227752698454262 0.5454203627909328 -0.017942887960507754 2.844944336453544 -0.890439257390822
4.9198899269104 -1.470935658817627 -1.8524155616760254 2.3781606394001464 -1.5986188093768519 3.3406107425689697 -0.05794670393122672 -0.7227443563301015 0.545415741109278 -0.017892178227396367 2.844938986914696 -0.8904331713525008
4.919894218444824 -1.4709281039289017 -1.8523942232131958 2.3781606394001464 -1.5985601584063929 3.3405566215515137 -0.05794565913288575 -0.7227479883940402 0.5454401774239899 -0.01794939830579592 2.8449807822756648 -0.8905132880378165
4.919858455657959 -1.4709108409336586 -1.8523730039596558 2.3781725603291015 -1.598548714314596 3.340606212615967 -0.05798377717539658 -0.7227473670752885 0.5454693521787355 -0.017823840699543812 2.8449561533246355 -0.890584427616874
4.919885635375977 -1.4708946359208603 -1.8523590564727783 2.3782173830219726 -1.5985515753375452 3.3405773639678955 -0.057957111981490894 -0.7227522047371369 0.5455006845571664 -0.017906009365436477 2.8449073945280596 -0.8906840965538374
4.919882297515869 -1.4709850263646622 -1.8523616790771484 2.3781606394001464 -1.598602596913473 3.3405895233154297 -0.05794525476908924 -0.7227746267771309 0.5454231947201358 -0.01790430276787475 2.844956486476721 -0.8904536346245379
4.919898509979248 -1.470963792209961 -1.8524404764175415 2.3781725603291015 -1.5985892454730433 3.3406238555908203 -0.0579486379022891 -0.7227515144260663 0.5453799908543326 -0.017871001453473267 2.8449832463968217 -0.8903894891641371
4.9198737144470215 -1.4709432137063523 -1.8523749113082886 2.3781649309345703 -1.598564926777975 3.340590715408325 -0.05796390196500516 -0.7227576752807818 0.5454439808259081 -0.01787403014812294 2.8449687200620164 -0.8905194596240323
4.9199018478393555 -1.4709680911949654 -1.8523774147033691 2.3781606394001464 -1.5985773245440882 3.3405773639678955 -0.05793651053503506 -0.7227664972558395 0.5454240491869256 -0.017937925888756857 2.8449741865713722 -0.8904673198035425
4.919833183288574 -1.470935658817627 -1.852403163909912 2.3781649309345703 -1.5985892454730433 3.3405940532684326 -0.05799036194110015 -0.722745235901772 0.5454271726593448 -0.017822220781178934 2.8449714975272813 -0.8904860091172365
4.919886589050293 -1.4709356513670464 -1.8523774147033691 2.3781682687946777 -1.5985844771014612 3.3405730724334717 -0.05794729616994766 -0.7227548356423938 0.5454480430387934 -0.017926502263586566 2.8449485276483335 -0.8905212262600621
4.9198455810546875 -1.4709356439164658 -1.8523457050323486 2.3781768518635253 -1.598593537007467 3.3405895233154297 -0.057976287347817027 -0.7227611698787486 0.5454729899129853 -0.017849818590174784 2.8449228392267925 -0.8905754116483092
4.919869422912598 -1.4709151324680825 -1.8523774147033691 2.3781682687946777 -1.598586384450094 3.3405773639678955 -0.05796165109547566 -0.7227465186236239 0.54546213522331 -0.017897388875554233 2.844937659971275 -0.890550326922531
4.919882297515869 -1.4709518116763611 -1.8523331880569458 2.3781606394001464 -1.598553482686178 3.3406028747558594 -0.05796002506797057 -0.7227711046384065 0.5454686398037714 -0.01786451319256817 2.844954935652758 -0.8905601925185499
4.9198899269104 -1.470898949807026 -1.8523287773132324 2.378180428142212 -1.598597828541891 3.340547800064087 -0.05793680971185746 -0.722754578401405 0.5455131402021876 -0.01797559412818629 2.844882419805287 -0.8906494477666446
4.919914722442627 -1.4709638145617028 -1.8523075580596924 2.3781890112110595 -1.598593537007467 3.340639114379883 -0.057931730574190723 -0.722786611558756 0.5454831433256484 -0.01787780973074156 2.844879174645758 -0.8905816231246865
4.919886589050293 -1.4709518414786835 -1.852350115776062 2.378163977260254 -1.5986054579364222 3.340618133544922 -0.05794895320108072 -0.7227665221487024 0.5454547414217216 -0.01787212966052512 2.8449162822683025 -0.8905101880241041
4.919914722442627 -1.4709968876889725 -1.8523792028427124 2.378147764796875 -1.5986054579364222 3.3406028747558594 -0.05792415571056868 -0.722774858930955 0.545398720280603 -0.017931799197690782 2.8449686799007092 -0.8903862053520324
4.919914722442627 -1.4709767785719414 -1.8523818254470825 2.378163977260254 -1.5985844771014612 3.3405940532684326 -0.057928371021508024 -0.7227697430658335 0.5454146509920658 -0.01793540342339279 2.8449670540719887 -0.8904445217031437
4.919881343841553 -1.4709562447718163 -1.8523163795471191 2.378171845073364 -1.5985444227801722 3.3406028747558594 -0.057961279495625045 -0.7227784357254289 0.5454806730122881 -0.01785945171490322 2.844947967062019 -0.8905969489928962
4.9198784828186035 -1.4709550154260178 -1.8523942232131958 2.3782052236744384 -1.5985844771014612 3.3406314849853516 -0.05796313034862922 -0.7227629873144287 0.5454273223264342 -0.017831208270076063 2.844936185293595 -0.8905124168810747
4.919861316680908 -1.470984974210598 -1.8524225950241089 2.3781563478657226 -1.598609749470846 3.3406107425689697 -0.05796622164777901 -0.722758266694363 0.5453755192719404 -0.017845930668765206 2.8449914195134576 -0.890362214162131
4.919898509979248 -1.4708783116987725 -1.852320909500122 2.3781725603291015 -1.5986188093768519 3.3405773639678955 -0.05793304216124169 -0.7227482952969844 0.5455305150362093 -0.017955894073244202 2.844843102684954 -0.8906583399837723
4.91983699798584 -1.4709313747337838 -1.8523375988006592 2.378123922938965 -1.598581616078512 3.340601682662964 -0.05798888095700281 -0.7227543294245258 0.5454717127893249 -0.017814727295278984 2.844956767052382 -0.8905264327765795
4.919890880584717 -1.4709108483842392 -1.8523907661437988 2.3781606394001464 -1.5986068884478968 3.340618133544922 -0.05795075547985962 -0.7227419138408782 0.5454518151529352 -0.017878849900160768 2.8449158581729996 -0.8905045434719554
4.919833183288574 -1.4709681507996102 -1.8523774147033691 2.378147764796875 -1.5985844771014612 3.340580701828003 -0.057985512992995134 -0.7227606230793349 0.5454212268920335 -0.017838744716533406 2.844993367191977 -0.8904590289625274
4.9198737144470215 -1.4709637996605416 -1.8523120880126953 2.3781282144733886 -1.598609749470846 3.340639114379883 -0.05795953065951145 -0.7227743949643651 0.5454674939845483 -0.017826263015146036 2.844916901923276 -0.8904931373101947
4.919886589050293 -1.4709108111313363 -1.8523457050323486 2.378152056331299 -1.598614517842428 3.340618133544922 -0.057950055301820444 -0.722751062477333 0.5454840631264095 -0.017877302685198194 2.844888042319277 -0.8905503311630144
4.919865608215332 -1.4709893029979249 -1.8523457050323486 2.3781606394001464 -1.5985682646380823 3.34059739112854 -0.05796550128755314 -0.7227800453335563 0.5454329069312446 -0.01785406256845141 2.8449796095526545 -0.8904894871517619
4.919885635375977 -1.4709604618004342 -1.8523457050323486 2.3781563478657226 -1.598555866871969 3.3406238555908203 -0.05796132172875372 -0.7227709826179174 0.5454516400282897 -0.017839885229043905 2.844962838293299 -0.8905198751466561
4.9198899269104 -1.4709518936327477 -1.8523571491241455 2.3781933027454834 -1.5986068884478968 3.340606212615967 -0.05794344998312592 -0.7227688758760584 0.5454554157939557 -0.017894578897147236 2.844903462517125 -0.8905410987748218
4.9198737144470215 -1.4709345263293763 -1.852386236190796 2.3781847196766357 -1.5986560026751917 3.3406193256378174 -0.05794965497845458 -0.7227524099217497 0.5454422307665532 -0.01787483953608752 2.8448770840857405 -0.8904881067790569
4.9198784828186035 -1.470939965253212 -1.8523863554000854 2.3781847196766357 -1.5985735098468226 3.3406567573547363 -0.057971860155599415 -0.7227573003375012 0.5454392602252438 -0.01779063001425418 2.8449374064096578 -0.8905164545212475
4.91982889175415 -1.470935658817627 -1.8523331880569458 2.3781847196766357 -1.5986188093768519 3.3406314849853516 -0.05799006906236659 -0.7227640838015834 0.5454821102796594 -0.017778242860551845 2.844883829528762 -0.8905842501245423
4.919869422912598 -1.4709399801543732 -1.852345585823059 2.3781682687946777 -1.598593537007467 3.3405940532684326 -0.057959844898292756 -0.7227630085835204 0.5454682589600339 -0.01787706074211937 2.844923454986247 -0.8905525578852409
4.919882297515869 -1.4709681284478684 -1.8523907661437988 2.3781768518635253 -1.598586384450094 3.3406269550323486 -0.05795863591029566 -0.7227647324034072 0.5454153837431861 -0.01784344999658351 2.8449582146775643 -0.8904603550732569
4.9198899269104 -1.4709604916027565 -1.8523951768875122 2.3781606394001464 -1.598630730305807 3.3406553268432617 -0.05794991180408058 -0.7227582987744275 0.5454122719617295 -0.01783400322056815 2.8449212484223976 -0.890411960027751
4.919898509979248 -1.4709387731603165 -1.8523703813552856 2.3781606394001464 -1.598635498677389 3.3405940532684326 -0.05793088728979784 -0.7227561323937258 0.545447834458239 -0.017936812197633167 2.8449010803296524 -0.8904823483843418
4.919921875 -1.4709432658604165 -1.8523615598678589 2.3781606394001464 -1.5985725561725062 3.3406598567962646 -0.05794044305959811 -0.7227637047219513 0.5454509605580696 -0.017847774628037643 2.8449276487925195 -0.890504186851054
4.919910430908203 -1.4709356662682076 -1.8523615598678589 2.3781649309345703 -1.598602596913473 3.3405983448028564 -0.0579302300733268 -0.7227593662360041 0.5454581780959313 -0.017933010684592927 2.8449136829923276 -0.8905185592155634
4.919841289520264 -1.470922553246357 -1.8523749113082886 2.3781933027454834 -1.598609749470846 3.3405818939208984 -0.057976254159331345 -0.722750968567144 0.5454630372371 -0.017861694851859372 2.8449124736988187 -0.8905696011745623
4.919898509979248 -1.470935658817627 -1.8523730039596558 2.3781606394001464 -1.5985601584063929 3.340606212615967 -0.05795069823357025 -0.7227566013616684 0.5454494957003658 -0.01788522599378539 2.844959180178892 -0.89052095355647
4.919816017150879 -1.4709432435086747 -1.8523908853530884 2.3782173830219726 -1.5986188093768519 3.3406107425689697 -0.057996805593349215 -0.7227564413101462 0.5454401779062096 -0.017788106640454535 2.8449126058990677 -0.8905472110475562
4.919898509979248 -1.4709194165519257 -1.8523590564727783 2.3781933027454834 -1.5986054579364222 3.340580940246582 -0.05793510412018711 -0.7227570692412884 0.5454773425207813 -0.017942888576464228 2.84488953512535 -0.8905862478402751
4.919841289520264 -1.4709485930255433 -1.8523898124694824 2.378163977260254 -1.5985892454730433 3.340606212615967 -0.057985280382752656 -0.722753531902698 0.5454277292645783 -0.017816428001167346 2.844966773926321 -0.8904812624959372
4.919881343841553 -1.4709399503520508 -1.8523703813552856 2.3781725603291015 -1.598555866871969 3.3405895233154297 -0.057960013896531326 -0.7227593147026933 0.5454514182399358 -0.017882712066573155 2.8449648622785513 -0.8905437799017332
4.919894218444824 -1.4709432882121583 -1.8523590564727783 2.3781682687946777 -1.5986383597003382 3.3406193256378174 -0.057937214423065334 -0.7227614700554674 0.5454539226377899 -0.01789627127917071 2.8448848196271426 -0.8904960738954524
4.919841289520264 -1.4709280219725152 -1.8523590564727783 2.3781563478657226 -1.598551098500387 3.3405776023864746 -0.05798842584794633 -0.7227532240241208 0.5454655919500072 -0.01784105330146326 2.8449775911597373 -0.8905660509055844
4.919882297515869 -1.470980705027916 -1.8523615598678589 2.378163977260254 -1.598555866871969 3.3406028747558594 -0.05795869105219717 -0.7227750078285107 0.5454276841421377 -0.017864168565699997 2.844986493463683 -0.8904864776186445
4.919910430908203 -1.4709151473692437 -1.8523375988006592 2.3781725603291015 -1.5986068884478968 3.3405656814575195 -0.05792291829925565 -0.7227583219400789 0.5454929203071924 -0.017982679671402005 2.844885770232304 -0.8905927707841814
4.9198455810546875 -1.4709399727037926 -1.852386236190796 2.3781606394001464 -1.5985906759845179 3.340606212615967 -0.057982403396243366 -0.7227510668350534 0.5454357427803921 -0.01782345789078913 2.8449589792644954 -0.8904915358764331
4.919934272766113 -1.4709680837443848 -1.8523545265197754 2.3781890112110595 -1.598609749470846 3.340618133544922 -0.05791187336298568 -0.7227773253251383 0.5454448814244232 -0.017941532132179167 2.8448977913569418 -0.8905043936358568
4.919861316680908 -1.470935658817627 -1.8523571491241455 2.3781933027454834 -1.598581616078512 3.3405983448028564 -0.05796950491547019 -0.7227620247407999 0.5454675560659852 -0.017854042963217652 2.844923300445035 -0.8905836856856307
4.919861316680908 -1.4709356439164658 -1.8523457050323486 2.3781563478657226 -1.5985892454730433 3.3405895233154297 -0.05796642300256797 -0.7227593984266787 0.5454691025768569 -0.01787004165972294 2.8449348806751718 -0.8905469755174036
4.9198899269104 -1.4709767636707802 -1.8523659706115723 2.3781768518635253 -1.598626438771383 3.3405983448028564 -0.05793649940186735 -0.7227727592087885 0.545428005320785 -0.01791367420691462 2.8449205016413868 -0.8904647698397901
4.919833183288574 -1.470938802962639 -1.8523898124694824 2.3781847196766357 -1.598564926777975 3.340618133544922 -0.057999180909879176 -0.7227532098167498 0.5454388142286197 -0.01777730061794426 2.8449669370585413 -0.8905346192553529
4.919902801513672 -1.470951871281006 -1.8523703813552856 2.3781966406055908 -1.5985963980304163 3.340639114379883 -0.05794360382927452 -0.7227675769260136 0.5454453499684996 -0.01786093665740927 2.8449068446954997 -0.8905243851611916
4.919906139373779 -1.4709723603776474 -1.8523898124694824 2.3781120020100097 -1.598551098500387 3.3406641483306885 -0.05795806611281294 -0.722760397403475 0.5454002920975323 -0.017807646206870285 2.8450137507841284 -0.8903754102545982
4.9198737144470215 -1.4709724497846146 -1.8523898124694824 2.3781768518635253 -1.5985725561725062 3.3405773639678955 -0.057957806214748823 -0.7227657977122869 0.5454149154496272 -0.017895497304642686 2.8449857939275924 -0.8904747777355223
4.919951438903809 -1.4709399727037926 -1.8523942232131958 2.3781933027454834 -1.5985363165484827 3.340568780899048 -0.05791035308769452 -0.7227607970829447 0.5454385054870884 -0.018002526377344903 2.8449696208155664 -0.8905403377004905
4.919951438903809 -1.470940002506115 -1.8523749113082886 2.3781606394001464 -1.598602596913473 3.3406269550323486 -0.05790671077499163 -0.7227598426319247 0.5454433776298825 -0.017950045740599052 2.8449097333546165 -0.8904752054285293
4.919894218444824 -1.470947579746582 -1.8523703813552856 2.3781682687946777 -1.598555866871969 3.34055233001709 -0.057942908877723485 -0.7227617566401008 0.5454463855146882 -0.017953739712635544 2.8449778964063706 -0.8905325741884326
4.9198455810546875 -1.4709637996605416 -1.8523545265197754 2.3782173830219726 -1.5985725561725062 3.3406028747558594 -0.05798095488607952 -0.7227753722022907 0.5454547480538899 -0.01782067656629823 2.844934669948921 -0.8905889055893716
4.919854164123535 -1.4709432435086747 -1.8524314165115356 2.3781768518635253 -1.598609749470846 3.340618133544922 -0.05797587896913358 -0.7227437416719351 0.5454016346004675 -0.017826260803475297 2.84495843072336 -0.8904339974689847
4.919869422912598 -1.4709969398430367 -1.8523412942886353 2.378152056331299 -1.598621670399801 3.340580940246582 -0.0579468441497863 -0.7227812171816033 0.5454284462079041 -0.01790705342650025 2.8449464022501094 -0.8904474942318329
4.919910430908203 -1.4709486675313492 -1.8523908853530884 2.378147764796875 -1.5985844771014612 3.340618133544922 -0.0579392149441908 -0.7227553654436918 0.5454234710633811 -0.017895352012611037 2.84496051113798 -0.8904443602188915
4.919890880584717 -1.470919431453087 -1.8523331880569458 2.3781890112110595 -1.598553482686178 3.3406641483306885 -0.05796759195062831 -0.7227646487422791 0.5454948529536678 -0.017790527277228144 2.84490028844493 -0.8906280435540597
4.919881343841553 -1.4709550005248566 -1.852345585823059 2.3782095152088623 -1.598602596913473 3.340607166290283 -0.05794956406991002 -0.7227746002956311 0.545465234004283 -0.017879433931800016 2.8448937121441125 -0.8905781034936343
4.919849872589111 -1.470959448521473 -1.8523659706115723 2.3781768518635253 -1.5986054579364222 3.34055233001709 -0.057962404734625404 -0.7227642914800423 0.5454419281184656 -0.017913182069512586 2.8449483789589114 -0.8905163477209386
4.919881343841553 -1.470894568865635 -1.8523703813552856 2.3781563478657226 -1.5985892454730433 3.3406107425689697 -0.05796046647647017 -0.7227402447811065 0.5454783668549384 -0.01786869321167002 2.8449143692111982 -0.89056082882932
4.919878005981445 -1.470919446354248 -1.8523411750793457 2.3781444269367675 -1.5985444227801722 3.3406269550323486 -0.0579731811767248 -0.7227557129358118 0.5454814506254639 -0.017820474460796022 2.8449524604106164 -0.8905720410647817
4.919820308685303 -1.4709604916027565 -1.8523287773132324 2.3781768518635253 -1.5985601584063929 3.340601921081543 -0.05800183145369557 -0.7227736846399407 0.5454689621806865 -0.017780865389890717 2.844958495217101 -0.8905852004075967
4.9198899269104 -1.4708989423564454 -1.8523457050323486 2.378152056331299 -1.5985444227801722 3.340559959411621 -0.057952902078691734 -0.7227482534692524 0.5454957614583155 -0.017933290375352073 2.8449509575818817 -0.8906147042895302
4.919898509979248 -1.4709031891873856 -1.852345585823059 2.3781649309345703 -1.598630730305807 3.3406312465667725 -0.05794058586268634 -0.7227505319375632 0.5454911725609402 -0.017883257331255495 2.844855830976382 -0.890564416604459
4.9198737144470215 -1.4709270310452958 -1.852324366569519 2.3782095152088623 -1.598635498677389 3.340606212615967 -0.05794845102224776 -0.7227683477183936 0.5454999542085629 -0.01788618038988279 2.8448385941038263 -0.890628263307551
4.919923305511475 -1.4709280517748375 -1.8524315357208252 2.378176136607788 -1.598602596913473 3.340639114379883 -0.05793282682250957 -0.7227426470585625 0.5454115175340895 -0.01789174827792346 2.8449322994083475 -0.8904392359787251
4.919882297515869 -1.4709031891873856 -1.8523502349853516 2.3781649309345703 -1.5985186735736292 3.3406105041503906 -0.05797379631564329 -0.7227513032929953 0.5454910139301307 -0.017838643384973707 2.8449591898021063 -0.8906255306092425
4.919898509979248 -1.4709356513670464 -1.8524155616760254 2.3781563478657226 -1.5985892454730433 3.3406565189361572 -0.05795633878793377 -0.7227456157626245 0.5454142697702697 -0.017825695891776416 2.844952393841562 -0.8904324533905701
4.9198455810546875 -1.4710174289396782 -1.8523659706115723 2.3782266813465576 -1.5985892454730433 3.3406150341033936 -0.05797591677894463 -0.7227927203505448 0.5454098433662932 -0.017809382610613888 2.844952805938234 -0.8905026492905646
4.9198899269104 -1.4709108483842392 -1.8523286581039429 2.3781933027454834 -1.5985892454730433 3.3406434059143066 -0.05795639280070873 -0.7227619773644005 0.5455048258472088 -0.01783535876816122 2.8448656513073423 -0.8906365858044685
4.9198899269104 -1.4709063482335587 -1.8523818254470825 2.3781353670307617 -1.5985735098468226 3.34055233001709 -0.05794654720976099 -0.722739078050536 0.5454595610957714 -0.017956132292963427 2.844966434140503 -0.8905196892243291
4.919886589050293 -1.470923737888672 -1.8523286581039429 2.378105803126953 -1.598593537007467 3.3405818939208984 -0.05794702403652198 -0.7227535845456323 0.5454805545943029 -0.01791905776359491 2.844939836346535 -0.8905120037933444
4.9198737144470215 -1.470976711516716 -1.852342128753662 2.3782264429279785 -1.5985773245440882 3.3405730724334717 -0.05795182275411241 -0.7227853340402844 0.5454576817017301 -0.0179053305158822 2.8449254208069052 -0.8905981904548426
4.919878005981445 -1.470938802962639 -1.8523287773132324 2.3781472879597167 -1.598609749470846 3.3406028747558594 -0.05795149425666578 -0.7227639054225682 0.5454770456632301 -0.017884345436561318 2.8449076494331287 -0.8905363267249935
4.919849872589111 -1.4709313747337838 -1.8523818254470825 2.3782054620930175 -1.5985682646380823 3.3405818939208984 -0.05797881143123111 -0.722755754911868 0.5454550559410257 -0.01785471821216848 2.844946298968776 -0.8905853536389434
4.919861316680908 -1.4709270533970376 -1.8523774147033691 2.3782221513935546 -1.598597828541891 3.340618133544922 -0.057970665695912034 -0.7227578315936026 0.5454628437766198 -0.017833198250086828 2.844894775893141 -0.8905942632511015
4.919914722442627 -1.4709807497313996 -1.8523412942886353 2.3782176214405517 -1.5985859076129358 3.3405776023864746 -0.057921022502108545 -0.7227879637809966 0.5454534426200582 -0.017960893411764437 2.844914103657594 -0.8905683734312867
4.919869899749756 -1.470890150671341 -1.8523774147033691 2.3781770902821044 -1.598555866871969 3.3406050205230713 -0.05797530438217584 -0.7227400009112221 0.5454811445248873 -0.017845507146382104 2.8449347475813225 -0.8906065357917556
4.919878005981445 -1.470931352382042 -1.8523986339569092 2.3782054620930175 -1.5985692183123987 3.3406260013580322 -0.05796783070570083 -0.7227538469315018 0.5454410222232945 -0.01783188636523964 2.844937963446307 -0.8905479609535734
4.9199018478393555 -1.4709925961545487 -1.852403163909912 2.3781725603291015 -1.5985773245440882 3.3406553268432617 -0.0579510757641866 -0.722771620491925 0.5453875359179887 -0.017825726221562848 2.844979179450533 -0.8904003939441678
4.9198899269104 -1.4709270533970376 -1.8523986339569092 2.3781847196766357 -1.5985692183123987 3.3406193256378174 -0.05795876222593033 -0.7227500914597537 0.5454401715436401 -0.017858256175291815 2.8449465959437665 -0.890524762473471
4.9199018478393555 -1.470928044324257 -1.8523703813552856 2.3781563478657226 -1.598597828541891 3.3405940532684326 -0.05793791065364669 -0.7227529440622369 0.5454553791877881 -0.01792464826485161 2.8449268710086493 -0.8905104992863011
4.919878005981445 -1.4709724125317116 -1.8523774147033691 2.3782099920460205 -1.598593537007467 3.3406269550323486 -0.0579582473882834 -0.7227735422711727 0.5454287799219497 -0.01784113499869961 2.844927450442467 -0.8905141846861819
4.919882297515869 -1.4709063482335587 -1.8523749113082886 2.3781892496296386 -1.5985353628741663 3.3406269550323486 -0.05797365603700001 -0.7227495802771386 0.5454739915913314 -0.01782231653959566 2.8449439190715715 -0.8906086837703393
4.919849872589111 -1.470951886182167 -1.8524022102355957 2.3781768518635253 -1.5985601584063929 3.340613842010498 -0.05798721358173152 -0.722754880271651 0.5454190538434196 -0.017804236433277547 2.8449881916553443 -0.8904898854130133
4.919849872589111 -1.4709595006755372 -1.8523411750793457 2.3781935411640625 -1.598630730305807 3.340593099594116 -0.057963026704895795 -0.7227723190059562 0.5454620621208066 -0.01786740775346476 2.8448922850579983 -0.890550436971387
4.919878005981445 -1.4709724125317116 -1.8523907661437988 2.3781935411640625 -1.598597828541891 3.34059739112854 -0.05795255454156527 -0.7227676292934628 0.5454162552105022 -0.017884699815277003 2.8449495391798973 -0.8904776614590435
4.9198737144470215 -1.4709724646857758 -1.8523703813552856 2.3781847196766357 -1.5985644499408167 3.340536117553711 -0.057950296141961934 -0.7227712670964803 0.5454325587770382 -0.017951112986215833 2.8449854678677577 -0.890523980714956
4.91982889175415 -1.4709807348302384 -1.852350115776062 2.3781637388416748 -1.598581616078512 3.340606212615967 -0.05799154410888364 -0.7227739652612072 0.545435543050007 -0.017795537282627304 2.8449716533797487 -0.8904976301691531
4.919882297515869 -1.470951886182167 -1.8523331880569458 2.3781725603291015 -1.598614517842428 3.340606212615967 -0.057946558000674483 -0.7227711272490025 0.5454693175989938 -0.017887639433473865 2.844897130233795 -0.8905427899363064
4.919858455657959 -1.4709108260324975 -1.852386236190796 2.3782099920460205 -1.5985892454730433 3.34055233001709 -0.05796366631096578 -0.7227475592642633 0.54546725722644 -0.017919011623319225 2.8449213304392345 -0.8906060617404331
4.919878005981445 -1.470894606118538 -1.8523703813552856 2.3782009321400146 -1.5985363165484827 3.340601921081543 -0.057971938764547884 -0.7227475007986817 0.545488578659834 -0.017852819533170562 2.844933012972142 -0.8906515846292222
4.919882297515869 -1.4709270533970376 -1.8523545265197754 2.3782054620930175 -1.5985892454730433 3.340601921081543 -0.057953510407485545 -0.7227622929852776 0.5454775974270061 -0.017882627537490692 2.8448963061736996 -0.8906061857847747
4.919861316680908 -1.470939965253212 -1.8523730039596558 2.3781637388416748 -1.598597828541891 3.340613842010498 -0.05797016122590983 -0.7227554637275351 0.5454459567147402 -0.01783857358596338 2.8449370885329017 -0.8905050288689161
4.91983699798584 -1.4709638220122834 -1.852352499961853 2.3781518179127197 -1.5985801855670374 3.340606212615967 -0.057987706114059734 -0.7227662407826676 0.5454432136166013 -0.01780666735302523 2.8449690406014474 -0.890500254616713
4.919910430908203 -1.470894606118538 -1.8523774147033691 2.3781801897236328 -1.598555866871969 3.3406312465667725 -0.05795077414706225 -0.7227446732959383 0.5454778690764116 -0.01786566488261697 2.84491872435794 -0.8905914788314586
4.919882297515869 -1.4709270533970376 -1.8523615598678589 2.3781563478657226 -1.598609749470846 3.340585231781006 -0.05794722536660549 -0.7227531395892863 0.5454627112703128 -0.0179151073123328 2.8449182854271355 -0.8905229246781333
4.919869899749756 -1.4709399503520508 -1.8523730039596558 2.3781518179127197 -1.5985859076129358 3.3406269550323486 -0.05796955718602711 -0.7227548087240565 0.545443546893551 -0.017826565207993306 2.8449487290504734 -0.8904910759222133
4.919861316680908 -1.4709399801543732 -1.8523242473602295 2.3781892496296386 -1.5985892454730433 3.340606212615967 -0.05796743385468851 -0.7227707767604153 0.5454882251285256 -0.017847007501573108 2.8448999306363065 -0.8906109717337031
4.919923782348633 -1.4709724125317116 -1.8523411750793457 2.378213329906128 -1.5985444227801722 3.3406105041503906 -0.057931083566255356 -0.7227864822871891 0.5454585284885188 -0.017908211121329867 2.8449349619889497 -0.8905878525109618
4.919919013977051 -1.4709387955120583 -1.8523907661437988 2.3781725603291015 -1.5985601584063929 3.3405656814575195 -0.0579282385480942 -0.7227558032155479 0.5454374094244048 -0.01797165104681922 2.844969289816377 -0.8905129054766932
4.919898509979248 -1.4708900538137932 -1.852345585823059 2.3781725603291015 -1.598614517842428 3.340585231781006 -0.05793595054662651 -0.7227467871942524 0.5455035581859325 -0.017941806877592358 2.8448673090259478 -0.8906101542687379
4.919869422912598 -1.4709724125317116 -1.8522917032241821 2.378142996425293 -1.5985892454730433 3.340568780899048 -0.057951312897442916 -0.722783851298145 0.5454823967129173 -0.017911426953216993 2.844935308308738 -0.8905546452194784
4.919861316680908 -1.470993587081768 -1.8524200916290283 2.3781770902821044 -1.598555866871969 3.3406224250793457 -0.05797940225287551 -0.7227663869405501 0.5453764316773007 -0.01780480709946383 2.845023478280269 -0.8904084831271233
4.9199018478393555 -1.4709151324680825 -1.8523730039596558 2.3781606394001464 -1.5985682646380823 3.340618133544922 -0.057950338423310245 -0.7227493903288777 0.5454632142085845 -0.01787720279079174 2.8449360856117605 -0.8905411617883137
4.919869899749756 -1.470951886182167 -1.8523614406585693 2.3781768518635253 -1.598581616078512 3.340613842010498 -0.05796579997284344 -0.7227652196445373 0.5454493627673955 -0.017843501310397848 2.844940197042176 -0.89052918676916
4.919869422912598 -1.470963792209961 -1.8523774147033691 2.3781801897236328 -1.598586384450094 3.3405983448028564 -0.05796184659887603 -0.7227657555565221 0.5454299983337533 -0.01786638062655314 2.8449554423984753 -0.8904968419277581
4.919894218444824 -1.4709595081261178 -1.8523242473602295 2.3781561094471435 -1.598609749470846 3.3405730724334717 -0.0579318834960233 -0.7227741698766339 0.5454686805241298 -0.017949489079704863 2.8449152502113413 -0.8905291703125865
4.919849872589111 -1.470951886182167 -1.8523545265197754 2.3781472879597167 -1.5985725561725062 3.340606212615967 -0.05798124042331784 -0.7227618335634476 0.5454492845521721 -0.017821700388683574 2.844968548984586 -0.8905090005473094
4.9198899269104 -1.4709194165519257 -1.8524247407913208 2.378089590663574 -1.5985644499408167 3.3406105041503906 -0.05796250113523494 -0.7227281418700942 0.5454075955833673 -0.017867329982328144 2.8450227082731843 -0.8903761443397669
4.919894218444824 -1.4709356662682076 -1.852411150932312 2.3781472879597167 -1.5986011664019983 3.340606212615967 -0.057946823487028516 -0.7227442699243067 0.545417038446527 -0.017896693035027972 2.8449588270328547 -0.8904306036901402
4.9198737144470215 -1.4709063854864617 -1.852350115776062 2.3781966406055908 -1.598593537007467 3.340593099594116 -0.05795855110102097 -0.7227540504589921 0.5454937439326895 -0.017885506906464337 2.8448870437838094 -0.8906291534028631
4.919841289520264 -1.4709356662682076 -1.8523818254470825 2.3781892496296386 -1.5985963980304163 3.340601921081543 -0.05798270893034629 -0.7227540395832486 0.5454476312105216 -0.017826552729250142 2.844933430277332 -0.890540414691182
4.919898509979248 -1.4709562075189133 -1.8523457050323486 2.3781801897236328 -1.598597828541891 3.340589761734009 -0.0579354850367235 -0.7227719155168636 0.5454592297811761 -0.017926144829152953 2.844916241222914 -0.89053943118769
4.919865608215332 -1.4709561851671715 -1.8523943424224854 2.3781680303760986 -1.598551098500387 3.3405601978302 -0.057966808004935186 -0.7227576200556609 0.5454221165551764 -0.01789887995411833 2.8450076796892745 -0.8904951709283486
4.91982889175415 -1.470923737888672 -1.8523730039596558 2.3782054620930175 -1.5985892454730433 3.3406105041503906 -0.057994996431796425 -0.7227536899178296 0.5454656724512784 -0.017794132990063386 2.844917523769537 -0.8905947125928861
4.919910430908203 -1.4709475648454209 -1.8523774147033691 2.3781725603291015 -1.5985892454730433 3.340606212615967 -0.05793452557301477 -0.7227613149581217 0.5454394915451299 -0.017915090890976797 2.844935181911151 -0.8904971402128905
4.919872760772705 -1.470947579746582 -1.8523730039596558 2.3781563478657226 -1.598593537007467 3.3406269550323486 -0.057965074815650615 -0.7227581063918178 0.5454389376453495 -0.017833948589326 2.844943717821679 -0.8904822717217206
4.919878005981445 -1.4709638071111222 -1.8523730039596558 2.3782176214405517 -1.5985601584063929 3.3406312465667725 -0.057966862612465406 -0.7227735360739652 0.5454402729298371 -0.017820233324048303 2.844940806628163 -0.8905589741911488
4.919878005981445 -1.4709550228765984 -1.8523163795471191 2.3781606394001464 -1.598555866871969 3.3406105041503906 -0.05796299450911838 -0.7227760521358915 0.5454788337665782 -0.01784898405857813 2.8449438174922363 -0.8905765184073096
4.919865131378174 -1.4709151101163407 -1.852350115776062 2.3781563478657226 -1.5986188093768519 3.340618133544922 -0.057964384823156224 -0.7227507651310858 0.5454784689098876 -0.01784858302511152 2.8448928867802503 -0.8905463687487192
4.919878005981445 -1.4709074807218094 -1.8523898124694824 2.3782011705585937 -1.5985725561725062 3.34063458442688 -0.057970214318891704 -0.7227468667739552 0.5454631187012718 -0.017821977008789593 2.844915515337852 -0.8905826128277361
4.919890880584717 -1.4709032040885468 -1.8523703813552856 2.3781680303760986 -1.598621670399801 3.340585231781006 -0.05794025087043293 -0.7227442843721712 0.5454746050971847 -0.017933211931386455 2.8448898226441153 -0.890550760823391
4.919906139373779 -1.470935658817627 -1.8523286581039429 2.3781606394001464 -1.5985725561725062 3.340618133544922 -0.057942465194551804 -0.7227674658294194 0.5454823761809153 -0.01788586664577926 2.8449166766135523 -0.8905700047796021
4.919894218444824 -1.4709604916027565 -1.8523615598678589 2.3781606394001464 -1.598609749470846 3.340618133544922 -0.057942494821503626 -0.7227667355429994 0.5454393170730751 -0.017884380185389143 2.844925339274044 -0.8904748855559147
4.919942855834961 -1.4709151622704049 -1.8523590564727783 2.3781561094471435 -1.598614517842428 3.3405861854553223 -0.057903332669713314 -0.722752852451745 0.5454726810472235 -0.01800232859376629 2.844889644593164 -0.8905271828416848
4.919857025146484 -1.4709108483842392 -1.8523119688034058 2.3781813818165283 -1.5985725561725062 3.3405940532684326 -0.057973665171825506 -0.7227623120010589 0.5455170052983164 -0.01785161395013821 2.8448967152649867 -0.8906682133591058
4.919857025146484 -1.470919431453087 -1.8523075580596924 2.3782099920460205 -1.598597828541891 3.340589761734009 -0.0579654837736292 -0.7227695962575454 0.5455194543856436 -0.01786937689641015 2.844862132573062 -0.8906884497212008
4.919898509979248 -1.4709681135467072 -1.852386236190796 2.3781606394001464 -1.598597828541891 3.340585470199585 -0.057936334315048896 -0.7227637326269337 0.5454166195026262 -0.017930742497257842 2.844961889011016 -0.890443510674551
4.919854164123535 -1.470951886182167 -1.8523818254470825 2.3781637388416748 -1.5985892454730433 3.3406105041503906 -0.05797617443373359 -0.7227573846006449 0.5454313057689715 -0.017828728966719276 2.8449596215244473 -0.8904838408523589
4.919894218444824 -1.4709270533970376 -1.8523075580596924 2.378213329906128 -1.598602596913473 3.340618133544922 -0.057942466909573956 -0.7227751323719036 0.5455138428700244 -0.017883827647398088 2.844844392890869 -0.8906671388751266
4.919857025146484 -1.4709063556841393 -1.8523287773132324 2.3781651693531494 -1.598581616078512 3.340606212615967 -0.05797563596050163 -0.7227543646929662 0.5455036761216729 -0.017837961904880215 2.8449040381583077 -0.8906225713994511
4.919910430908203 -1.4709519159844895 -1.8523730039596558 2.3781606394001464 -1.598586384450094 3.340601921081543 -0.05793408788308092 -0.7227623227264399 0.5454376787838762 -0.017919796786803402 2.8449458579978897 -0.8904835495857293
4.919878005981445 -1.4709648501924057 -1.8523615598678589 2.378213329906128 -1.5985644499408167 3.3406224250793457 -0.057963599800520835 -0.7227758413566093 0.5454475250052728 -0.017834976708086328 2.844935631974435 -0.8905666179542111
4.919894218444824 -1.470935658817627 -1.8523571491241455 2.3781770902821044 -1.598593537007467 3.3405327796936035 -0.05793050975268998 -0.7227606144266331 0.5454660608509775 -0.017999440918410662 2.84493089834942 -0.8905619476196521
4.919878005981445 -1.4709313449314614 -1.8523287773132324 2.3781770902821044 -1.598581616078512 3.340580940246582 -0.05795330363139377 -0.7227658272049953 0.5454893749838243 -0.017903232759824316 2.8449128679876745 -0.8906059030759195
4.91982889175415 -1.4709476020983239 -1.8523545265197754 2.3781518179127197 -1.5985892454730433 3.340601921081543 -0.05799198281049604 -0.72275919967303 0.545452865094311 -0.01780574386676324 2.8449559984377895 -0.8905169314520845
4.919882297515869 -1.470919431453087 -1.8523545265197754 2.3781935411640625 -1.598564926777975 3.340568780899048 -0.057953351509826986 -0.7227582192830444 0.5454821573527521 -0.017918840733569922 2.8449267417983948 -0.8906199743107152
4.919885635375977 -1.4709550154260178 -1.8523287773132324 2.3781770902821044 -1.598635498677389 3.340585470199585 -0.057934726177362235 -0.7227732921405837 0.5454714649447634 -0.017931541188341456 2.844880609504309 -0.8905428263747581
4.919865131378174 -1.4709561926177521 -1.8523411750793457 2.3781935411640625 -1.5985949675189417 3.340630292892456 -0.05796767808111923 -0.7227734424203998 0.5454641282318622 -0.017819933446931103 2.8449063857524033 -0.8905636299333455
4.91983699798584 -1.4709270533970376 -1.8523590564727783 2.3781890112110595 -1.5986188093768519 3.340627908706665 -0.057985356407431764 -0.7227558320249643 0.5454694714201407 -0.017794447618746774 2.844890667885239 -0.8905659424261443
4.919857025146484 -1.4709550601295014 -1.8523545265197754 2.3781441885181884 -1.598593537007467 3.3405656814575195 -0.05796316723639252 -0.7227619034464333 0.5454471685708844 -0.01789902129563462 2.844963294171351 -0.8904959459947601
4.919861316680908 -1.4709151101163407 -1.8523703813552856 2.3781725603291015 -1.5986068884478968 3.340589761734009 -0.05796484836381055 -0.7227478965006254 0.545467435263118 -0.01787776547743384 2.8449130445094966 -0.8905537504216889
4.919885635375977 -1.4709595006755372 -1.8523457050323486 2.3781680303760986 -1.5985735098468226 3.340589761734009 -0.05795036501001531 -0.7227713495527739 0.5454551669722898 -0.01789659344869296 2.8449489261963903 -0.8905342125248947
4.919878005981445 -1.4709432882121583 -1.8523457050323486 2.3781606394001464 -1.598593537007467 3.3405940532684326 -0.05795360058395252 -0.7227636154302467 0.5454643832239715 -0.0178891012814984 2.8449280539518162 -0.8905359758421864
4.919910430908203 -1.4709237304380913 -1.8523774147033691 2.3781801897236328 -1.5985644499408167 3.340618133544922 -0.05794406829797199 -0.7227546743020764 0.5454578000685666 -0.017887504829876263 2.844932989437634 -0.8905503538474069
4.919919013977051 -1.470907525425293 -1.8523411750793457 2.3781847196766357 -1.598597828541891 3.3406267166137695 -0.05793124677422777 -0.7227578746640839 0.5454962857415385 -0.01790404692129962 2.8448661444461214 -0.8906056196170927
4.919910430908203 -1.4709032413414498 -1.8523749113082886 2.3781518179127197 -1.598548714314596 3.340589761734009 -0.057944173928504095 -0.722744183292391 0.5454696448338122 -0.017921079617969245 2.844955878240618 -0.8905570943407055
4.919886589050293 -1.470976398592331 -1.8523818254470825 2.3781892496296386 -1.5985644499408167 3.340601921081543 -0.057954154045766204 -0.7227720721422259 0.545420090878228 -0.01787534551782443 2.844972958388949 -0.8904938146542223
4.919890880584717 -1.4709194761565705 -1.8523703813552856 2.3781651693531494 -1.5985601584063929 3.34063458442688 -0.0579627691296696 -0.7227519679476977 0.5454627677571986 -0.01783450077460147 2.8449398307199547 -0.890548203786691
4.919954776763916 -1.4709074807218094 -1.8523852825164795 2.3781892496296386 -1.598597828541891 3.3405568599700928 -0.05789374836299786 -0.7227491585925414 0.5454659210753762 -0.018053251420796532 2.8448983246936406 -0.890559295766638
4.919865608215332 -1.470947579746582 -1.852386236190796 2.3781892496296386 -1.598593537007467 3.3406267166137695 -0.05797001063877784 -0.7227590146021591 0.5454353432660184 -0.017824079322998582 2.8449335755257614 -0.8905102714296385
4.919910430908203 -1.4709432882121583 -1.8523749113082886 2.3781606394001464 -1.598593537007467 3.3406147956848145 -0.0579357533863279 -0.7227587440778283 0.5454416768023498 -0.017904887742241582 2.844932747911302 -0.8904861933329608
4.919869899749756 -1.4709399727037926 -1.8523659706115723 2.3781472879597167 -1.5986054579364222 3.3406267166137695 -0.05796484491049905 -0.7227553441222703 0.5454474977837862 -0.01783594039139767 2.8449313055000265 -0.8904839687257297
4.9198455810546875 -1.4709562075189133 -1.8523571491241455 2.3781847196766357 -1.598593537007467 3.340606212615967 -0.05797842521948382 -0.7227670377629694 0.5454510714998637 -0.017825306552886486 2.844933824040092 -0.8905396946340295
4.919898509979248 -1.4709475946477433 -1.8523615598678589 2.3781847196766357 -1.598614517842428 3.340564489364624 -0.05792805550068143 -0.7227649076620621 0.5454544543832129 -0.017969581427924007 2.844910474415354 -0.89053187973642
4.919902801513672 -1.4709356439164658 -1.8523615598678589 2.3781801897236328 -1.598642651234762 3.3406224250793457 -0.05793103807140535 -0.7227601881064369 0.5454594682300121 -0.017906242661775474 2.844867808099157 -0.8905144175689845
4.919841766357422 -1.47100122392688 -1.8523730039596558 2.3781561094471435 -1.5986188093768519 3.340601921081543 -0.05797281805228348 -0.7227744262632246 0.5454017199832091 -0.01783569112943889 2.844970694003638 -0.8904074557215865
4.919841289520264 -1.4709724497846146 -1.8523331880569458 2.3781606394001464 -1.598614517842428 3.3405776023864746 -0.057969326506322236 -0.7227741203666741 0.5454535506717573 -0.017869484608978022 2.8449348197486906 -0.8905129213887304
4.919865608215332 -1.4709638145617028 -1.852386236190796 2.3781847196766357 -1.5985773245440882 3.3405983448028564 -0.05796698384604549 -0.7227642963413772 0.5454244146619467 -0.017856651559071905 2.844966511363369 -0.8904966716238086
4.919869899749756 -1.4709475722960015 -1.8523571491241455 2.3781472879597167 -1.5985725561725062 3.3405613899230957 -0.05795837303522404 -0.7227602975572043 0.5454516354661267 -0.01791402991722238 2.8449731419186195 -0.8905161922814187
4.919861316680908 -1.4709107813290139 -1.852411150932312 2.3781472879597167 -1.5985725561725062 3.340597629547119 -0.057977239050608156 -0.7227341675831837 0.5454352954708696 -0.017849779503197973 2.844977302191443 -0.8904875924444471
4.919881343841553 -1.470878319149353 -1.8523703813552856 2.3781680303760986 -1.598630730305807 3.340576648712158 -0.05794525809022037 -0.7227345029362424 0.5454919414773626 -0.01793663975635685 2.8448715529269117 -0.8905829367563854
4.919942855834961 -1.4709763538888474 -1.8524245023727417 2.3781892496296386 -1.5985601584063929 3.340606212615967 -0.057917490443962966 -0.7227652603513781 0.5453878234132532 -0.01794614135498419 2.8449872696441627 -0.8904268301500513
4.9198527336120605 -1.4709475946477433 -1.8523703813552856 2.3781606394001464 -1.598630730305807 3.340568780899048 -0.05795940326688432 -0.7227564588244453 0.5454425702926413 -0.017905364260800524 2.844928448167973 -0.8904871476922311
4.9199347496032715 -1.4709270384958764 -1.852350115776062 2.3781472879597167 -1.5985644499408167 3.340606927871704 -0.0579234999585665 -0.7227591741961692 0.5454700738270515 -0.0179383386119088 2.844934757308152 -0.8905356709093294
4.919907093048096 -1.4709519010833283 -1.8523412942886353 2.3781935411640625 -1.5985725561725062 3.340639114379883 -0.05794448740002122 -0.7227750327813012 0.5454673071825089 -0.017856900719632217 2.8449090054979527 -0.890571164537924
4.919861316680908 -1.470931352382042 -1.8523986339569092 2.3782054620930175 -1.5985892454730433 3.340601921081543 -0.057970608460302234 -0.7227520463660679 0.5454412498950085 -0.01785157786491492 2.84493182026718 -0.8905453220191953
4.91983699798584 -1.4708870214274903 -1.8523377180099487 2.3781441885181884 -1.5985601584063929 3.340618133544922 -0.057999769411999136 -0.7227420255547936 0.545506441408319 -0.017782839786464447 2.844930308906238 -0.890621384771491
4.91982889175415 -1.4709849891117592 -1.852350115776062 2.3781606394001464 -1.5985644499408167 3.3406431674957275 -0.05800248675134867 -0.7227759658014611 0.5454313005132798 -0.017734963924387472 2.844981237862092 -0.8904896039136234
4.919865608215332 -1.4709107887795945 -1.8523545265197754 2.3781518179127197 -1.5985892454730433 3.3406267166137695 -0.057973089785465885 -0.7227484869328462 0.5454777225893712 -0.017823540459723456 2.8449176062134325 -0.8905541875706041
4.919869422912598 -1.4708707121065636 -1.852350115776062 2.3781892496296386 -1.598602596913473 3.340618133544922 -0.057967403560310514 -0.7227401106935194 0.5455161408231803 -0.01784872507021545 2.8448571328943015 -0.8906581581571824
4.919878005981445 -1.4709806752255936 -1.8523571491241455 2.3781606394001464 -1.598581616078512 3.340630292892456 -0.057961244807770075 -0.722774967622036 0.5454289445399572 -0.017830826481859446 2.8449593068510723 -0.8904695673269101
4.919857025146484 -1.470947527592518 -1.8523590564727783 2.3781606394001464 -1.5985892454730433 3.3405983448028564 -0.0579709488265456 -0.7227608822617858 0.5454513149923736 -0.017850775953653662 2.844946884957388 -0.8905179543235708
4.919885635375977 -1.4709270310452958 -1.8523986339569092 2.3781725603291015 -1.5985682646380823 3.340618133544922 -0.05796216505736084 -0.7227481855297895 0.5454378784965108 -0.017853314485798116 2.844956255650458 -0.8905100162909381
4.919890880584717 -1.4709194240025063 -1.8523898124694824 2.3781770902821044 -1.5985801855670374 3.340601921081543 -0.05795247485688623 -0.7227479892759966 0.5454509126287981 -0.01788973865359026 2.8449361166501648 -0.8905339776201048
4.919882297515869 -1.4709475722960015 -1.8523703813552856 2.3782176214405517 -1.5985844771014612 3.3406310081481934 -0.05795929054058063 -0.7227679520576381 0.5454529570808206 -0.017838217540066613 2.8449082411392945 -0.8905704778366031
4.919861316680908 -1.470935658817627 -1.8523457050323486 2.3781518179127197 -1.5986068884478968 3.340585470199585 -0.05796174930197798 -0.7227582536314597 0.5454678997537955 -0.017883801457414153 2.8449242964070973 -0.8905322089736862
4.919886589050293 -1.4709075030735512 -1.8523907661437988 2.3781770902821044 -1.598614517842428 3.3406310081481934 -0.05795449101269247 -0.7227426623356972 0.5454567740327446 -0.017858121930332947 2.8448954310188324 -0.8905254021086599
4.919902801513672 -1.4709850189140816 -1.8523818254470825 2.378192110652588 -1.598597828541891 3.340589761734009 -0.05793176578102928 -0.722775419311041 0.545414200287502 -0.0179306920867232 2.84494809640039 -0.8904674025960044
4.919857025146484 -1.4709182542613526 -1.8523287773132324 2.3781725603291015 -1.598581616078512 3.340540885925293 -0.057961656932119854 -0.722758847712342 0.5454987879057127 -0.01793075273353031 2.8449226781454975 -0.8906295003384722
4.919841289520264 -1.4708912831595917 -1.8523942232131958 2.3781680303760986 -1.598597828541891 3.340585470199585 -0.057983642012524 -0.7227321025351889 0.5454654373667407 -0.01785125241957434 2.844929471669897 -0.8905573123190106
4.919869422912598 -1.4709151101163407 -1.8523774147033691 2.3781606394001464 -1.5986235777484339 3.3406105041503906 -0.057959981257227094 -0.7227448411719493 0.545458769072929 -0.01786705386436968 2.8449040442168276 -0.8905135848422797
4.919910430908203 -1.4709442865899582 -1.8523659706115723 2.3781770902821044 -1.598609749470846 3.3405940532684326 -0.057927027379934215 -0.7227627997175574 0.545451169040345 -0.017942152888937052 2.844909494274257 -0.8905144475257307
4.919869899749756 -1.4709638071111222 -1.8523774147033691 2.3781606394001464 -1.598555866871969 3.3406190872192383 -0.05797301253948525 -0.7227641983724602 0.5454263099384092 -0.01782345864850915 2.844987205586691 -0.8904826302237279
4.9198899269104 -1.47090636313472 -1.8523818254470825 2.3781234461018066 -1.598597828541891 3.3405940532684326 -0.05794959427807515 -0.7227372817813349 0.5454553927306627 -0.01790767536772311 2.8449438932430366 -0.8904823117568215
4.9198527336120605 -1.4709399727037926 -1.8523749113082886 2.3781191545673828 -1.5985844771014612 3.3405776023864746 -0.057973497477383285 -0.722748357901367 0.5454372344100922 -0.017871463687595266 2.844987622674418 -0.8904584575416176
4.91987419128418 -1.470935658817627 -1.852352499961853 2.3781441885181884 -1.598621670399801 3.3405940532684326 -0.057951342026195535 -0.7227560264970152 0.5454606583742987 -0.01789635665012388 2.8449157593143215 -0.8905006313635578
4.9198455810546875 -1.4709724125317116 -1.8523457050323486 2.3781606394001464 -1.5985644499408167 3.3405613899230957 -0.05797499336753248 -0.7227725375246717 0.5454458165602744 -0.017875566930470235 2.8449861465310327 -0.8905253382167418
4.919914722442627 -1.4709356737187882 -1.852345585823059 2.3781398969837646 -1.5985773245440882 3.3405861854553223 -0.057930284640039326 -0.7227605720034743 0.5454663597930532 -0.01794511010458592 2.8449415993495513 -0.8905213932236042
4.919857025146484 -1.470931352382042 -1.8523986339569092 2.3781472879597167 -1.5986054579364222 3.3405983448028564 -0.05797086271215864 -0.7227433631289896 0.5454296336864236 -0.017857432154107747 2.8449564491351453 -0.8904598553474261
4.919906139373779 -1.470922553246357 -1.8523615598678589 2.3781770902821044 -1.598626438771383 3.3406310081481934 -0.057935046783374175 -0.7227558333212075 0.5454681071313056 -0.0178916906237453 2.8448718486266085 -0.8905341499495384
4.919878005981445 -1.4708945465138932 -1.8523659706115723 2.3781725603291015 -1.5985692183123987 3.3405776023864746 -0.05796021795693349 -0.7227434713337092 0.5454863516018611 -0.017902286839256158 2.8449268179153444 -0.890606582387952
4.919878005981445 -1.4709561702660103 -1.852324366569519 2.3781770902821044 -1.5985644499408167 3.340606212615967 -0.057960096613819435 -0.7227765102918267 0.5454751164010762 -0.017858914060530254 2.844933401598466 -0.8905826556695077
4.919885635375977 -1.4709638145617028 -1.8523730039596558 2.3781518179127197 -1.598609749470846 3.340651750564575 -0.057955903405337544 -0.7227638743617464 0.5454256325175949 -0.017823856259884172 2.844934041335345 -0.8904382011217128
4.919914722442627 -1.4709237527898331 -1.8523615598678589 2.3781935411640625 -1.5985692183123987 3.340601921081543 -0.057935524484672374 -0.7227602298903626 0.545472741445416 -0.01791938313409738 2.8449138526706292 -0.8905894128944606
4.919869422912598 -1.470947579746582 -1.8523590564727783 2.3782221513935546 -1.5985773245440882 3.3406519889831543 -0.057973657529830795 -0.7227709835432743 0.5454619487404221 -0.017787121980140225 2.8449025114478723 -0.8905940041186634
4.919893264770508 -1.4709225383451958 -1.8523898124694824 2.3781813818165283 -1.5985725561725062 3.3405940532684326 -0.05795057921336089 -0.7227499408580079 0.5454500036859157 -0.017900817663007842 2.844942901557858 -0.8905407474845424
4.919858455657959 -1.4709442865899582 -1.8523774147033691 2.3780950742908935 -1.598609749470846 3.3406267166137695 -0.057973778278593825 -0.722746226727069 0.5454255728090031 -0.017820763422562634 2.844972744319294 -0.890392454429102
4.919869422912598 -1.4708869469216843 -1.8523198366165161 2.3781518179127197 -1.5985725561725062 3.34063458442688 -0.05797566891947313 -0.7227490581571203 0.5455207094722246 -0.017811655521767927 2.844891953363345 -0.8906394409161665
4.919902801513672 -1.4709399727037926 -1.8523659706115723 2.3781768518635253 -1.5986397902118128 3.3406105041503906 -0.05792932176629868 -0.722760157437003 0.5454528978202478 -0.01792166335732286 2.844880505214772 -0.8905020800522703
4.919902801513672 -1.4709062811783333 -1.8523774147033691 2.3781606394001464 -1.5985639731036585 3.340573310852051 -0.05794265792760161 -0.7227448187538981 0.5454674724256244 -0.0179405466615373 2.84494742213567 -0.8905581309126325
4.9199113845825195 -1.470980705027916 -1.8523253202438354 2.3781561094471435 -1.598626438771383 3.340589761734009 -0.05791746704285405 -0.7227822099444551 0.545452225499381 -0.01795714161237162 2.844906986369927 -0.890483593376515
4.919857025146484 -1.4709280517748375 -1.8523590564727783 2.3781561094471435 -1.5986054579364222 3.340585470199585 -0.05796631267596685 -0.7227527185018126 0.5454639617712274 -0.017876942426785374 2.8449275012835487 -0.8905318908365395
4.919865608215332 -1.4709356439164658 -1.8523331880569458 2.3782266813465576 -1.5985892454730433 3.3406267166137695 -0.05796817880294895 -0.7227726929348168 0.545491155791275 -0.01782412181387841 2.844873644560619 -0.8906502753200043
4.919907093048096 -1.4709806826761742 -1.852350115776062 2.3781518179127197 -1.5986598173724573 3.3405940532684326 -0.057915247369366665 -0.7227745635930266 0.5454317094298589 -0.01795944714049588 2.8448979132681815 -0.8904266562888822
4.919914722442627 -1.4709194240025063 -1.852350115776062 2.3781472879597167 -1.598586384450094 3.3405818939208984 -0.05792863934139314 -0.722754400055375 0.5454755775679703 -0.017955706447046808 2.844923431657343 -0.8905430916754066
4.919919013977051 -1.4709810775569458 -1.8523907661437988 2.3781801897236328 -1.5986641089068812 3.340569019317627 -0.05790202333865728 -0.7227691193154328 0.5454068565337589 -0.018013188434153723 2.8449053815817167 -0.8904100300676422
4.919869422912598 -1.47093569607053 -1.8523545265197754 2.3781308370777587 -1.5985444227801722 3.3405537605285645 -0.05796476035689831 -0.7227550938273407 0.5454595883327763 -0.01791163806136762 2.844999157220114 -0.8905301937801248
4.919865608215332 -1.4709031891873856 -1.8523986339569092 2.37811462461438 -1.5985773245440882 3.340606212615967 -0.057975537085001166 -0.7227302140223746 0.5454433089102889 -0.017846047208654958 2.844977870088248 -0.8904655112459435
4.919897556304932 -1.4709519159844895 -1.8524155616760254 2.3781518179127197 -1.5985844771014612 3.340573310852051 -0.05794058444774087 -0.7227498906975106 0.5454046743248779 -0.017940211078374353 2.844989543307276 -0.8904237508302464
4.919910430908203 -1.4709849444082757 -1.8523411750793457 2.3781892496296386 -1.598581616078512 3.340601921081543 -0.05793032121659751 -0.72278576947216 0.5454444725592698 -0.017917856522051252 2.8449328446432958 -0.8905230152911205
4.919894218444824 -1.4709935945323487 -1.8523590564727783 2.3781561094471435 -1.598593537007467 3.340606212615967 -0.05794132780962118 -0.7227788290257589 0.5454180629321768 -0.017893161370559695 2.8449632097477795 -0.8904387223324018
4.9198899269104 -1.470940002506115 -1.8523774147033691 2.3781937795826416 -1.5985601584063929 3.3406310081481934 -0.05796082830861134 -0.7227614178318548 0.5454488536151368 -0.017837791285313914 2.8449404223146426 -0.8905506058227612
4.919861316680908 -1.4709194240025063 -1.8523749113082886 2.3781813818165283 -1.598614517842428 3.340589761734009 -0.057962800413090654 -0.722749346846427 0.5454625409942425 -0.017881090294265472 2.844906887057997 -0.8905496625907533
4.919898509979248 -1.470907525425293 -1.8523703813552856 2.3781847196766357 -1.598626438771383 3.3405516147613525 -0.057926260887954766 -0.7227480196559657 0.5454757350255424 -0.017994132431745427 2.8448844875021364 -0.8905700328344075
4.919910430908203 -1.470910833483078 -1.852342128753662 2.3781680303760986 -1.5985892454730433 3.3405818939208984 -0.05793078285640918 -0.7227557544261899 0.5454915598871835 -0.017951517295516004 2.8448991407168314 -0.8905926147229106
4.9198689460754395 -1.4709194240025063 -1.8523286581039429 2.3781441885181884 -1.598635498677389 3.3405861854553223 -0.05795044509493652 -0.7227551681321692 0.545489874570792 -0.017907424432110304 2.8448828820013836 -0.8905496658175476
4.919898986816406 -1.470947579746582 -1.8524200916290283 2.3781770902821044 -1.5985892454730433 3.340589761734009 -0.05794161177605869 -0.7227508584441732 0.5454085771957515 -0.01792120484050056 2.8449658569831318 -0.8904514249865354
4.9198408126831055 -1.470947579746582 -1.8523659706115723 2.3781637388416748 -1.598614517842428 3.340590476989746 -0.05797566432042528 -0.7227579430940654 0.5454462697603664 -0.0178502934467472 2.844934839163065 -0.8905040111347428
4.919887065887451 -1.4709281113794823 -1.8523730039596558 2.3781606394001464 -1.598614517842428 3.3406267166137695 -0.05795128352921331 -0.7227519985568783 0.545452803665543 -0.017864694842957225 2.8449082454794494 -0.8905001778085311
4.919878005981445 -1.470959448521473 -1.8523774147033691 2.3781398969837646 -1.5985892454730433 3.3406147956848145 -0.05795962509745004 -0.7227593142698855 0.5454246137489397 -0.017856203085304494 2.8449690359145046 -0.8904419162483203
4.919910907745361 -1.4709151101163407 -1.852407693862915 2.3781606394001464 -1.5986221472369593 3.340639591217041 -0.05793761249187834 -0.7227403756856385 0.5454350374585305 -0.01788315101788932 2.8449061966268925 -0.8904596733293078
4.919856548309326 -1.4709313449314614 -1.8523331880569458 2.3781651693531494 -1.5985682646380823 3.3405776023864746 -0.057971712152349364 -0.7227622248657337 0.5454841437653686 -0.017871202267358912 2.8449402093456087 -0.8905959952335556
4.919865608215332 -1.4709031891873856 -1.8523590564727783 2.3781725603291015 -1.5985892454730433 3.3406147956848145 -0.057970991358828904 -0.7227473833758997 0.5454839742723541 -0.01784077814529918 2.844905803488589 -0.8905886113237182
4.919924259185791 -1.4709399801543732 -1.8523411750793457 2.3781518179127197 -1.598630730305807 3.340606212615967 -0.05791440378025742 -0.7227641191544539 0.5454671205273178 -0.01795455211442164 2.8448833775354174 -0.8905031124425008
4.919852256774902 -1.4709356662682076 -1.8523633480072021 2.3781441885181884 -1.5986068884478968 3.3405776023864746 -0.05796784572065057 -0.7227523700364171 0.5454533001569518 -0.017881612433706656 2.8449442171130195 -0.8905015821055152
4.919917583465576 -1.4709443089417 -1.8523986339569092 2.3781518179127197 -1.598597828541891 3.3406105041503906 -0.057930134278841625 -0.7227524664571425 0.5454213313876545 -0.01792240327168489 2.8449492356108204 -0.8904382081710088
4.9198408126831055 -1.4709432658604165 -1.852403163909912 2.378185911769531 -1.59865647951235 3.3405940532684326 -0.057968519409590996 -0.7227494169809026 0.5454243254435281 -0.017863649658969773 2.84490656159407 -0.8904665189915821
4.919919490814209 -1.470935658817627 -1.8524119853973389 2.3781234461018066 -1.5985844771014612 3.340573310852051 -0.0579265071842657 -0.7227423421702217 0.5454131586334583 -0.017971630544533226 2.8449890147767016 -0.8904078373960855
4.919852256774902 -1.4709399950555344 -1.852324366569519 2.378142758006714 -1.598602596913473 3.3406310081481934 -0.05797708124087682 -0.7227638041260828 0.5454780073221084 -0.017804483410331196 2.844914148276819 -0.8905379080042125
4.919861316680908 -1.4709313449314614 -1.852403163909912 2.3782054620930175 -1.5985601584063929 3.340606212615967 -0.05797826807644133 -0.722751806007007 0.5454384123718549 -0.01783211389402431 2.8449572744003917 -0.8905539756728976
4.919845104217529 -1.4709442642382164 -1.8523703813552856 2.3781606394001464 -1.598593537007467 3.3405818939208984 -0.05797616889835632 -0.7227560023224838 0.5454454041875706 -0.017859010260373245 2.8449554760457856 -0.8905104554844466
4.91990327835083 -1.4709313300303002 -1.8523457050323486 2.378185911769531 -1.598593537007467 3.340589761734009 -0.05793471744629987 -0.7227642151078872 0.5454777463024371 -0.017931650110386756 2.844899526579323 -0.8905819129762736
4.9198899269104 -1.4708826181343575 -1.8523457050323486 2.3781398969837646 -1.5985782782184046 3.3406105041503906 -0.057956759855604195 -0.7227404377807587 0.5455024109211954 -0.017877026151631364 2.8449085204046822 -0.8905920981406727
4.919856548309326 -1.4709550005248566 -1.8523684740066528 2.3781847196766357 -1.5985601584063929 3.3406190872192383 -0.05798126031929168 -0.7227655965959451 0.5454437783513166 -0.017807106742763076 2.8449613210647677 -0.8905392519504444
4.9198408126831055 -1.4709475722960015 -1.8524155616760254 2.3781770902821044 -1.5985844771014612 3.3406388759613037 -0.05799420071271247 -0.7227492797054429 0.5454106619070419 -0.01776654952604555 2.8449701521809487 -0.8904618717989067
4.919915199279785 -1.4709681284478684 -1.8523286581039429 2.3781606394001464 -1.5985906759845179 3.3405818939208984 -0.057922238208920666 -0.722778650385359 0.5454604361871372 -0.017957767302247088 2.844928493004947 -0.8905220676622819
4.919878005981445 -1.4709194240025063 -1.8523659706115723 2.3781651693531494 -1.5985963980304163 3.3406474590301514 -0.05796619595678003 -0.7227514189703224 0.545464870172749 -0.017814479786064003 2.8449077812685157 -0.8905347860591861
4.919939041137695 -1.4709399801543732 -1.852345585823059 2.378192110652588 -1.598597828541891 3.3406105041503906 -0.057911178357054324 -0.7227703761021484 0.5454723061516578 -0.017954717672901355 2.844883194960669 -0.8905652883142661
4.919869899749756 -1.4709763464382668 -1.8523907661437988 2.378169460887573 -1.598551098500387 3.3405983448028564 -0.057969511306869045 -0.7227665641009123 0.5454099456550664 -0.017850245896743236 2.845006746550825 -0.8904663956962192
4.919906139373779 -1.470947579746582 -1.8523818254470825 2.3781472879597167 -1.5985644499408167 3.340573310852051 -0.057937628985492595 -0.7227568525751675 0.5454328109808491 -0.017944227131028865 2.8449827700865535 -0.890477821037978
4.9198479652404785 -1.4709432509592553 -1.8522961139678955 2.3781561094471435 -1.598635498677389 3.340589761734009 -0.05796255960773097 -0.7227719185354476 0.5455001354746215 -0.017872855140098287 2.844874701761198 -0.8905808786923108
4.919861316680908 -1.4709118169597168 -1.8523703813552856 2.3781770902821044 -1.5985601584063929 3.340552806854248 -0.057968251442390914 -0.7227481835683078 0.5454728497087766 -0.01790924913694914 2.8449552008761807 -0.8905966373723441
4.919894695281982 -1.4709475946477433 -1.8523615598678589 2.3781515794941406 -1.598602596913473 3.3405940532684326 -0.0579402153872557 -0.7227608354276542 0.5454474126003865 -0.01791634162550615 2.844934442949144 -0.8904885264386891
4.9198479652404785 -1.470894568865635 -1.8523898124694824 2.3782142835804443 -1.5986011664019983 3.340536594390869 -0.057966729177686915 -0.7227403677616814 0.5454768688859393 -0.017932298934310212 2.844907642064805 -0.8906276976650831
4.9198899269104 -1.4709767636707802 -1.852386236190796 2.3781472879597167 -1.598593537007467 3.3406550884246826 -0.057956956840557336 -0.7227654372513623 0.5454060367186522 -0.01781711495676174 2.8449643667213453 -0.8904040985831905
4.919887065887451 -1.4709432658604165 -1.8523375988006592 2.3781606394001464 -1.5985444227801722 3.3405940532684326 -0.05795775045975887 -0.7227674194556615 0.5454717301704847 -0.01787983209079249 2.844960642447668 -0.8905714060987707
4.919860363006592 -1.4709356662682076 -1.8524155616760254 2.3781606394001464 -1.598593537007467 3.3406190872192383 -0.05797543511503475 -0.7227434364384073 0.5454161051072671 -0.017826787911257403 2.8449652320719143 -0.8904509079715233
4.919856548309326 -1.4709313747337838 -1.8523942232131958 2.3782099920460205 -1.5986350218402308 3.3406267166137695 -0.057968248003295336 -0.7227524924381699 0.5454435945913083 -0.01783047772806396 2.844884268979601 -0.8905288237469506
4.919861316680908 -1.470947579746582 -1.8523942232131958 2.3781770902821044 -1.5985644499408167 3.3405940532684326 -0.05797397172909118 -0.7227556020801984 0.5454286194005523 -0.017850946767623128 2.844978732314593 -0.8905060786169579
4.919926643371582 -1.4709519010833283 -1.8524155616760254 2.3781725603291015 -1.5986560026751917 3.3406310081481934 -0.05791422796871961 -0.7227531265444241 0.5454052561694822 -0.017932105098964406 2.844896994957421 -0.8903961742390147
4.919897556304932 -1.4709763687900086 -1.852379322052002 2.3781518179127197 -1.598602596913473 3.3406310081481934 -0.05794419617499445 -0.7227674810907816 0.5454129180945307 -0.017866597083909364 2.8449535034969093 -0.890418428327288
4.919919967651367 -1.4709280666759987 -1.8523366451263428 2.3782099920460205 -1.5986011664019983 3.3406267166137695 -0.057927373119195075 -0.7227697049848298 0.5454902686674528 -0.01790673977191 2.844857541646137 -0.8906161634186742
4.919876575469971 -1.4709399950555344 -1.8523703813552856 2.378169460887573 -1.598597828541891 3.3405983448028564 -0.05795578700392907 -0.7227575855870315 0.5454494951817307 -0.017882440725146016 2.8449317372282787 -0.8905162650765875
4.919832706451416 -1.470915087764599 -1.8523774147033691 2.3781680303760986 -1.598593537007467 3.3406267166137695 -0.05799632225655071 -0.7227447285819626 0.5454604749354743 -0.017778192541702455 2.8449295522573683 -0.8905437276786221
4.919915199279785 -1.4709151101163407 -1.8523457050323486 2.3781725603291015 -1.598630730305807 3.3405494689941406 -0.05791129502671165 -0.722755798048362 0.5454867158619829 -0.018023184665099008 2.8448740508752537 -0.89057143150077
4.919881343841553 -1.4709475871971627 -1.8523457050323486 2.3782176214405517 -1.5985601584063929 3.340601921081543 -0.05795847632275674 -0.7227741346707468 0.5454730704500197 -0.017867847013976024 2.8449200120442364 -0.8906225934384937
4.919917583465576 -1.4710131746581574 -1.8523457050323486 2.3781847196766357 -1.5986188093768519 3.340627908706665 -0.05792010982704693 -0.7227938390320654 0.5454188519797349 -0.01790706240976359 2.844917543080261 -0.8904464030853061
4.919887065887451 -1.470934459274151 -1.8524067401885986 2.3781606394001464 -1.598597828541891 3.340545177459717 -0.05794021297782036 -0.7227456752824782 0.5454257123651632 -0.01797219140840221 2.844966453593928 -0.8904714465318754
4.919878005981445 -1.4709063035300751 -1.8523703813552856 2.3781472879597167 -1.5986054579364222 3.340528726577759 -0.057942381303473636 -0.722741586145071 0.5454704906448968 -0.017987743698816675 2.8449347468827133 -0.8905411127592937
4.919910907745361 -1.470898838048317 -1.8524155616760254 2.3781606394001464 -1.5986054579364222 3.3406267166137695 -0.057940464090347324 -0.7227329910253779 0.5454411922221651 -0.017894102950978843 2.8449176859826686 -0.8904824606932646
4.919906139373779 -1.470980705027916 -1.8523749113082886 2.3781606394001464 -1.5985425154315394 3.340623378753662 -0.05794929741503711 -0.722773343175946 0.5454166526988254 -0.017862400472399394 2.8449965575023586 -0.8904624017689422
4.919878005981445 -1.470947579746582 -1.8524075746536255 2.3781651693531494 -1.598602596913473 3.3405940532684326 -0.05795427518758947 -0.7227506973405982 0.5454152684526179 -0.017891571146062626 2.844958971579125 -0.890448345090727
4.919854164123535 -1.4709151101163407 -1.8523986339569092 2.3781606394001464 -1.598593537007467 3.3406224250793457 -0.05798124363824267 -0.7227398379218803 0.5454431002122095 -0.017814182934455948 2.8449427625498553 -0.8905018336267645
4.919824123382568 -1.4709595006755372 -1.8523730039596558 2.3781847196766357 -1.598553482686178 3.340597629547119 -0.05800186561130642 -0.7227641660412492 0.5454380257092762 -0.017788322292884184 2.844985981143456 -0.8905413851125722
4.919849872589111 -1.4709270533970376 -1.8523659706115723 2.3781892496296386 -1.5985859076129358 3.3405940532684326 -0.05797715805601428 -0.7227554561789581 0.545466101478405 -0.01784580336238297 2.844926452851903 -0.8905787620872158
4.919856548309326 -1.4709475648454209 -1.852403163909912 2.3781518179127197 -1.5985601584063929 3.340589761734009 -0.057978663030628166 -0.722749792435434 0.5454171803793848 -0.017847877101036094 2.8450056210565626 -0.8904641486258962
4.9199018478393555 -1.4709270310452958 -1.8523615598678589 2.3781935411640625 -1.598593537007467 3.3406310081481934 -0.05794482560949201 -0.722760331246052 0.5454690010806406 -0.017870652831134516 2.844892394349288 -0.8905687644470067
4.919952392578125 -1.4709432882121583 -1.8523986339569092 2.378142996425293 -1.5985844771014612 3.3406190872192383 -0.05790999851481494 -0.7227533806435457 0.5454203943449528 -0.017953513216473937 2.8449537883020577 -0.8904262430013372
4.919881343841553 -1.470919409101345 -1.852320909500122 2.3781606394001464 -1.598597828541891 3.3405776023864746 -0.057947485411121324 -0.7227609149081171 0.5455001245728295 -0.01792046510713393 2.8448974498795847 -0.8906016697664785
4.919864654541016 -1.470951886182167 -1.8523942232131958 2.3781563478657226 -1.5986598173724573 3.3405940532684326 -0.057950207453590794 -0.7227518850458529 0.5454192559329828 -0.01789879006192991 2.844915665108184 -0.8904206152881102
4.919856548309326 -1.470984974210598 -1.8523375988006592 2.3781444269367675 -1.5985601584063929 3.340601921081543 -0.057975111847644485 -0.7227779780126513 0.5454389542442021 -0.017831222855964446 2.8449897376449855 -0.8904895996225023
4.9198737144470215 -1.4709161233953019 -1.8523749113082886 2.3782054620930175 -1.5985725561725062 3.3405818939208984 -0.057961394209060796 -0.7227532340368223 0.5454707843984296 -0.017891112209901597 2.844922847163709 -0.8906081035191379
4.919849872589111 -1.4709637698582192 -1.8523331880569458 2.378192110652588 -1.598609749470846 3.3406474590301514 -0.0579778149186021 -0.7227767767840969 0.5454637488740857 -0.017780534005069796 2.8448947849137176 -0.8905539558601391
4.91985559463501 -1.4709893029979249 -1.8523545265197754 2.3781563478657226 -1.5985844771014612 3.340574264526367 -0.05796506929089584 -0.7227760479774723 0.5454256922753125 -0.01787988126838286 2.8449827287100886 -0.8904697474231585
4.919915199279785 -1.4709594932249566 -1.8523457050323486 2.3781935411640625 -1.5986054579364222 3.3406190872192383 -0.05792689001093448 -0.7227760164651507 0.5454584846779121 -0.01791160483501768 2.8448924081985725 -0.8905397797070481
4.919910907745361 -1.4708857250264664 -1.8523590564727783 2.378180428142212 -1.5985892454730433 3.3405983448028564 -0.05793610164778544 -0.7227446575520767 0.5454981388502231 -0.01792908311220789 2.8448823217198407 -0.8906169455618529
4.919827461242676 -1.4709724572351952 -1.8523818254470825 2.3781768518635253 -1.5985725561725062 3.340589761734009 -0.0579932750288537 -0.7227651786568574 0.5454205814992291 -0.01781232416226729 2.8449898565216944 -0.8904922131553519
4.919865608215332 -1.4710262280753632 -1.852342128753662 2.3781606394001464 -1.5986173788653772 3.3405940532684326 -0.05795079146273122 -0.7227926899100107 0.5454088354402291 -0.017880316998200686 2.8449611239312493 -0.8904190357433062
4.919894218444824 -1.4709225383451958 -1.8523545265197754 2.3781978326984863 -1.5985725561725062 3.340606212615967 -0.057950054562854784 -0.7227608385479418 0.5454795313652164 -0.0178859060418766 2.8449076577798946 -0.8906077006010129
4.919913291931152 -1.470910833483078 -1.8523818254470825 2.3782176214405517 -1.598609749470846 3.340601921081543 -0.05792875867616411 -0.7227528629496867 0.545470095157778 -0.017935819084702445 2.844870948190084 -0.8905905471297384
4.919873237609863 -1.470935658817627 -1.8523987531661987 2.3781606394001464 -1.5985644499408167 3.34063458442688 -0.05797491077795666 -0.7227491864133825 0.5454290718806536 -0.017810207328132915 2.844971378278515 -0.8904834497369624
4.919861316680908 -1.4709681284478684 -1.852320909500122 2.378142996425293 -1.5985353628741663 3.340568780899048 -0.057971174491814194 -0.722776333911348 0.545464603955112 -0.017874750749845944 2.844996768245399 -0.8905516356077783
4.919926643371582 -1.470915139918663 -1.8523287773132324 2.3781563478657226 -1.5986188093768519 3.3405940532684326 -0.057914079752325556 -0.7227591651199847 0.5454953040418962 -0.017970819614555388 2.844869494324756 -0.8905675651024593
4.9198737144470215 -1.470927045946457 -1.8523333072662354 2.3782054620930175 -1.5985773245440882 3.340618133544922 -0.057964527135030385 -0.7227673927910654 0.5454934593535266 -0.017842463146944522 2.844891135750757 -0.8906395717743275
4.919910907745361 -1.47093569607053 -1.8523457050323486 2.3781606394001464 -1.598602596913473 3.340635299682617 -0.057936480529201154 -0.7227630526113196 0.5454682118390315 -0.017881430228367478 2.844897434390857 -0.8905266106973995
4.9198899269104 -1.470931352382042 -1.852386236190796 2.3781563478657226 -1.5985963980304163 3.3406147956848145 -0.057951508674113826 -0.7227499203825021 0.5454405053091205 -0.017877030955023958 2.8449380147720778 -0.890483772461554
