gadestri/Universal-robots-Hand-tracking-to-move-the-robot/RTDE/teste.csv
actual_q_0 actual_q_1 actual_q_2 actual_q_3 actual_q_4 actual_q_5 actual_TCP_pose_0 actual_TCP_pose_1 actual_TCP_pose_2 actual_TCP_pose_3 actual_TCP_pose_4 actual_TCP_pose_5
4.919878005981445 -1.470980965798237 -1.8524069786071777 2.3781725603291015 -1.5986235777484339 3.340630292892456 -0.057953965703352456 -0.7227636131855579 0.5453923525125902 -0.017848742552577603 2.844948918019138 -0.8903958158177692
4.919919490814209 -1.4709221434644242 -1.8523616790771484 2.378192349071167 -1.598602596913473 3.3406269550323486 -0.057929626710766735 -0.7227591220207741 0.5454719764115108 -0.017905726409739992 2.8448791881697795 -0.8905660153956182
4.919925689697266 -1.470947579746582 -1.85239839553833 2.378208799953125 -1.5985892454730433 3.3406195640563965 -0.05792625373154519 -0.7227622876147638 0.5454302717145643 -0.01791754365402075 2.8449186923200696 -0.8905120628880479
4.919869899749756 -1.4709281933358689 -1.8524107933044434 2.3781444269367675 -1.5985773245440882 3.3405730724334717 -0.05796386565588367 -0.722740150829803 0.5454235175261924 -0.017898657457183144 2.8449894801493483 -0.8904614404133749
4.919865608215332 -1.4709564757398148 -1.8523774147033691 2.3781682687946777 -1.598586384450094 3.3406028747558594 -0.05796635711327516 -0.7227613490765383 0.5454326296016256 -0.017854589297889297 2.8449581420759436 -0.8904904759901618
4.919934272766113 -1.4709356662682076 -1.852406620979309 2.378131552333496 -1.598581616078512 3.3405773639678955 -0.05791678328858454 -0.7227457200635459 0.5454187378906932 -0.017985769558413117 2.8449782006974447 -0.8904237467125037
4.919865608215332 -1.4709718984416504 -1.8524069786071777 2.3781890112110595 -1.598602596913473 3.3406524658203125 -0.05797229539456013 -0.7227627445628095 0.5454017122378275 -0.01779038204634254 2.8449480917168612 -0.8904394516265065
4.919849872589111 -1.4709118169597168 -1.8524351119995117 2.3782009321400146 -1.598564926777975 3.340576171875 -0.0579827403289642 -0.7227354184833535 0.545427723916378 -0.017860440984428266 2.844974145635398 -0.8905368698387708
4.919885635375977 -1.4709817332080384 -1.8523616790771484 2.378152056331299 -1.5985644499408167 3.340601682662964 -0.05795434361621042 -0.7227736615547478 0.5454243837846965 -0.01787437961373682 2.844986984268444 -0.8904638587716565
4.919865608215332 -1.4709267404726525 -1.852381706237793 2.3782052236744384 -1.5985310713397425 3.340630292892456 -0.05798575348122054 -0.7227566001080239 0.5454577898528503 -0.017791346476553293 2.8449579768102913 -0.8905986181651239
4.919878005981445 -1.4709595006755372 -1.8523859977722168 2.378147764796875 -1.5985444227801722 3.34059739112854 -0.057966557699405036 -0.7227593739813869 0.5454212323468759 -0.017860441918897848 2.84501025898005 -0.8904683730118709
4.919878005981445 -1.4709564608386536 -1.852381706237793 2.3781606394001464 -1.598621670399801 3.3405940532684326 -0.05794809317636068 -0.7227589208799433 0.5454273092382568 -0.017900646267416342 2.844935680324241 -0.8904548465169113
4.919910907745361 -1.470994309788086 -1.8523163795471191 2.3781563478657226 -1.598593537007467 3.340606212615967 -0.057927022881644016 -0.7227903065083742 0.5454498880137634 -0.01791795136793928 2.844932666711356 -0.8904921011528678
4.919885635375977 -1.4709565055421372 -1.8522812128067017 2.378201885814331 -1.5985272566424769 3.340585231781006 -0.05795597263863489 -0.7227915645425684 0.5455138829983602 -0.017884019524372956 2.844924903422266 -0.8906961390513933
4.919885635375977 -1.4709899437478562 -1.8523335456848145 2.378152056331299 -1.5985310713397425 3.3406436443328857 -0.057968126861009654 -0.722784739802113 0.5454395183187679 -0.017799945662763716 2.8449916336298835 -0.8905001764501966
4.919910907745361 -1.4709684190205117 -1.8523774147033691 2.378180428142212 -1.5985906759845179 3.340606212615967 -0.05793209329590372 -0.7227698180983475 0.545426488435519 -0.01791595945705774 2.844941989913738 -0.8904788566952475
4.919878005981445 -1.4709148195436974 -1.8523589372634888 2.3781606394001464 -1.5985844771014612 3.3405885696411133 -0.05795737024467601 -0.7227504722933047 0.5454745546702209 -0.017893172089568362 2.844927303353506 -0.8905623899280933
4.919852256774902 -1.4709445399096985 -1.8524478673934937 2.3781682687946777 -1.598609749470846 3.3406269550323486 -0.05797996862154784 -0.722739083684232 0.5453863579790647 -0.017810457179855403 2.8449731011536685 -0.8903972254804374
4.919897556304932 -1.4709639859250565 -1.8523502349853516 2.378152056331299 -1.598621670399801 3.340630292892456 -0.057939171093808584 -0.722769532685529 0.5454431275777624 -0.017877356695548213 2.8449122487751954 -0.8904643847410438
4.919861316680908 -1.4709400695613404 -1.8523898124694824 2.3782052236744384 -1.5985444227801722 3.3405940532684326 -0.05797809955654702 -0.722758371455796 0.5454431442343531 -0.01784238630072082 2.84497030057604 -0.8905707092764179
4.91990327835083 -1.4709311735681077 -1.8524303436279297 2.3781682687946777 -1.5985844771014612 3.3405940532684326 -0.05794241704766739 -0.7227417746693221 0.5454105020225443 -0.017919097700772293 2.844969205297658 -0.8904486667939596
4.919869899749756 -1.4709431242993851 -1.8523941040039062 2.3781563478657226 -1.5985949675189417 3.340585231781006 -0.05795999377035854 -0.7227507644438673 0.5454272856643823 -0.017889523371809934 2.844963729756055 -0.8904679918632712
4.9198737144470215 -1.470985398893692 -1.852370262145996 2.3781606394001464 -1.5985692183123987 3.340585231781006 -0.05795857330481832 -0.7227730699192197 0.5454173881784696 -0.017882801451776363 2.8449924957877823 -0.8904620364377548
4.919885635375977 -1.470935658817627 -1.8523731231689453 2.3781933027454834 -1.5985773245440882 3.340601682662964 -0.05795437480710214 -0.7227597653393661 0.5454554803889973 -0.017881482033853497 2.844929588614693 -0.8905590387339543
4.919824123382568 -1.4709400919130822 -1.8523982763290405 2.3782052236744384 -1.5985353628741663 3.340576171875 -0.058003931754472174 -0.7227542320394794 0.5454374815290645 -0.017810661835077377 2.8449969398103576 -0.8905750869326313
4.919878005981445 -1.4709765327027817 -1.8523659706115723 2.3781933027454834 -1.598581616078512 3.340585231781006 -0.05795225240323869 -0.7227753067648827 0.5454328549822925 -0.0178951658879943 2.844952988273114 -0.890516210227245
4.9198431968688965 -1.4709356439164658 -1.8523941040039062 2.3781606394001464 -1.5985601584063929 3.340634822845459 -0.05799740402242419 -0.722748673157873 0.5454326961857137 -0.017765348806906747 2.8449797228659444 -0.8904979260728588
4.919910907745361 -1.470952035193779 -1.8523902893066406 2.3781606394001464 -1.5985801855670374 3.3406436443328857 -0.05794425750338021 -0.7227589154570219 0.5454234319427794 -0.01785779220800423 2.844951495548666 -0.8904551176915086
4.919898986816406 -1.470947579746582 -1.8523616790771484 2.3781933027454834 -1.5985892454730433 3.3406436443328857 -0.05794883645605852 -0.7227677026623693 0.5454543054119394 -0.017846112918746194 2.8449065517736236 -0.8905410353535681
4.9198808670043945 -1.4709192526391526 -1.8524069786071777 2.378152056331299 -1.5986068884478968 3.3406269550323486 -0.05796016077314795 -0.7227393800669573 0.5454317765844919 -0.017851354095842698 2.844936900242676 -0.8904601511632886
4.919832706451416 -1.4709698420814057 -1.8523898124694824 2.3781768518635253 -1.5985444227801722 3.3405895233154297 -0.05799640497647997 -0.7227634041076016 0.545417054310977 -0.017807176607192346 2.845014796314575 -0.8904990724949919
4.919861316680908 -1.4709683966687699 -1.852370262145996 2.3781606394001464 -1.5985773245440882 3.340601682662964 -0.057970217439180204 -0.7227662581734984 0.5454285218818774 -0.01784587862542398 2.844974582137833 -0.8904797340517212
4.9198408126831055 -1.4709683966687699 -1.8523659706115723 2.3781606394001464 -1.5985682646380823 3.3406481742858887 -0.05799604543247061 -0.7227668944418915 0.5454306042241409 -0.017746524541936617 2.844973369893151 -0.8904851966181487
4.919915199279785 -1.4709400919130822 -1.852406620979309 2.3781933027454834 -1.5985644499408167 3.3406150341033936 -0.05793993749483119 -0.7227555468727461 0.5454269810276215 -0.017897647913023885 2.8449527148279983 -0.8905064662055073
4.919887065887451 -1.4709385570934792 -1.8523616790771484 2.3782259660908203 -1.5985725561725062 3.340618133544922 -0.05795600870114809 -0.7227684106250953 0.545468106700489 -0.01785842742153159 2.8449036796057796 -0.890613511481157
4.919852256774902 -1.4709311884692688 -1.85239839553833 2.378181143397949 -1.5986188093768519 3.3405776023864746 -0.05796630555555904 -0.722747100000831 0.5454368111599651 -0.017886582533355812 2.844930722781555 -0.890503899530084
4.919836521148682 -1.4709854510477562 -1.8524194955825806 2.378152056331299 -1.598581616078512 3.3406436443328857 -0.05799692117844199 -0.7227583143917444 0.5453764040068673 -0.017751071744951653 2.845013823589257 -0.8903734184016815
4.9198899269104 -1.4709148195436974 -1.8523417711257935 2.3782009321400146 -1.5985634962665003 3.340618133544922 -0.057957402365872046 -0.7227617029484011 0.5454950151522442 -0.017859259199681725 2.8448986403491223 -0.890642718682785
4.9198408126831055 -1.47093120337043 -1.8523248434066772 2.3781682687946777 -1.5986011664019983 3.3406107425689697 -0.05798168718438206 -0.7227631744494063 0.5454893654181819 -0.01781686936080955 2.8449023077806164 -0.8905904924015421
4.919816493988037 -1.4709384825876732 -1.8523859977722168 2.378152056331299 -1.598586384450094 3.340634822845459 -0.058010369268360465 -0.7227481880263212 0.545434540730829 -0.017739399846832198 2.844967322458877 -0.8904846924707539
4.919906139373779 -1.4709684413722535 -1.8523573875427246 2.378152056331299 -1.598614517842428 3.340625762939453 -0.05793372433032218 -0.7227700486329992 0.5454349300651181 -0.017892451855877026 2.8449241462578057 -0.8904518177249069
4.919908046722412 -1.4709639561227341 -1.8524107933044434 2.3781725603291015 -1.598593537007467 3.3405940532684326 -0.05793336039589949 -0.7227587670049855 0.5454031082627769 -0.017929700946337522 2.844966152459251 -0.8904308655068393
4.919906139373779 -1.4709221434644242 -1.8523941040039062 2.378152056331299 -1.5985468069659632 3.340630292892456 -0.0579552719803567 -0.7227466454022755 0.5454408732092688 -0.01785542678852424 2.8449722462514853 -0.8905000698659924
4.919913291931152 -1.4709639486721535 -1.8524150848388672 2.3781890112110595 -1.598581616078512 3.340592861175537 -0.05793181914187048 -0.7227606004087254 0.5454033976273591 -0.01793346398579299 2.8449673076008026 -0.8904528464081535
4.919856548309326 -1.4709520277431984 -1.8523731231689453 2.378152056331299 -1.5985725561725062 3.340646505355835 -0.05798518502541715 -0.7227589439774558 0.5454348498836529 -0.017773369735017107 2.844965762038577 -0.8904809323734899
4.919820785522461 -1.4709401068142434 -1.8523902893066406 2.3781606394001464 -1.598642651234762 3.340589761734009 -0.05798551572517438 -0.7227470880737152 0.5454318040512067 -0.017835196727010318 2.844929680611718 -0.890466255522103
4.919894695281982 -1.470952035193779 -1.852370262145996 2.3781401354023437 -1.598626438771383 3.340601682662964 -0.057936741608534195 -0.7227582084617633 0.54543470554122 -0.017915887860699455 2.8449283964901344 -0.8904411740266372
4.91985559463501 -1.470922128563263 -1.8524069786071777 2.3781725603291015 -1.5985692183123987 3.3405611515045166 -0.057973204661761285 -0.7227419967059594 0.545436649881073 -0.01789212023077017 2.8449792122164204 -0.8905221459273241
4.919898986816406 -1.4709147971919556 -1.8523659706115723 2.3781606394001464 -1.598593537007467 3.340601682662964 -0.057943106751081074 -0.7227499025157431 0.5454686388327262 -0.017908253335298493 2.8449156555542925 -0.8905413542736563
4.919836521148682 -1.4709639486721535 -1.852341651916504 2.3781847196766357 -1.5986188093768519 3.3405940532684326 -0.05797548550151005 -0.7227721504264237 0.54545715401707 -0.017841449814962586 2.8449137235780033 -0.8905407856904929
4.919869899749756 -1.4709609162858506 -1.8523616790771484 2.3781847196766357 -1.598551098500387 3.3406481742858887 -0.05797861302847354 -0.7227707004419651 0.5454441592186321 -0.017780557090122908 2.8449576418096094 -0.8905368657182416
4.919845104217529 -1.4710063350251694 -1.852368712425232 2.3781725603291015 -1.598602596913473 3.3405895233154297 -0.05797059305770288 -0.7227800165993661 0.5454053801227369 -0.017850838861922215 2.84497639857294 -0.8904389895073122
4.919915199279785 -1.4709028613618393 -1.8523774147033691 2.3781606394001464 -1.598602596913473 3.340606212615967 -0.057931710649866866 -0.7227436477123336 0.5454679260796967 -0.017928971555598812 2.8449026674731317 -0.8905330483287094
4.919894695281982 -1.470890962784626 -1.8523746728897095 2.3781444269367675 -1.598597828541891 3.3405728340148926 -0.057942192969579795 -0.7227363920061634 0.5454762267452032 -0.017945428855824022 2.8449208565479847 -0.8905441298114348
4.9198455810546875 -1.4709028762630005 -1.8524069786071777 2.3781890112110595 -1.598593537007467 3.340609312057495 -0.05798545402278367 -0.7227366981447405 0.5454512098027859 -0.017821010982712052 2.8449282696540035 -0.8905495734515139
4.919882297515869 -1.470947616999485 -1.8523659706115723 2.3781933027454834 -1.5985353628741663 3.3406107425689697 -0.05796680986034901 -0.7227668078792467 0.5454533314569333 -0.017844620930050143 2.844965411524136 -0.8905739229988652
4.9198737144470215 -1.4708954256824036 -1.8523575067520142 2.3781768518635253 -1.598597828541891 3.340604782104492 -0.05796160206723749 -0.7227456871173796 0.5454914683086739 -0.017870737082984076 2.844890704904298 -0.8906026836142436
4.919873237609863 -1.4709639859250565 -1.8523688316345215 2.3781768518635253 -1.598609749470846 3.340601682662964 -0.057954096900476926 -0.7227670450762833 0.5454350345105284 -0.017877864887012207 2.844931465273075 -0.8904896823681446
4.9198737144470215 -1.4709148418954392 -1.8523292541503906 2.3782259660908203 -1.5986054579364222 3.340606212615967 -0.05795597569480862 -0.7227658981170654 0.5455086702488312 -0.01787283960792797 2.844848383168689 -0.8906763194547139
4.919856548309326 -1.470944569712021 -1.8523774147033691 2.3781768518635253 -1.598555866871969 3.3405895233154297 -0.05797783714244079 -0.7227584270272273 0.5454437226975781 -0.01784722077169699 2.844975896169248 -0.8905388235906191
4.919898986816406 -1.4709445771626015 -1.8523982763290405 2.3781725603291015 -1.598593537007467 3.34059739112854 -0.05794137452939302 -0.7227543669574875 0.5454259493224219 -0.017912887140426687 2.8449478967387893 -0.8904748518669439
4.919882297515869 -1.4709281933358689 -1.852402687072754 2.3781768518635253 -1.5985892454730433 3.340601682662964 -0.057956591281289195 -0.7227472529886447 0.5454348176697987 -0.017881450851307587 2.8449446138354535 -0.8905014768490543
4.919894695281982 -1.4709356513670464 -1.8523530960083008 2.3781563478657226 -1.5986054579364222 3.340639114379883 -0.05794879798526091 -0.7227597074771082 0.5454616339726734 -0.017854037673138166 2.844905601707364 -0.8905118905081388
4.919885635375977 -1.4709728744677086 -1.8523545265197754 2.3781933027454834 -1.5985892454730433 3.3405895233154297 -0.05794554733477761 -0.7227770267621191 0.5454437393783698 -0.01790375262873045 2.844934376982248 -0.8905300469232247
4.919828414916992 -1.4709595006755372 -1.8523659706115723 2.3782009321400146 -1.598586384450094 3.340609312057495 -0.05799284211844864 -0.7227675517416052 0.5454453492154199 -0.01779308125693914 2.8449408895532162 -0.8905518752023511
4.91990327835083 -1.470919282441475 -1.85239839553833 2.378152056331299 -1.598593537007467 3.3406028747558594 -0.05794178865416814 -0.7227428265464851 0.5454392908593579 -0.017911633341278536 2.844942462985799 -0.8904791239915401
4.919939041137695 -1.4709312108210106 -1.85237455368042 2.3782095152088623 -1.598586384450094 3.340618133544922 -0.057916953221623 -0.7227630910539022 0.5454599363143084 -0.01793828165085726 2.844892488115977 -0.8905662119975202
4.919876575469971 -1.4709564757398148 -1.85233736038208 2.3781682687946777 -1.5985682646380823 3.340618133544922 -0.057963493906672436 -0.7227722555001116 0.5454629108728772 -0.017841222959069383 2.844941478704604 -0.8905487856879429
4.9198689460754395 -1.4709765327027817 -1.8523502349853516 2.3781768518635253 -1.5986188093768519 3.3405685424804688 -0.057946718958562224 -0.7227750870376061 0.5454411408569149 -0.017923240036119007 2.844929460806434 -0.890500380961155
4.919960021972656 -1.4709340345910569 -1.8523545265197754 2.3781606394001464 -1.5985906759845179 3.340580701828003 -0.057893476211042065 -0.722762872185764 0.5454646132265778 -0.018023356376917352 2.844912033151954 -0.890524466858829
4.919894695281982 -1.4709384825876732 -1.852348804473877 2.3781933027454834 -1.598614517842428 3.3405730724334717 -0.05793231020985393 -0.7227657648405794 0.5454718524868851 -0.017952573153588804 2.844890521747483 -0.8905718692562896
4.919852256774902 -1.470919282441475 -1.8524107933044434 2.3781606394001464 -1.5986383597003382 3.340601682662964 -0.057968697354248325 -0.7227368303348025 0.5454305257092401 -0.017860989614919925 2.8449219209940173 -0.890460379043537
4.919865608215332 -1.4709445771626015 -1.8523211479187012 2.378206177348755 -1.5985892454730433 3.3406436443328857 -0.057970775825638574 -0.7227761628709716 0.5454895537330541 -0.01779991509859478 2.8448802524858103 -0.8906234761058582
4.919869899749756 -1.4709312331727524 -1.8524107933044434 2.3781890112110595 -1.5985601584063929 3.3405776023864746 -0.057967246560754096 -0.7227478505494672 0.5454303690979133 -0.01788471392962134 2.8449767743519647 -0.8905256951346728
4.9198479652404785 -1.470894032423832 -1.8524236679077148 2.3781890112110595 -1.598553482686178 3.3405685424804688 -0.0579862571462289 -0.7227302989353055 0.5454469300487761 -0.01786402622691653 2.844975005420178 -0.8905681054406408
4.919878005981445 -1.470947579746582 -1.8523616790771484 2.378181143397949 -1.5986235777484339 3.340622663497925 -0.05795241095830815 -0.7227636370248876 0.5454517237773535 -0.017861694234574507 2.8448966192923395 -0.8905145959501578
4.919915199279785 -1.4709192600897332 -1.8523902893066406 2.3781890112110595 -1.5985773245440882 3.3405611515045166 -0.05792722102567349 -0.7227504503753893 0.54545427121017 -0.017981146504839354 2.8449348380850297 -0.8905544075386076
4.919845104217529 -1.4708939653686066 -1.8523659706115723 2.3781563478657226 -1.598581616078512 3.340613603591919 -0.05798876866345198 -0.7227392275836417 0.545482223596673 -0.017809782818323714 2.8449261914256008 -0.8905782741251353
4.919910907745361 -1.4709237676909943 -1.8523774147033691 2.3781606394001464 -1.598597828541891 3.3406269550323486 -0.057938424352049246 -0.7227512340080964 0.5454528888385952 -0.017890634718870486 2.8449156247901617 -0.8905042506099827
4.919861316680908 -1.4709103640965004 -1.8523902893066406 2.3781933027454834 -1.598555866871969 3.3406074047088623 -0.0579807017464835 -0.7227458748256845 0.5454604390647371 -0.017829217555290676 2.8449469535343184 -0.8905851465433586
4.9198689460754395 -1.470902906065323 -1.852363109588623 2.3782095152088623 -1.5985892454730433 3.3405730724334717 -0.05795960098709967 -0.7227510603136122 0.5454895440875804 -0.01790516807178195 2.844894599110864 -0.8906409300349855
4.919878005981445 -1.4709311586669465 -1.8523502349853516 2.3781933027454834 -1.598555866871969 3.340601682662964 -0.057963909178111464 -0.7227637871998605 0.5454764442848123 -0.017861576205058398 2.844932033904879 -0.8906088390447956
4.919865608215332 -1.4709147822907944 -1.8523459434509277 2.3781725603291015 -1.598555866871969 3.3406314849853516 -0.05798030107785425 -0.7227557715848202 0.5454861500931275 -0.017801862204571466 2.8449279946840482 -0.8906052193728667
4.919898986816406 -1.4709475946477433 -1.8524025678634644 2.3781606394001464 -1.5985682646380823 3.340634822845459 -0.05795478832982426 -0.7227539215266415 0.5454177876513552 -0.01784779017564095 2.844971302826813 -0.8904550901886283
4.919836521148682 -1.4709490102580567 -1.8523502349853516 2.3781682687946777 -1.598602596913473 3.3406119346618652 -0.05798466892789646 -0.7227631726352327 0.5454577100053629 -0.01780862146706093 2.844928792609601 -0.8905323075094818
4.919898986816406 -1.4709311586669465 -1.8523459434509277 2.3781768518635253 -1.598609749470846 3.3406195640563965 -0.05794029768572924 -0.7227625187777962 0.5454746370085651 -0.017890408638549057 2.844885855380885 -0.8905558755731137
4.919898986816406 -1.4709684339216729 -1.852402687072754 2.378181143397949 -1.5985892454730433 3.3405940532684326 -0.05793990514480342 -0.7227630717632614 0.5454079013970501 -0.017915045003249797 2.844964457393255 -0.8904513939275891
4.9198689460754395 -1.4709073615125199 -1.8523502349853516 2.3781890112110595 -1.5985692183123987 3.340580701828003 -0.05796518478703618 -0.7227535711195154 0.5454924532978455 -0.017885223140022576 2.8449164661377053 -0.8906338401864953
4.919856548309326 -1.4709564980915566 -1.85239839553833 2.3781890112110595 -1.5986011664019983 3.3405773639678955 -0.0579650518541821 -0.7227579335100877 0.5454211835838001 -0.017884418102790338 2.844954893409734 -0.89048913614199
4.919882297515869 -1.4709267255714913 -1.8523629903793335 2.3781606394001464 -1.5986235777484339 3.340585231781006 -0.05794408209425328 -0.7227528873998851 0.5454623549732369 -0.01792140977440987 2.8449050658370996 -0.8905198158481676
4.919804573059082 -1.4709267628243943 -1.8524069786071777 2.3781606394001464 -1.598609749470846 3.3406240940093994 -0.05801330343387767 -0.7227386958836877 0.5454282412820654 -0.017748209454947112 2.844954456119931 -0.890475791427435
4.919873237609863 -1.4709854137948533 -1.8523255586624146 2.3781768518635253 -1.5985844771014612 3.3406224250793457 -0.057960096309033496 -0.7227859925102682 0.5454528622075858 -0.017837389800733842 2.8449334515070728 -0.8905284454207574
4.919865608215332 -1.47093120337043 -1.85233736038208 2.3781890112110595 -1.598586384450094 3.3405849933624268 -0.05796212233610838 -0.722764548449207 0.5454850658202077 -0.017881905253819306 2.8449091224921115 -0.8906097186579675
4.919873237609863 -1.4709104013494034 -1.852381706237793 2.3781606394001464 -1.5986054579364222 3.3406436443328857 -0.0579684367965649 -0.7227432424676528 0.5454582528508087 -0.017817045657168018 2.844909529895795 -0.8905165196350007
4.919930934906006 -1.470977285211422 -1.8524150848388672 2.3781890112110595 -1.598614517842428 3.3405818939208984 -0.05790846318069667 -0.7227653480929724 0.5453936472024964 -0.017988782073234604 2.8449468629996204 -0.8904159800007542
4.919878005981445 -1.4709564980915566 -1.8523941040039062 2.3781890112110595 -1.598614517842428 3.3405773639678955 -0.057946303270145785 -0.7227598393343971 0.5454241029410056 -0.01792109239704174 2.844935780849795 -0.890483492793486
4.919836521148682 -1.4709610280445595 -1.8523459434509277 2.378152056331299 -1.598597828541891 3.3406436443328857 -0.05799131625036226 -0.7227667782662578 0.5454486149233422 -0.01776095528599822 2.8449397868909743 -0.8904963556151678
4.919845104217529 -1.4709282156876107 -1.8522969484329224 2.3781606394001464 -1.5985773245440882 3.3406107425689697 -0.057982976565414304 -0.7227686479938965 0.5455116373134827 -0.017812838663585576 2.8449061278435317 -0.8906336235454568
4.919836521148682 -1.470923700635769 -1.8523545265197754 2.3781563478657226 -1.598609749470846 3.3405566215515137 -0.057974553035074275 -0.7227506363316323 0.5454712139766434 -0.017891071940415004 2.844930654333706 -0.8905516364241777
4.919869899749756 -1.4709609609893342 -1.8523774147033691 2.3781391817280273 -1.598609749470846 3.340606212615967 -0.05795905682732185 -0.7227586231039154 0.5454231773303395 -0.017866192554781044 2.844957902543388 -0.8904312491768375
4.919910907745361 -1.4709400919130822 -1.8523459434509277 2.3781933027454834 -1.5985634962665003 3.3405940532684326 -0.057936010110351925 -0.7227696097953205 0.5454735193626012 -0.01792254541608393 2.8449219980233647 -0.890593500983816
4.919921875 -1.4709281858852883 -1.8523616790771484 2.3782259660908203 -1.598614517842428 3.3405730724334717 -0.05791323600422633 -0.7227650440820163 0.5454756346120339 -0.01799141423651933 2.844864931398769 -0.8906070015992901
4.9198899269104 -1.4709147673896332 -1.8523335456848145 2.3781768518635253 -1.598586384450094 3.3406314849853516 -0.05795507541637816 -0.7227598954552092 0.5454956263777027 -0.01785066099414649 2.844886473556198 -0.8906064997732853
4.919824123382568 -1.470935621564724 -1.8523731231689453 2.3781966406055908 -1.5985892454730433 3.3405985832214355 -0.05799543961327943 -0.7227562787818826 0.545455957107091 -0.01780394953886204 2.8449345352547546 -0.8905700175991973
4.919860363006592 -1.470935658817627 -1.8523815870285034 2.3781768518635253 -1.598551098500387 3.340580701828003 -0.05797529595893039 -0.7227544960374839 0.5454471421956052 -0.017863153110387806 2.8449779820179275 -0.8905487382427554
4.919845104217529 -1.4708983984640618 -1.8523941040039062 2.3781933027454834 -1.5986054579364222 3.3405730724334717 -0.057975511191679666 -0.7227379880420683 0.5454656839494133 -0.01787784682230145 2.8449140367001675 -0.8905795636811864
4.919887065887451 -1.4709520649961014 -1.8523545265197754 2.3781768518635253 -1.598586384450094 3.3406269550323486 -0.057954535979838795 -0.7227679588299385 0.545453960362762 -0.01785156146604995 2.84492449795046 -0.8905296728065688
4.919856548309326 -1.470894032423832 -1.8523616790771484 2.3781606394001464 -1.5985601584063929 3.340622663497925 -0.057986803465043264 -0.7227422238016328 0.5454865130255456 -0.01780352283455635 2.844933228107871 -0.890597154249124
4.919894695281982 -1.4709445771626015 -1.8523774147033691 2.3782095152088623 -1.598581616078512 3.3405818939208984 -0.057942077181695625 -0.7227643075812707 0.5454496749284768 -0.017924295767065525 2.8449267381827794 -0.8905629547811423
4.919906139373779 -1.4709073466113587 -1.85237455368042 2.3781847196766357 -1.598551098500387 3.3406107425689697 -0.057949689938721016 -0.7227501626185666 0.5454727839504676 -0.01788638545625027 2.844932024371978 -0.8905917794517315
4.9198899269104 -1.470960946088173 -1.8524025678634644 2.3781847196766357 -1.5985892454730433 3.3406150341033936 -0.05795105447273672 -0.7227606408714415 0.545413269192153 -0.017872518968705377 2.844954809463121 -0.8904640655449587
4.91990327835083 -1.4709267404726525 -1.8523545265197754 2.378119631404541 -1.598614517842428 3.3405730724334717 -0.05792920946299446 -0.722750637239147 0.5454613450916381 -0.01796426498359357 2.84492995648545 -0.890479042876997
4.919865608215332 -1.4709728744677086 -1.8523330688476562 2.3781768518635253 -1.598614517842428 3.340592861175537 -0.057954298725695665 -0.7227781053728433 0.5454560475904704 -0.01788244640061635 2.844915007362026 -0.8905264918772706
4.919856548309326 -1.470940114264824 -1.852312684059143 2.378173514003418 -1.5986054579364222 3.3405940532684326 -0.05796462386795202 -0.72277057996971 0.5454937793963205 -0.017865078372730915 2.8448935109783977 -0.8905998085710292
4.919869899749756 -1.4709401068142434 -1.8523731231689453 2.378163977260254 -1.598551098500387 3.3405730724334717 -0.057966469940752226 -0.7227568139934859 0.5454481711804985 -0.017887558102608392 2.8449827888742654 -0.8905364152600747
4.919897556304932 -1.4709103640965004 -1.8523335456848145 2.3781606394001464 -1.5985644499408167 3.3406314849853516 -0.05795527762929378 -0.7227571524990719 0.5454960675715498 -0.01785148660782834 2.844909608853323 -0.8906008191477793
4.919894695281982 -1.470935658817627 -1.8523731231689453 2.378197594279907 -1.5986383597003382 3.3405773639678955 -0.05792910555794861 -0.7227589164914663 0.5454555488144193 -0.017956798501817507 2.844880775537264 -0.8905351520499011
4.919898986816406 -1.4709162649563332 -1.8523459434509277 2.3781682687946777 -1.598555866871969 3.340585231781006 -0.05794704719544231 -0.7227571024302036 0.5454856612263733 -0.017915080250290292 2.8449340796036204 -0.8906000023737645
4.919854164123535 -1.47093120337043 -1.8524022102355957 2.3781725603291015 -1.5986188093768519 3.3405818939208984 -0.05796619333907427 -0.7227451801762248 0.545432116812816 -0.01788300667693617 2.844936856144625 -0.8904859661823195
4.919921875 -1.470947579746582 -1.8523292541503906 2.3782095152088623 -1.5985601584063929 3.3405940532684326 -0.057927000233934045 -0.7227792199762866 0.5454841735003837 -0.017936989808605378 2.84490615628432 -0.8906273049274118
4.919865608215332 -1.4709520277431984 -1.8523377180099487 2.3781847196766357 -1.5985725561725062 3.3406074047088623 -0.05796825069212085 -0.722771950291675 0.5454691508391457 -0.017843121064849466 2.8449307528964782 -0.8905784412896901
4.919906139373779 -1.4709192898920556 -1.8523616790771484 2.3781768518635253 -1.5985682646380823 3.3406314849853516 -0.05794855747700269 -0.722756207406757 0.5454716475092743 -0.01786461570516508 2.844917295180017 -0.8905691216837185
4.919878005981445 -1.4709057223847886 -1.8524266481399536 2.3781725603291015 -1.598635498677389 3.340580701828003 -0.057948103269788796 -0.7227311462783702 0.5454309788372333 -0.017926196991063792 2.8449167191732085 -0.890473939256893
4.919906139373779 -1.4709192898920556 -1.8523459434509277 2.3781563478657226 -1.5985601584063929 3.3406481742858887 -0.05795341949400942 -0.7227575941488578 0.5454792572503806 -0.017837380981018707 2.844922720402208 -0.8905636785981293
4.919898986816406 -1.470935658817627 -1.852370262145996 2.3781682687946777 -1.5985773245440882 3.340630292892456 -0.05795088362170944 -0.7227581424198847 0.5454519177788514 -0.017859561498248983 2.8449328474866946 -0.8905208437763257
4.9198408126831055 -1.4709639486721535 -1.8523775339126587 2.3782095152088623 -1.598581616078512 3.3405730724334717 -0.05797783973843901 -0.7227679627808988 0.5454363783473866 -0.017859801434686653 2.8449549739009687 -0.8905492084633083
4.919894218444824 -1.4709594634226342 -1.8523941040039062 2.3781563478657226 -1.598551098500387 3.3405685424804688 -0.057947826655794454 -0.7227590073014003 0.545417494516836 -0.01792746884224296 2.845007312103971 -0.8904680231518661
4.919878005981445 -1.4708776634982605 -1.8523545265197754 2.3781890112110595 -1.5985682646380823 3.3405773639678955 -0.05796063102010588 -0.7227424583226276 0.5455099789610143 -0.017903059729895147 2.8448999245569055 -0.8906673506237706
4.919836521148682 -1.4709104013494034 -1.85237455368042 2.3781768518635253 -1.598551098500387 3.340606212615967 -0.05799909037329551 -0.7227460880685308 0.5454692630443955 -0.017793768463765687 2.84495795611427 -0.8905917902430189
4.919861316680908 -1.4710062828711052 -1.8523545265197754 2.3782052236744384 -1.5985725561725062 3.3406107425689697 -0.0579682815258553 -0.7227898725965775 0.5454226066667712 -0.0178306434703619 2.8449625427771723 -0.8905107697893363
4.9198689460754395 -1.4709565055421372 -1.852381706237793 2.378147764796875 -1.598614517842428 3.340592861175537 -0.057956358520200535 -0.7227568345966049 0.5454249818374222 -0.01788610023399459 2.8449521083182012 -0.8904433131410918
4.919873237609863 -1.4709683966687699 -1.8523774147033691 2.3781563478657226 -1.5985773245440882 3.3405895233154297 -0.05795967927791117 -0.7227645057334899 0.5454226391211259 -0.017879911730010765 2.844981513307259 -0.8904643933151023
4.919910907745361 -1.470923737888672 -1.852341651916504 2.37813584386792 -1.598581616078512 3.3406028747558594 -0.05793616239531517 -0.722756560665125 0.5454762427973545 -0.017918244066204785 2.8449277037181964 -0.8905324024014433
4.919882297515869 -1.4709192898920556 -1.852394461631775 2.378127260799072 -1.598602596913473 3.3405492305755615 -0.05794476153062087 -0.7227382852325068 0.5454388095998695 -0.017962216673764034 2.8449663572205033 -0.8904609582224086
4.919894218444824 -1.4708999258330842 -1.8523125648498535 2.3781444269367675 -1.5985639731036585 3.3405535221099854 -0.05794253934890979 -0.7227551349464503 0.54551837027755 -0.017958206636417208 2.84492021086937 -0.8906375806200854
4.919878005981445 -1.4709520277431984 -1.8523502349853516 2.3781768518635253 -1.5985601584063929 3.3406107425689697 -0.05796359994631484 -0.722768975121391 0.5454583560754691 -0.01784995153547241 2.8449494410407152 -0.8905545502559332
4.919894695281982 -1.4709728819182892 -1.8523588180541992 2.3781606394001464 -1.5985892454730433 3.340606212615967 -0.05794336976812588 -0.7227722611351022 0.5454336319053896 -0.01789245892896376 2.844950783627625 -0.8904751755667868
4.919861316680908 -1.470952035193779 -1.8523659706115723 2.3781682687946777 -1.5985754171954554 3.3406107425689697 -0.05797323963586129 -0.7227626507205034 0.5454444059386089 -0.017832702363143788 2.8449564198394923 -0.890516980559056
4.9198899269104 -1.4709445771626015 -1.852430820465088 2.378169222468994 -1.5985601584063929 3.3405730724334717 -0.05795242463728471 -0.7227462167526097 0.5454022271003836 -0.017918595503907443 2.8450055812362316 -0.8904511384289833
4.919878005981445 -1.4709773373654862 -1.8523746728897095 2.3781649309345703 -1.5985644499408167 3.3405566215515137 -0.057951616993450326 -0.7227697649042172 0.5454214617638884 -0.017927602803116557 2.844997276114168 -0.8904800999099713
4.919907569885254 -1.4709684339216729 -1.852370262145996 2.3781606394001464 -1.598581616078512 3.3406481742858887 -0.05794499166833593 -0.7227693839901903 0.5454270061902171 -0.017847345379258514 2.844947843849729 -0.8904589859264773
4.9198408126831055 -1.4709267404726525 -1.8523616790771484 2.3781444269367675 -1.5985773245440882 3.340618133544922 -0.05799138148098051 -0.7227502429146795 0.545460330165867 -0.01779445158957676 2.8449547312646204 -0.8905262019680877
4.919885635375977 -1.470935658817627 -1.8523788452148438 2.3781649309345703 -1.598581616078512 3.3406269550323486 -0.057959430129414194 -0.7227546997462101 0.545444771088303 -0.017847047309354224 2.8449410175576917 -0.8905058311296091
4.919816493988037 -1.4709311810186882 -1.8523573875427246 2.3782095152088623 -1.598586384450094 3.340618133544922 -0.058004650179954875 -0.7227600888890501 0.5454729398236913 -0.017764597443876387 2.8449136517703373 -0.8906136275544031
4.919924259185791 -1.4709684190205117 -1.8523731231689453 2.3781725603291015 -1.5986054579364222 3.340613603591919 -0.05792054533132379 -0.7227702268730436 0.545427620718894 -0.017931171207398667 2.844926879508728 -0.8904619925718379
4.919926643371582 -1.4709431242993851 -1.8523530960083008 2.3782095152088623 -1.5985773245440882 3.3405818939208984 -0.05791882193687282 -0.7227715822241637 0.5454691822426507 -0.01796839592316544 2.844905923833704 -0.8905935346111203
4.9198689460754395 -1.4709057223847886 -1.852381706237793 2.3781649309345703 -1.5985773245440882 3.3405895233154297 -0.057967455460396736 -0.7227420416690019 0.5454646416241176 -0.017875372581120857 2.8449410995521713 -0.8905552446653968
4.919869899749756 -1.470972941522934 -1.8523731231689453 2.3781444269367675 -1.5986235777484339 3.3405895233154297 -0.057951382137654855 -0.7227640656363032 0.5454192732467278 -0.017896103029290806 2.8449522195093735 -0.8904238858536174
4.91990327835083 -1.4709237527898331 -1.8523545265197754 2.3781120020100097 -1.5985725561725062 3.340606212615967 -0.057945667938100714 -0.722750070805029 0.5454619754874453 -0.017897986147990604 2.8449589538432782 -0.8904886842799524
4.919861316680908 -1.4710017827204247 -1.8523573875427246 2.3781933027454834 -1.5985773245440882 3.34059739112854 -0.05796536207033735 -0.7227856647470581 0.5454215321160323 -0.017851761653715714 2.8449682205632802 -0.8904970130562765
4.919906139373779 -1.4709148418954392 -1.85237455368042 2.3781768518635253 -1.598597828541891 3.3405895233154297 -0.05793457606395874 -0.7227502306834719 0.5454655303272031 -0.017937607833243576 2.8449086112698314 -0.8905502920034707
4.919878959655762 -1.4709400993636628 -1.8523659706115723 2.3781768518635253 -1.598668400441305 3.3406028747558594 -0.05793856573187591 -0.7227579470139548 0.5454523380651667 -0.017911667563615872 2.84486532899128 -0.8904928299733579
4.919869899749756 -1.470886455183365 -1.8523898124694824 2.3781768518635253 -1.5985410849200647 3.3405611515045166 -0.0579709039684351 -0.7227355669789708 0.5454759588182221 -0.017901026396315845 2.844962952524314 -0.8906111463603199
4.919882297515869 -1.4709683817676087 -1.8524022102355957 2.378152056331299 -1.5985353628741663 3.3406481742858887 -0.05797558430904029 -0.7227603413579964 0.5454023410136231 -0.017789496195844055 2.8450171689845973 -0.8904343696343773
4.919836521148682 -1.470919282441475 -1.8523731231689453 2.3781606394001464 -1.598593537007467 3.340606212615967 -0.057989178691035564 -0.7227462223431869 0.5454599758788392 -0.017812748616249256 2.8449380168384475 -0.8905372147199696
4.919885635375977 -1.470981740658619 -1.8523659706115723 2.3781725603291015 -1.598555866871969 3.3406107425689697 -0.057957754763333924 -0.7227757798220603 0.5454250650422214 -0.017857644154785805 2.8449818150964634 -0.8904884970711078
4.919873237609863 -1.470947579746582 -1.8523898124694824 2.3781606394001464 -1.5985725561725062 3.3406150341033936 -0.05796787004654049 -0.7227551279278113 0.5454279291890652 -0.017841662761375353 2.844971356115263 -0.8904789801926601
4.919845104217529 -1.4709728223136445 -1.8523898124694824 2.3781606394001464 -1.5985773245440882 3.340601682662964 -0.05798260440883403 -0.7227622136588138 0.5454106591368693 -0.017822229095444855 2.844993682296681 -0.8904507406079567
4.919878959655762 -1.4709445548108597 -1.852381706237793 2.378143473262451 -1.598621670399801 3.3406569957733154 -0.05796116920405369 -0.7227531271957975 0.5454303699865547 -0.017812518430484564 2.844923391275292 -0.890435047548628
4.919832706451416 -1.4709176433137436 -1.8523688316345215 2.378180428142212 -1.5985859076129358 3.3405566215515137 -0.05798325558278271 -0.722748770655862 0.5454698777636022 -0.017874803920272714 2.8449413436056554 -0.8905865138571227
4.919891357421875 -1.4709684190205117 -1.8523616790771484 2.3781606394001464 -1.598597828541891 3.3405685424804688 -0.05793688350282266 -0.7227691095710651 0.5454354834870072 -0.01794530623637879 2.844952782298257 -0.8904808665158886
4.919885635375977 -1.47093120337043 -1.852370262145996 2.3781606394001464 -1.598626438771383 3.3405940532684326 -0.0579428012894968 -0.7227529626416879 0.5454534092453588 -0.017914592083881086 2.8449070301115027 -0.8905000862378163
4.919906139373779 -1.4709445399096985 -1.8523502349853516 2.3781847196766357 -1.598581616078512 3.340642213821411 -0.057944977459394545 -0.7227687930967143 0.545463632175796 -0.01785513479276212 2.8449075464352505 -0.8905518854515165
4.919906139373779 -1.4709445771626015 -1.8523859977722168 2.3781933027454834 -1.598593537007467 3.340585231781006 -0.05793263229234185 -0.722760412647437 0.5454396361882655 -0.017940864232883727 2.8449285717419293 -0.8905202732892351
4.9198689460754395 -1.470952035193779 -1.8523941040039062 2.378163977260254 -1.5985601584063929 3.3406107425689697 -0.05797272840799662 -0.7227561855177385 0.5454226665400438 -0.01783584140940438 2.844986978454326 -0.8904800675736655
4.919898986816406 -1.470940114264824 -1.8524237871170044 2.3781933027454834 -1.598597828541891 3.3406314849853516 -0.057948227954545004 -0.7227497832045405 0.545412676854268 -0.01786593354312766 2.844936443447665 -0.8904654490297329
4.919910907745361 -1.470947579746582 -1.8523898124694824 2.3782095152088623 -1.5985363165484827 3.3406107425689697 -0.05794671215475247 -0.7227649307777817 0.5454384591945833 -0.017885242555640817 2.844961993245251 -0.8905575920014074
4.919827461242676 -1.470935658817627 -1.8523645401000977 2.378147764796875 -1.5985692183123987 3.3405940532684326 -0.0579975040443234 -0.7227523588632294 0.5454535308204256 -0.017805812747413333 2.84497588414709 -0.8905266391155922
4.919869899749756 -1.470935658817627 -1.8523125648498535 2.3781725603291015 -1.598609749470846 3.340634822845459 -0.05796240317906396 -0.7227700266991595 0.5454954622318032 -0.017828053449942906 2.844874429045047 -0.89059163211273
4.919898986816406 -1.470919282441475 -1.852402687072754 2.378163977260254 -1.5986054579364222 3.3405895233154297 -0.05793946438195907 -0.7227426940654885 0.5454384725343202 -0.017929969189096236 2.844932420442332 -0.8904865278120712
4.919913291931152 -1.470947579746582 -1.8523859977722168 2.3781933027454834 -1.5985892454730433 3.3406271934509277 -0.057936493165471066 -0.7227625120935245 0.5454364034352825 -0.017889242844415933 2.8449219189124637 -0.8905087934242611
4.919887065887451 -1.4709267628243943 -1.852381706237793 2.3782052236744384 -1.598602596913473 3.340634822845459 -0.057954956486211656 -0.722755946598931 0.5454558903832949 -0.01784793537563733 2.8448930814453495 -0.8905551174144852
4.919898986816406 -1.470923737888672 -1.85233736038208 2.3781768518635253 -1.5986560026751917 3.3405940532684326 -0.057924913320219804 -0.7227603572727572 0.5454859179921863 -0.017948193495768535 2.8448444293722837 -0.8905576610911884
4.919858455657959 -1.4709267628243943 -1.8523945808410645 2.378152056331299 -1.598609749470846 3.340601682662964 -0.057969527273262864 -0.7227433529737937 0.5454366141233514 -0.01785692735721312 2.844943471121683 -0.8904746434190198
4.9198737144470215 -1.4708939802697678 -1.852370262145996 2.3781606394001464 -1.5985844771014612 3.3406271934509277 -0.05797023220490359 -0.7227405324222735 0.5454793283374859 -0.01783231235312818 2.8449131689721656 -0.8905683630340373
4.919898986816406 -1.4709476095489045 -1.8523459434509277 2.3781563478657226 -1.598555866871969 3.3406107425689697 -0.05795005506461358 -0.7227669589615604 0.5454607865205453 -0.017877850255408466 2.844954711870904 -0.8905367750059502
4.919860363006592 -1.470935658817627 -1.852325439453125 2.3781725603291015 -1.5985773245440882 3.3406107425689697 -0.05797253571617336 -0.7227669941647927 0.5454872351252443 -0.017833707149498473 2.8449171318192086 -0.8905983769063889
4.919863224029541 -1.4709431317499657 -1.852385401725769 2.3781606394001464 -1.598564926777975 3.340601682662964 -0.05797430418509686 -0.7227540683745168 0.5454349418357798 -0.017843201735063565 2.844977900704805 -0.8904996032224095
4.919869899749756 -1.4709237229875107 -1.8523659706115723 2.378152056331299 -1.598597828541891 3.3405730724334717 -0.05795706905425879 -0.7227497729700465 0.5454615089887218 -0.017909315895269517 2.84493747240386 -0.8905269521827228
4.919865608215332 -1.4709445548108597 -1.8524152040481567 2.378173514003418 -1.5986397902118128 3.3405818939208984 -0.05795281823530725 -0.7227470492915739 0.5454126796628096 -0.017908150115373514 2.8449325670534047 -0.8904383486386185
4.9198689460754395 -1.470959485774376 -1.85239839553833 2.3781768518635253 -1.598609749470846 3.340601682662964 -0.057959046400808525 -0.7227581089414727 0.545415804694405 -0.017871124257027728 2.8449481465272903 -0.890456865270629
4.919898986816406 -1.4709103789976616 -1.8523659706115723 2.3782009321400146 -1.5985682646380823 3.3406269550323486 -0.05795308591084557 -0.7227548218705221 0.5454794210152838 -0.017861234017736812 2.8449025423673087 -0.8906100747638118
4.9198479652404785 -1.470954881315567 -1.8524266481399536 2.378152056331299 -1.598614517842428 3.340585231781006 -0.0579723229909232 -0.7227447687383957 0.5453931852829015 -0.01786608137940217 2.8449836607290138 -0.8903965769586357
4.919894695281982 -1.4709312108210106 -1.8523377180099487 2.3782095152088623 -1.5985577742206019 3.3405773639678955 -0.0579455451378742 -0.7227696457104265 0.5454897090680866 -0.017921251070652903 2.8449142947553185 -0.8906479084893972
4.919828414916992 -1.4709400993636628 -1.8523898124694824 2.3781725603291015 -1.598593537007467 3.340606212615967 -0.05799402365207196 -0.7227508103070017 0.5454352010559511 -0.017800379756163828 2.8449560629664834 -0.8905044887386664
4.919849872589111 -1.4709683668664475 -1.85239839553833 2.3781768518635253 -1.5985892454730433 3.3405940532684326 -0.05797530118877548 -0.7227606430398863 0.5454103580903713 -0.017845331553511673 2.8449771567080004 -0.8904612128943292
4.9198689460754395 -1.470894032423832 -1.8523459434509277 2.378152056331299 -1.5985692183123987 3.3405940532684326 -0.057969566157137976 -0.7227449522360163 0.5454973734690933 -0.017866330339972696 2.844925070511407 -0.890605097301787
4.919845104217529 -1.4709973198226471 -1.8523616790771484 2.3781890112110595 -1.598630730305807 3.3405940532684326 -0.057965004718872386 -0.7227800160693533 0.5454193482359304 -0.01785774586571202 2.844932293489464 -0.8904667379556926
4.9198899269104 -1.470919282441475 -1.852381706237793 2.3781682687946777 -1.598626438771383 3.3405773639678955 -0.05793768013101941 -0.7227470620607503 0.5454550253045366 -0.01794453397647779 2.844904958241629 -0.8905134635003605
4.919861316680908 -1.4709773373654862 -1.8523459434509277 2.3781933027454834 -1.598609749470846 3.3406152725219727 -0.05796279699631519 -0.7227790081871626 0.545445859344309 -0.01784196757505585 2.8449152100599053 -0.8905243141132813
4.919924259185791 -1.47096090883527 -1.8523459434509277 2.3781606394001464 -1.5985892454730433 3.3405728340148926 -0.0579156482040776 -0.722772391233693 0.5454526880676702 -0.017982632411879085 2.844935748329562 -0.890509313644051
4.9198737144470215 -1.4708865222385903 -1.8523898124694824 2.378152056331299 -1.5985725561725062 3.3406195640563965 -0.057973204511442555 -0.7227322529556287 0.54546857536217 -0.017837364547546104 2.8449375235112955 -0.8905484611973665
4.919861316680908 -1.4709028986147423 -1.8523459434509277 2.3781563478657226 -1.598626438771383 3.3406314849853516 -0.05796875037245623 -0.722747134909268 0.545489530707528 -0.01782803996322863 2.844874263176748 -0.8905624005787769
4.919849872589111 -1.4709267628243943 -1.852385401725769 2.3782009321400146 -1.598614517842428 3.3405492305755615 -0.057962545573090773 -0.7227509808752753 0.5454545183813189 -0.01792226635369172 2.8449186904544232 -0.8905623515094742
4.9198479652404785 -1.4709728744677086 -1.8523746728897095 2.3781682687946777 -1.5986011664019983 3.3405818939208984 -0.05797025817870087 -0.7227661805316392 0.5454235646902326 -0.01786577786704056 2.844964242819733 -0.8904718714848352
4.919882297515869 -1.470980943446495 -1.8523731231689453 2.3782052236744384 -1.5986641089068812 3.3405895233154297 -0.05793105949191217 -0.7227748345587389 0.5454245560741255 -0.01793250040338371 2.844883497319451 -0.8904708407262785
4.9198899269104 -1.470935658817627 -1.852381706237793 2.3781606394001464 -1.598602596913473 3.3405895233154297 -0.05794445132069681 -0.7227526594823281 0.5454423739054423 -0.01791588541622885 2.844936297186549 -0.8904915449446305
4.919856548309326 -1.4709028986147423 -1.852381706237793 2.3782095152088623 -1.598555866871969 3.3406360149383545 -0.057989489618051344 -0.7227475431860666 0.545474425589775 -0.01778225347184875 2.844921310884893 -0.8906238094764488
4.919913291931152 -1.4709475871971627 -1.8523459434509277 2.3781682687946777 -1.598586384450094 3.3405895233154297 -0.05792831181348544 -0.7227683213647301 0.5454630090233142 -0.017942387024245877 2.844923919218626 -0.8905378833103764
4.919885635375977 -1.4709684190205117 -1.8523859977722168 2.378197594279907 -1.5985844771014612 3.3406269550323486 -0.057955845086152105 -0.7227690580568285 0.5454228730510402 -0.017847624143659122 2.8449433368955055 -0.8904946635284854
4.919852256774902 -1.4709548664144059 -1.8523529767990112 2.378152056331299 -1.598555866871969 3.3406269550323486 -0.05798696081863973 -0.7227647597580409 0.5454491030946462 -0.01778796131331018 2.8449744479904013 -0.8905178515833834
4.919861316680908 -1.470923737888672 -1.8523545265197754 2.3781391817280273 -1.598564926777975 3.3406107425689697 -0.05797790396578928 -0.7227516092588735 0.5454673293125561 -0.017828681787476094 2.844958213973752 -0.8905368200284932
4.919860363006592 -1.4709312182715912 -1.8523616790771484 2.3781933027454834 -1.5986068884478968 3.3405745029449463 -0.05796033337838048 -0.722758326028867 0.5454673101039758 -0.017898137510667718 2.844908796472081 -0.8905749492761054
4.9198408126831055 -1.4709595006755372 -1.8523774147033691 2.3781725603291015 -1.5985692183123987 3.340590715408325 -0.057985422877811804 -0.7227619035448634 0.5454321437073734 -0.017828822485303666 2.844980737721556 -0.8905087170617715
4.919856548309326 -1.4709564757398148 -1.8523529767990112 2.3781725603291015 -1.598602596913473 3.3405849933624268 -0.05796434550807502 -0.7227666084539548 0.5454520837056904 -0.01787522152451997 2.844933800642889 -0.8905257453369049
4.919894695281982 -1.4709192898920556 -1.8524237871170044 2.3781768518635253 -1.5985892454730433 3.3406107425689697 -0.057951163320728485 -0.7227398479517878 0.5454247804937065 -0.017885851203688265 2.844946777293713 -0.8904808372141045
4.9198689460754395 -1.4709148567966004 -1.852385401725769 2.3781649309345703 -1.598602596913473 3.3405356407165527 -0.057950607744643334 -0.7227430859284618 0.5454564829169658 -0.01796327780369944 2.8449415234142577 -0.89053516140246
4.919845104217529 -1.4709312108210106 -1.8523774147033691 2.3782095152088623 -1.598609749470846 3.340601682662964 -0.05797645991849265 -0.7227561277913115 0.5454576914923989 -0.017838795583512573 2.8449036315402343 -0.8905717564553458
4.919885635375977 -1.4709192973426362 -1.8523731231689453 2.3781563478657226 -1.5986011664019983 3.3405356407165527 -0.05793813504498672 -0.722747444732458 0.5454610455020845 -0.017986465547685668 2.8449387711799696 -0.8905315859381296
4.919887065887451 -1.4708939802697678 -1.8523545265197754 2.3781606394001464 -1.598626438771383 3.34063458442688 -0.057951744374827446 -0.7227440126181394 0.5454899833094045 -0.017860257661061255 2.8448639721436835 -0.8905629070590316
4.919930934906006 -1.4709475946477433 -1.8523205518722534 2.3781933027454834 -1.5986231009112757 3.3406527042388916 -0.0579177706791549 -0.7227785884034973 0.5454843019774802 -0.017895065298915033 2.8448429581067747 -0.8905699869632718
4.919882297515869 -1.4709430795959015 -1.852402687072754 2.3782009321400146 -1.5985892454730433 3.3406107425689697 -0.05795663635247811 -0.7227559607568219 0.5454288859285283 -0.017868385032035472 2.844936822615108 -0.8905121080713289
4.919943332672119 -1.470919282441475 -1.8523941040039062 2.3781563478657226 -1.5986383597003382 3.3405849933624268 -0.05789883753249895 -0.7227453205594704 0.5454428093497368 -0.018014552332390524 2.844894572284153 -0.8904622590926174
4.91982364654541 -1.4709148195436974 -1.8523774147033691 2.3781768518635253 -1.598614517842428 3.3405985832214355 -0.057992358492735784 -0.7227444058072781 0.5454627043042618 -0.017815016004932755 2.8449160285159554 -0.8905521094904515
4.919832706451416 -1.4709609535387536 -1.8523731231689453 2.3781682687946777 -1.598609749470846 3.3406107425689697 -0.05798585095347862 -0.7227615200353745 0.5454319563018932 -0.017807263260857523 2.8449458757259025 -0.8904826764860546
4.919869899749756 -1.4709326562336464 -1.8523377180099487 2.3781933027454834 -1.598564926777975 3.3405849933624268 -0.05796367201899197 -0.7227664039680686 0.5454851452509083 -0.017878229688462907 2.844923958012595 -0.8906237079946637
4.919856548309326 -1.4708820593408127 -1.8523502349853516 2.3781725603291015 -1.5985444227801722 3.340585231781006 -0.05798297011866452 -0.7227423093486709 0.5455073136578669 -0.017850368127094497 2.84493321217266 -0.8906605229070018
4.919898986816406 -1.4709118169597168 -1.8524150848388672 2.378213091487549 -1.598593537007467 3.340618133544922 -0.057947712037195474 -0.7227444361004006 0.5454432885294068 -0.017884111876702993 2.8449080024926974 -0.890546754036564
4.919873237609863 -1.4709192898920556 -1.8523659706115723 2.3781401354023437 -1.5985773245440882 3.340622663497925 -0.0579697290287019 -0.7227479039936306 0.5454612943111304 -0.017834114751188488 2.844945895456268 -0.8905173361224399
4.919852256774902 -1.470935658817627 -1.85233736038208 2.3782216745563964 -1.5986173788653772 3.340601682662964 -0.05796686574724677 -0.7227691746936149 0.5454870731826952 -0.01785345227158569 2.8448659523195623 -0.8906304552296096
4.9198689460754395 -1.4709817928126832 -1.8523502349853516 2.3781847196766357 -1.598593537007467 3.3406107425689697 -0.05796016792614478 -0.722779229899734 0.5454383758369242 -0.01785158148300194 2.8449382451658267 -0.8905090734990779
4.919864654541016 -1.4709148195436974 -1.8523731231689453 2.3781935411640625 -1.5985601584063929 3.3405940532684326 -0.05797346610828474 -0.7227515266815641 0.5454706631532835 -0.017855254515368145 2.8449377806038867 -0.8906022294454065
4.919882297515869 -1.4709728744677086 -1.852419376373291 2.3781847196766357 -1.598553482686178 3.3405773639678955 -0.05795719128828852 -0.722760961584018 0.5453942596856387 -0.017898317406660504 2.8450128694469123 -0.890453601137206
4.919824123382568 -1.4709639561227341 -1.8523378372192383 2.3781563478657226 -1.598564926777975 3.340618133544922 -0.058001938415380414 -0.722770231582876 0.5454551096471025 -0.01776486603989005 2.8449701106276573 -0.8905342346542016
4.919926643371582 -1.4709684190205117 -1.8523898124694824 2.3781472879597167 -1.598555866871969 3.340526819229126 -0.057914425021610455 -0.7227632463966529 0.5454138750932614 -0.01803493165038318 2.8450135724050796 -0.8904488447649318
4.919882297515869 -1.4709809881499787 -1.8523858785629272 2.3781563478657226 -1.5985682646380823 3.340604782104492 -0.05795768558367727 -0.7227679236130571 0.5454072501855599 -0.017866396686807715 2.844995916534866 -0.8904361344895987
4.9198899269104 -1.47093120337043 -1.8523774147033691 2.3781680303760986 -1.598609749470846 3.3405895233154297 -0.05794275260669794 -0.7227529116505149 0.54544998162925 -0.017919429001957095 2.844920487563669 -0.8905094181746864
4.919906139373779 -1.4709548738649865 -1.8523859977722168 2.3781680303760986 -1.5985773245440882 3.3405940532684326 -0.05793793561460056 -0.7227611818180628 0.5454276899265987 -0.01792043879936828 2.844961604788431 -0.8904793391282715
4.919837474822998 -1.4709899139455338 -1.8523545265197754 2.3781518179127197 -1.5985859076129358 3.3405520915985107 -0.05797353814440452 -0.7227742953481829 0.5454250108792693 -0.017886305458455532 2.8449948076106595 -0.8904700524713163
4.919898986816406 -1.4709773373654862 -1.8523616790771484 2.3781561094471435 -1.598621670399801 3.3405566215515137 -0.05792307508486495 -0.7227713197691761 0.5454281729703834 -0.017983704100242734 2.844942596601158 -0.8904508648365573
4.919873237609863 -1.4708893460086365 -1.8523502349853516 2.378159208888672 -1.598581616078512 3.3405656814575195 -0.05795844048908774 -0.7227428031331168 0.5454993208032499 -0.01791854556376948 2.8449160740161687 -0.8906133978428066
4.919919967651367 -1.4709384825876732 -1.8523731231689453 2.3781606394001464 -1.598564926777975 3.3405492305755615 -0.05792265682528049 -0.7227580187799052 0.5454490225519847 -0.01799895627720787 2.8449653341185352 -0.8905214928088555
4.919856548309326 -1.4709401068142434 -1.852370262145996 2.3781518179127197 -1.5985844771014612 3.340564012527466 -0.057966952880539574 -0.7227540426425185 0.5454474214503562 -0.017896642891793813 2.8449669877516075 -0.8905104509229614
4.919856548309326 -1.470935658817627 -1.8523941040039062 2.3781847196766357 -1.5986173788653772 3.3406269550323486 -0.057972623405030885 -0.7227510827134087 0.5454362095770875 -0.017821777543729145 2.84491673650262 -0.8904985973293678
4.919861316680908 -1.470895343726017 -1.8523811101913452 2.3781770902821044 -1.598609749470846 3.340618133544922 -0.05797170788852583 -0.7227391502944402 0.5454730311442243 -0.017838933522313256 2.8448954505740294 -0.89056483301123
4.9198899269104 -1.4709192898920556 -1.852342128753662 2.3781472879597167 -1.598593537007467 3.3406240940093994 -0.057952874934408344 -0.7227551314663585 0.5454802795120124 -0.017863843147755663 2.8449087970099742 -0.890546716324034
4.919906139373779 -1.470947579746582 -1.8523659706115723 2.3781472879597167 -1.5985859076129358 3.340630292892456 -0.057943213113617935 -0.7227607361570224 0.5454425800534186 -0.01787325058860019 2.8449416651919273 -0.8904763212699662
4.919917583465576 -1.4709118169597168 -1.852385401725769 2.3781770902821044 -1.5985844771014612 3.3405447006225586 -0.05792125097734119 -0.7227470842354345 0.5454611368699448 -0.018011423972551552 2.8449320647532104 -0.8905538790205423
4.91990327835083 -1.4709073689631005 -1.8523941040039062 2.3781563478657226 -1.598597828541891 3.3406195640563965 -0.057944670241038485 -0.7227402702538323 0.5454510532063672 -0.017890270634927055 2.8449222253961635 -0.8905010643424446
4.919885635375977 -1.4709943768433114 -1.852381706237793 2.3781518179127197 -1.598593537007467 3.340606212615967 -0.05794874399382466 -0.7227725982649649 0.5453995539250557 -0.01788032772719609 2.844982635506591 -0.890403167660434
4.919898986816406 -1.4709520277431984 -1.8523898124694824 2.3781441885181884 -1.598614517842428 3.3405895233154297 -0.05793483021516742 -0.7227545079399098 0.5454213677725986 -0.017933412689639106 2.8449495684007147 -0.8904283258049781
4.919864654541016 -1.4709356886199494 -1.85239839553833 2.3781472879597167 -1.598626438771383 3.340618133544922 -0.05796417284374195 -0.7227450685432086 0.5454256967470724 -0.017849535332769482 2.844935138321729 -0.8904376720801819
4.9198689460754395 -1.470968374317028 -1.852406620979309 2.3781606394001464 -1.598630730305807 3.3406150341033936 -0.05795711812221513 -0.7227566770072837 0.5453993367515484 -0.017861076185089225 2.844948447565393 -0.8903981530245745
4.919898986816406 -1.470972904270031 -1.8523831367492676 2.3781892496296386 -1.5985320250140589 3.3406152725219727 -0.05795549240700576 -0.7227722759517633 0.5454219240849726 -0.01785924874976284 2.844991553588583 -0.8905090086798553
4.919852256774902 -1.470952035193779 -1.8524152040481567 2.3781768518635253 -1.598527733479635 3.3405654430389404 -0.05798392416583707 -0.7227522752010997 0.5454113572894035 -0.017861457223531434 2.8450338487658935 -0.8904987241017006
4.919836044311523 -1.4709564980915566 -1.8523502349853516 2.3781606394001464 -1.598614517842428 3.3406271934509277 -0.057984970113130814 -0.7227646278871953 0.5454502722252406 -0.017791381204858913 2.8449248668570952 -0.8905026546877786
4.9198689460754395 -1.470994309788086 -1.8523297309875488 2.3781561094471435 -1.5985310713397425 3.3405520915985107 -0.057961488062042536 -0.7227857159314088 0.5454428827855977 -0.017906632076908607 2.8450159679755056 -0.8905263638767077
4.919865608215332 -1.4709148195436974 -1.8523459434509277 2.3782054620930175 -1.598593537007467 3.3405818939208984 -0.057961123161523076 -0.7227586617727255 0.5454930867887061 -0.017889917097824542 2.844889069827355 -0.8906391386559976
4.919852256774902 -1.4709728744677086 -1.8523859977722168 2.3781563478657226 -1.598548714314596 3.3405447006225586 -0.05797257153827013 -0.722763084811963 0.5454150685427154 -0.017900579243091474 2.8450292165451345 -0.8904752230956477
4.919854164123535 -1.4709028986147423 -1.8523898124694824 2.3782221513935546 -1.598609749470846 3.3405699729919434 -0.05796606833166712 -0.7227449335831723 0.5454714053485261 -0.01789733901857562 2.8448912876194763 -0.8906146516043177
4.9198899269104 -1.47093120337043 -1.852316975593567 2.3781847196766357 -1.598581616078512 3.3406028747558594 -0.0579482248595912 -0.7227705954030825 0.5454992313249126 -0.01788930885502616 2.844892342493382 -0.8906255035147853
4.919861316680908 -1.4709639561227341 -1.8523616790771484 2.3781847196766357 -1.598614517842428 3.340613603591919 -0.0579634177031577 -0.7227691420373925 0.5454415248263592 -0.01784637475610314 2.844918486595288 -0.8905073721746776
4.919894695281982 -1.4709148195436974 -1.8523659706115723 2.3781563478657226 -1.598581616078512 3.340618133544922 -0.05795226386151364 -0.7227495966255445 0.5454675890837652 -0.01787326537800654 2.844925155377903 -0.8905395180269401
4.919887065887451 -1.4709028986147423 -1.8523898124694824 2.3781680303760986 -1.5985773245440882 3.3406152725219727 -0.05795998683664771 -0.7227408707768306 0.5454603107138558 -0.01786434272278165 2.8449315317166755 -0.8905436194592214
4.919865608215332 -1.470953495507576 -1.852341651916504 2.3781935411640625 -1.598597828541891 3.3406107425689697 -0.05796305245707967 -0.7227720841614391 0.5454661554352622 -0.01784980955532092 2.8449072853139046 -0.8905688650096428
4.9198408126831055 -1.4708985102227707 -1.8523616790771484 2.3781770902821044 -1.598609749470846 3.3405895233154297 -0.05797964916693819 -0.7227434068364417 0.5454863777541493 -0.017850958811841823 2.8448975998446833 -0.8905964266595195
4.919922351837158 -1.4709773373654862 -1.8523774147033691 2.3781680303760986 -1.5985353628741663 3.340580701828003 -0.05793095798031678 -0.7227731827594037 0.5454199857068146 -0.01794304475067559 2.845003403777316 -0.8904825978348107
4.9198899269104 -1.4709104311517258 -1.852370262145996 2.3781935411640625 -1.5985601584063929 3.3406150341033936 -0.05795952388664924 -0.7227523590587378 0.5454752532589899 -0.0178614708439402 2.844921634771156 -0.8906027918947198
4.9198689460754395 -1.4709237229875107 -1.852341651916504 2.3782054620930175 -1.5985844771014612 3.340609312057495 -0.057965288709186796 -0.7227636321608204 0.5454895466192741 -0.017851376014949388 2.8448918059154855 -0.8906316918679393
4.9198899269104 -1.4709639337709923 -1.8523674011230469 2.3781966406055908 -1.5985892454730433 3.340606212615967 -0.05794697870434233 -0.7227716552070369 0.5454403717659573 -0.01788601147429472 2.8449296123065326 -0.8905250964820737
4.9199018478393555 -1.470923775141575 -1.852385401725769 2.3781770902821044 -1.5986011664019983 3.3406269550323486 -0.057944193472719195 -0.7227509547726858 0.5454499645197449 -0.01787922235827944 2.8449100877944593 -0.8905156751073218
4.919885635375977 -1.4709854584983368 -1.8523589372634888 2.378192110652588 -1.5985963980304163 3.340618133544922 -0.057948894408117735 -0.7227804390940015 0.5454303944759096 -0.017865821836122918 2.8449329159321497 -0.8904961017267925
4.9198150634765625 -1.4709175911596795 -1.8523898124694824 2.3781770902821044 -1.598630730305807 3.3406269550323486 -0.05800091569657256 -0.7227418511098322 0.5454502057043858 -0.0177694100580909 2.8449074640015066 -0.8905194421234961
4.919887065887451 -1.470940114264824 -1.852370262145996 2.3781892496296386 -1.598642651234762 3.3405773639678955 -0.05793338883280337 -0.722759491715611 0.5454528851240253 -0.01794779658611187 2.8448853951886566 -0.8905209869891181
4.919910907745361 -1.4708940473249932 -1.8523378372192383 2.3781563478657226 -1.598602596913473 3.3406271934509277 -0.0579377016641994 -0.7227493942738765 0.5455025263540709 -0.01789419570813901 2.844871298808281 -0.8905889636718844
4.919859886169434 -1.4709475946477433 -1.8524070978164673 2.3781770902821044 -1.5986054579364222 3.340606212615967 -0.05796878623219382 -0.7227514607482066 0.5454175075286889 -0.017849929003527575 2.8449507750270646 -0.890464669787621
4.919887065887451 -1.470947654252388 -1.8524152040481567 2.3781768518635253 -1.5985725561725062 3.340601682662964 -0.0579561072825788 -0.7227519307339417 0.5454122282939864 -0.017879817265771713 2.8449768178781616 -0.8904665090705893
4.919887065887451 -1.470950448220112 -1.8523945808410645 2.378159208888672 -1.598593537007467 3.340601682662964 -0.05795056058158038 -0.7227548824461674 0.5454219347539981 -0.0178896639663224 2.8449595331450444 -0.8904554613026296
4.919906139373779 -1.4709564757398148 -1.8523502349853516 2.3781935411640625 -1.598581616078512 3.3405895233154297 -0.057933452557517695 -0.7227736336962494 0.5454586202379261 -0.01792994311465679 2.8449222688011524 -0.8905581837523622
4.9198737144470215 -1.4708656978658219 -1.8523573875427246 2.3782009321400146 -1.5986054579364222 3.3405940532684326 -0.0579593406080571 -0.7227380616799695 0.545517049637966 -0.01789046060619301 2.8448537190234324 -0.8906732534080859
4.919898986816406 -1.4709520128420372 -1.852410912513733 2.378142996425293 -1.5986068884478968 3.3405985832214355 -0.05793945623769256 -0.7227496012847552 0.5454051050773752 -0.017916489041286347 2.844967417505251 -0.8904006847072715
4.919939041137695 -1.4709475871971627 -1.8523659706115723 2.3781980711170654 -1.598586384450094 3.3405773639678955 -0.057907542723539325 -0.7227689435577866 0.5454540273277478 -0.01799604113936197 2.8449142401389067 -0.8905484181952227
4.919891357421875 -1.4709193122437973 -1.8523942232131958 2.3781768518635253 -1.5985644499408167 3.3405699729919434 -0.05794962306633964 -0.7227469413443761 0.5454489442540514 -0.017928639333872058 2.8449593524812444 -0.8905425539989564
4.9198689460754395 -1.4710017380169411 -1.8523083925247192 2.3781606394001464 -1.5986350218402308 3.340639114379883 -0.05795338700990049 -0.7227922771621129 0.5454496047330899 -0.017830406955910365 2.8448988360534098 -0.8904782055294855
4.919869899749756 -1.4709206831506272 -1.8523502349853516 2.3782266813465576 -1.5985892454730433 3.3405685424804688 -0.05795558130421373 -0.7227628332912377 0.5454903983374063 -0.017913004280518955 2.8448879076428253 -0.8906581679477735
4.919874668121338 -1.4709728148630639 -1.85239839553833 2.378142996425293 -1.598602596913473 3.3406028747558594 -0.05795665725670499 -0.7227587796743014 0.5454000849056844 -0.017873662017528907 2.8449813313338206 -0.8903958225087658
4.9198899269104 -1.4709772405079384 -1.8523589372634888 2.3781606394001464 -1.598597828541891 3.3405773639678955 -0.05793885993643751 -0.7227729349106834 0.5454311606551687 -0.017930557343849796 2.8449547929350847 -0.8904712313413253
4.919861316680908 -1.470947579746582 -1.8523459434509277 2.3781563478657226 -1.598602596913473 3.3405728340148926 -0.05795922870742078 -0.7227630368114423 0.5454607940421385 -0.017899574201717207 2.844935604620617 -0.890526778675618
4.919917583465576 -1.4709312257221718 -1.8523746728897095 2.3781892496296386 -1.598609749470846 3.3405940532684326 -0.057922959275859984 -0.7227581311267867 0.5454560362231563 -0.017952533093667525 2.844897438789824 -0.8905352605271704
4.919852256774902 -1.4709564459374924 -1.8523459434509277 2.3781847196766357 -1.5986226240741175 3.3405745029449463 -0.05796016934720272 -0.7227690222373586 0.5454596143100274 -0.01789346539687084 2.844909267237934 -0.8905438145495076
4.919845104217529 -1.4708910298398514 -1.8523589372634888 2.378142758006714 -1.5985563437091272 3.3405654430389404 -0.057985194416466 -0.7227381310308072 0.5454889901363528 -0.017866998051355647 2.84496060924109 -0.890596456362715
4.919869899749756 -1.4709104311517258 -1.8523731231689453 2.378131075496338 -1.5986173788653772 3.3405985832214355 -0.05795959127590225 -0.7227402170792785 0.5454600184800291 -0.017881851622026244 2.8449245013501603 -0.8904914136805754
4.919878005981445 -1.4709898319891472 -1.852368712425232 2.378192110652588 -1.598564926777975 3.3405611515045166 -0.057950452437056786 -0.7227794041332467 0.5454224271167357 -0.017921445008749308 2.8449830969581322 -0.8905067695501715
4.919922351837158 -1.470943146651127 -1.852402687072754 2.3781637388416748 -1.5985773245440882 3.340613603591919 -0.057931919534142964 -0.7227535844604682 0.5454218040891086 -0.017915467069079056 2.8449583916578884 -0.8904598013078471
4.919878005981445 -1.4709058192423363 -1.8523168563842773 2.3781680303760986 -1.5986302534686487 3.3406195640563965 -0.05795146034329812 -0.7227574604295544 0.5455120355862948 -0.01787124023689361 2.8448462534829 -0.8906102921353981
4.919849872589111 -1.4710061711123963 -1.852406620979309 2.3781561094471435 -1.598609749470846 3.3406269550323486 -0.05797530048372249 -0.7227691505220913 0.5453723322245831 -0.017806449750157105 2.8449938538855046 -0.8903539268210843
4.919885635375977 -1.4709312331727524 -1.852381706237793 2.3781518179127197 -1.5986064116107386 3.3406107425689697 -0.05795144104724212 -0.7227497730249071 0.5454430081494965 -0.017881340224235275 2.8449318612925474 -0.8904802092113586
4.919919967651367 -1.4709400919130822 -1.852370262145996 2.3781935411640625 -1.598593537007467 3.3406360149383545 -0.057932187143696634 -0.7227640158491978 0.5454531891758756 -0.017888714214440438 2.8448999873451934 -0.8905349384513365
4.919845104217529 -1.470968359415867 -1.8523502349853516 2.378185911769531 -1.5986345450030726 3.3405728340148926 -0.05796161126515176 -0.7227716467439621 0.5454480755731367 -0.017890701401521998 2.84491114843971 -0.890519013981342
4.919922351837158 -1.4709608045271416 -1.8522969484329224 2.3781606394001464 -1.5986064116107386 3.3406360149383545 -0.05792311859952867 -0.7227842550059872 0.5454875137935014 -0.017899018306524125 2.844876487134819 -0.8905539161063818
4.919856548309326 -1.4709356662682076 -1.852385401725769 2.3781768518635253 -1.5986269156085413 3.3405818939208984 -0.05796133114637288 -0.7227513010502951 0.5454423634191035 -0.017890438436038582 2.844919323428736 -0.8905035144325091
4.9199018478393555 -1.4709595379284401 -1.852368712425232 2.3781561094471435 -1.5985773245440882 3.3405730724334717 -0.05793597594789933 -0.7227648607687939 0.5454358235759076 -0.017944436863288116 2.8449673027469724 -0.8904852526547598
4.9199018478393555 -1.470928156082966 -1.85239839553833 2.3781606394001464 -1.5985692183123987 3.3405864238739014 -0.057944188382744316 -0.7227475538912306 0.545435876718641 -0.017921812902074657 2.844966835577335 -0.890495334616988
4.919861316680908 -1.470910334294178 -1.8523941040039062 2.3781606394001464 -1.5985806624041956 3.3405728340148926 -0.057969321709394867 -0.7227394003758384 0.5454516385635346 -0.017889344804254134 2.844957609606258 -0.8905296510320873
4.919930934906006 -1.4709564757398148 -1.852419376373291 2.3781725603291015 -1.5985806624041956 3.340606212615967 -0.057923128465755556 -0.7227558648867709 0.5454017707092154 -0.017939019642023345 2.8449684337582073 -0.8904293291601832
4.9199018478393555 -1.4709221360138436 -1.8524032831192017 2.3781966406055908 -1.5985892454730433 3.3405685424804688 -0.057935882539397535 -0.7227483937194066 0.5454434184506881 -0.01795673745053126 2.8449319665369046 -0.8905381601289828
4.919827461242676 -1.470907287006714 -1.852410912513733 2.3781770902821044 -1.598560635243551 3.340618133544922 -0.058007919104028166 -0.7227356550742652 0.5454433885240246 -0.01776741001267695 2.8449701599799933 -0.8905417768282266
4.919898986816406 -1.4709595006755372 -1.8524194955825806 2.3782099920460205 -1.5985892454730433 3.3405985832214355 -0.05794156915054345 -0.7227598534314292 0.5454068824961962 -0.017908647355395105 2.844950476845509 -0.8904787684234308
4.9198408126831055 -1.470935658817627 -1.8523774147033691 2.3781472879597167 -1.5985563437091272 3.3405745029449463 -0.057987577914767524 -0.7227501058340446 0.5454445979871183 -0.01784643257662127 2.8449959188053144 -0.8905168269249202
4.919885635375977 -1.470902906065323 -1.8523616790771484 2.3781770902821044 -1.598593537007467 3.3405940532684326 -0.057951487421160366 -0.7227480711478729 0.5454835826558561 -0.017900705441050838 2.8449007856456427 -0.890589412204242
4.919856548309326 -1.4709520202926178 -1.8523774147033691 2.3781725603291015 -1.5986011664019983 3.340606212615967 -0.057970440243644554 -0.7227594552472458 0.5454361022726119 -0.017843840809810874 2.8449422417540684 -0.8904954590342234
4.919856548309326 -1.470905789440014 -1.8523248434066772 2.3781606394001464 -1.5986302534686487 3.3405818939208984 -0.0579601367384905 -0.7227528384343562 0.5455056989086239 -0.017894124663580667 2.8448704419550928 -0.8906013838941494
4.919910907745361 -1.4709564831903954 -1.8523292541503906 2.3781518179127197 -1.5986183325396937 3.3405895233154297 -0.05792172142987195 -0.7227722313344793 0.5454654618011909 -0.017953591889223776 2.844903820632722 -0.8905095560932789
4.919876575469971 -1.4709192973426362 -1.8523545265197754 2.3781637388416748 -1.598609749470846 3.340618133544922 -0.05795788203730819 -0.7227531240113461 0.5454738822045492 -0.017860567045092163 2.8448980738006795 -0.8905473535724849
4.919885635375977 -1.4709312182715912 -1.852406620979309 2.378159208888672 -1.598593537007467 3.3405864238739014 -0.05795063388949921 -0.7227448747527913 0.5454266538627998 -0.017909541259562886 2.8449591370862746 -0.890468434424013
4.919845104217529 -1.4709132400206109 -1.852410912513733 2.3781768518635253 -1.5986054579364222 3.3405611515045166 -0.0579733404335945 -0.722736868736384 0.5454398046700999 -0.017893868406214493 2.8449467102051424 -0.8905172539953676
4.919910907745361 -1.470923737888672 -1.852363109588623 2.3781561094471435 -1.598593537007467 3.340606212615967 -0.05793468993597318 -0.7227539030332051 0.545463569302681 -0.017918546464587685 2.8449180267121563 -0.890523821090621
4.919865608215332 -1.4709445175579567 -1.85233736038208 2.3781680303760986 -1.598597828541891 3.3405940532684326 -0.05796087806578422 -0.7227662262821647 0.5454711736685727 -0.01787368659868988 2.844918807074154 -0.8905556483592993
4.91991662979126 -1.4709118169597168 -1.8523459434509277 2.3781680303760986 -1.598597828541891 3.340630292892456 -0.057934037133461166 -0.7227558882416479 0.5454863393952404 -0.017895187019966095 2.8448818104811524 -0.8905707374771415
4.9198408126831055 -1.470968411569931 -1.85237455368042 2.3781725603291015 -1.5985491911517542 3.340622663497925 -0.057995449067355126 -0.7227666935640922 0.5454276498687476 -0.01777405954957545 2.8449930678598903 -0.8905049777300476
4.9198899269104 -1.4708985102227707 -1.8524223566055298 2.3782009321400146 -1.5985692183123987 3.3405849933624268 -0.05795490377727661 -0.7227360351556262 0.5454462549557801 -0.01790740906176894 2.844941926245841 -0.8905598881838663
4.9198899269104 -1.470943146651127 -1.8523616790771484 2.3781847196766357 -1.5986021200763147 3.3406269550323486 -0.057949733667848294 -0.722763873440982 0.545455899072725 -0.017862901095706533 2.844904999152012 -0.8905336451631339
4.919887065887451 -1.4709267926267167 -1.8523746728897095 2.378192110652588 -1.5986021200763147 3.3405699729919434 -0.05794224423547264 -0.7227550965673253 0.545460579357579 -0.017940129078717656 2.844912892871539 -0.8905599894394536
4.919906139373779 -1.4709267926267167 -1.8523731231689453 2.3781637388416748 -1.5986140410052698 3.3406107425689697 -0.0579344757411481 -0.7227528523106065 0.5454547214650973 -0.017914384553692927 2.8449048879304124 -0.8905056038204123
4.919849872589111 -1.470947579746582 -1.8523292541503906 2.378180428142212 -1.5985892454730433 3.3405895233154297 -0.05797233039764575 -0.7227702234610063 0.5454779339005893 -0.0178541129678007 2.844920207014577 -0.8905877380152162
4.919856548309326 -1.470968337064125 -1.8523616790771484 2.3781725603291015 -1.5985892454730433 3.3405895233154297 -0.05796781944418912 -0.7227691750125148 0.5454374463232252 -0.01786217066708028 2.8449563431695677 -0.8905043714557899
4.919882297515869 -1.4709312257221718 -1.852341651916504 2.3781561094471435 -1.5986183325396937 3.340606212615967 -0.057948102408168986 -0.7227593766391768 0.5454739854276599 -0.017889537357916416 2.8448965935529973 -0.8905349804358781
4.919869899749756 -1.4709357109716912 -1.8524022102355957 2.3781606394001464 -1.5985892454730433 3.340613603591919 -0.05796774474523488 -0.7227472563682708 0.5454264397677535 -0.01784653569321811 2.8449593119885845 -0.8904702782979409
4.919894218444824 -1.4709148716977616 -1.8523774147033691 2.3781892496296386 -1.598597828541891 3.3406314849853516 -0.05795129453634701 -0.7227510553232093 0.5454645096607894 -0.017860951366382757 2.8448957106871218 -0.8905571436955959
4.919882297515869 -1.4709639337709923 -1.8523859977722168 2.3781561094471435 -1.5985520521747034 3.3406269550323486 -0.05796701641207943 -0.7227624846522032 0.5454187076607195 -0.01782787176711361 2.844993387300367 -0.8904628526405939
4.919896125793457 -1.4709312257221718 -1.852385401725769 2.3781563478657226 -1.5985563437091272 3.340622663497925 -0.057957609729958254 -0.7227516246350032 0.5454419694367071 -0.017856432818345876 2.8449665176551626 -0.8905037285055244
4.919873237609863 -1.4709193047932168 -1.8523529767990112 2.3782266813465576 -1.5985692183123987 3.340580701828003 -0.05796034301257248 -0.7227625707175498 0.5454894103414455 -0.017891281870905853 2.8449012516090546 -0.890663989292098
4.919861316680908 -1.4709639486721535 -1.852410912513733 2.3781935411640625 -1.598564926777975 3.3405864238739014 -0.05797155722155686 -0.7227595879836555 0.545408034740985 -0.017861331899861128 2.8449905775932502 -0.890485078889684
4.919878005981445 -1.4709548962167283 -1.8523082733154297 2.3781518179127197 -1.598564926777975 3.3405773639678955 -0.05795422900002428 -0.7227761032876101 0.5454841005212175 -0.017900432537825656 2.8449447834821386 -0.890577419955937
4.919887065887451 -1.4709683668664475 -1.8523248434066772 2.3781518179127197 -1.5985491911517542 3.3405940532684326 -0.05795437633894486 -0.7227780943754478 0.545462089882898 -0.017881612841251747 2.844969856632285 -0.8905403826312932
4.919864654541016 -1.470905789440014 -1.8523731231689453 2.3781606394001464 -1.598560635243551 3.3406269550323486 -0.05798139110179244 -0.7227441855780706 0.5454695439070307 -0.01780855508602778 2.844944101205868 -0.8905632699882077
4.9198408126831055 -1.470947579746582 -1.852381706237793 2.378185911769531 -1.5985773245440882 3.3406107425689697 -0.057988301941078124 -0.7227584613563187 0.5454389915488436 -0.01780430348408905 2.8449563281097596 -0.8905286342241409
4.919832706451416 -1.470919282441475 -1.8524352312088013 2.3781680303760986 -1.5985849539386194 3.3405685424804688 -0.05798942190782858 -0.7227319238594745 0.5454157749762284 -0.017855542211238837 2.84498912772775 -0.8904765612912434
4.919865608215332 -1.4708893981627007 -1.8523859977722168 2.3781651693531494 -1.598597828541891 3.340655565261841 -0.05797969925655873 -0.7227352473451072 0.5454703235675441 -0.017786222240166037 2.844901674481595 -0.890548308448972
4.91990327835083 -1.4709854286960145 -1.8523941040039062 2.3781563478657226 -1.5986183325396937 3.340580701828003 -0.05792653001691113 -0.7227670960671342 0.5453974353077625 -0.017952957761442578 2.8449633853695886 -0.890392915466997
4.9198689460754395 -1.4709476095489045 -1.8523774147033691 2.3781725603291015 -1.598593537007467 3.3406107425689697 -0.0579644292479839 -0.7227588628571933 0.5454392206167159 -0.01785164626688531 2.8449413987106267 -0.890502113226377
4.919882297515869 -1.470947616999485 -1.8523502349853516 2.3781892496296386 -1.598560635243551 3.3406028747558594 -0.05795884117513339 -0.722769237896846 0.5454640594639465 -0.017867692578383707 2.844939462829822 -0.8905776263406988
4.919887065887451 -1.4709312331727524 -1.852385401725769 2.3781768518635253 -1.598609749470846 3.3406436443328857 -0.05795567941724564 -0.7227526884917812 0.5454440255376873 -0.01783816695800699 2.844907678261763 -0.890500357891461
4.919858455657959 -1.4709719356945534 -1.8523855209350586 2.3781606394001464 -1.5985687414752405 3.3406271934509277 -0.05797977921108338 -0.7227642359530111 0.5454139712432521 -0.01780109822080145 2.8449878138156857 -0.8904545853144551
4.919882297515869 -1.4709684264710923 -1.8523573875427246 2.3781966406055908 -1.5985563437091272 3.3405773639678955 -0.057953393473032064 -0.722775774776523 0.5454464846605241 -0.017901422659921756 2.844961935560959 -0.890557372967064
4.919861316680908 -1.4709104311517258 -1.852370262145996 2.3781935411640625 -1.5986130873309534 3.3405985832214355 -0.05796498042592184 -0.7227490564187593 0.5454744494888422 -0.017868333504547695 2.8448899540028685 -0.8905833807438309
4.919908046722412 -1.470947579746582 -1.8523746728897095 2.3781561094471435 -1.5985773245440882 3.3406028747558594 -0.05793857701043334 -0.7227598784724141 0.5454387426792096 -0.01791095572380285 2.8449547602808916 -0.8904861698833859
4.919887065887451 -1.470972829764225 -1.8523659706115723 2.3781561094471435 -1.5986064116107386 3.3405773639678955 -0.05793979402868647 -0.7227686566819864 0.5454278165458015 -0.01793028930459966 2.8449529687877364 -0.8904575787883721
4.919878005981445 -1.470947579746582 -1.8524069786071777 2.3781847196766357 -1.598560635243551 3.340592861175537 -0.057962989138331034 -0.7227546467796194 0.5454205868597739 -0.017874364049614486 2.8449810102550894 -0.8904981871997548
4.919861316680908 -1.4709267926267167 -1.8523616790771484 2.3781606394001464 -1.5986140410052698 3.340606212615967 -0.05796547337981942 -0.7227525188346817 0.5454629080884226 -0.017857413334983984 2.8449124337668863 -0.8905265955529205
4.919865608215332 -1.470897027557232 -1.8523859977722168 2.3781725603291015 -1.5985773245440882 3.340601682662964 -0.057972936877388886 -0.7227389041431953 0.5454685645861898 -0.017853493311315218 2.8449315904716705 -0.8905696858002399
4.919865608215332 -1.4709192600897332 -1.852402687072754 2.3781847196766357 -1.5985892454730433 3.3406600952148438 -0.057980645618887786 -0.7227448636105307 0.5454408205445223 -0.017774852527165524 2.8449244207448765 -0.8905157964307545
4.919845104217529 -1.4709444728544732 -1.8524112701416016 2.3781680303760986 -1.5986064116107386 3.3405985832214355 -0.05797843208209881 -0.7227471364557834 0.5454149626633048 -0.017840115601618925 2.844961921295083 -0.8904549933556921
4.919846534729004 -1.4708985102227707 -1.8523941040039062 2.3781518179127197 -1.5986021200763147 3.3406074047088623 -0.05798309005394249 -0.722732940408716 0.5454565878244203 -0.017829097426048764 2.8449337095943203 -0.8905182379219331
4.919861316680908 -1.4709148716977616 -1.8523941040039062 2.3781725603291015 -1.598532501851217 3.3405864238739014 -0.0579822481079671 -0.7227441275604827 0.5454515774769056 -0.01784806641380157 2.8449890063948797 -0.8905627093294923
4.9198408126831055 -1.470926822429039 -1.852381706237793 2.3782099920460205 -1.5985406080829065 3.3405864238739014 -0.05799272542627178 -0.7227550636754352 0.5454597345298556 -0.01782296647347124 2.8449643843161154 -0.8906134430473989
4.9198689460754395 -1.4708821561983605 -1.8523502349853516 2.3781606394001464 -1.5986345450030726 3.3405163288116455 -0.0579403248770899 -0.7227381500108134 0.5455047752331084 -0.01800700979695025 2.8448806874419583 -0.8906072782001868
4.919878005981445 -1.470935658817627 -1.8523659706115723 2.3782099920460205 -1.5985448996173304 3.3405985832214355 -0.0579658089164471 -0.7227641678051979 0.5454650244160368 -0.017860630151205252 2.8449439949171804 -0.8906106197901699
4.919878005981445 -1.4709595006755372 -1.8523205518722534 2.3781308370777587 -1.5985730330096644 3.3405940532684326 -0.05795652424863723 -0.7227719142776999 0.5454668324801671 -0.01787973764991645 2.8449575583882587 -0.8905188311717057
4.919878005981445 -1.4708985102227707 -1.8523616790771484 2.3781847196766357 -1.5985901991473597 3.3405895233154297 -0.057956990525630234 -0.7227471406640804 0.5454883410677046 -0.017894976366598925 2.844899151410506 -0.8906097930867789
4.9198689460754395 -1.4708821561983605 -1.8523941040039062 2.3781725603291015 -1.598553482686178 3.3405895233154297 -0.057975042657324755 -0.7227323595338175 0.5454737185320607 -0.01786487173167698 2.8449488812482233 -0.8905932976043863
4.919878005981445 -1.4709475648454209 -1.852363109588623 2.3781072336384277 -1.598597828541891 3.3405940532684326 -0.0579546015471881 -0.7227535581674736 0.5454377438841921 -0.01789002456766796 2.844970933667085 -0.8904326287385476
4.919906139373779 -1.4708940771273156 -1.8523859977722168 2.3781606394001464 -1.5985563437091272 3.3405940532684326 -0.05794741677664189 -0.7227390566120975 0.5454690350598116 -0.017912369583086077 2.8449455027597566 -0.8905623068937855
4.919878005981445 -1.4709595006755372 -1.8524069786071777 2.3781606394001464 -1.5986388365374964 3.340585231781006 -0.05794353364304564 -0.7227533764042332 0.5454059258955265 -0.01792029432603455 2.8449414171289478 -0.8904093681880274
4.919882297515869 -1.4709564459374924 -1.8523502349853516 2.3781725603291015 -1.598597828541891 3.3406646251678467 -0.05796239611061723 -0.7227698186808549 0.5454519222385656 -0.017796310918182203 2.8449100019753293 -0.8905111140256005
4.919852256774902 -1.470914864247181 -1.8523941040039062 2.3781308370777587 -1.5985730330096644 3.3405685424804688 -0.057977192000965086 -0.7227365777920478 0.5454430007917084 -0.017878731329805067 2.8449883918663468 -0.8904901641166247
4.9199018478393555 -1.4709475946477433 -1.852381706237793 2.3781279760548095 -1.5986064116107386 3.3406152725219727 -0.05794002149187717 -0.722753345540184 0.545426855317883 -0.017897297173305907 2.8449514012452912 -0.8904220038687689
4.919922351837158 -1.4709445548108597 -1.8524223566055298 2.3781770902821044 -1.5985563437091272 3.340585231781006 -0.05793161529271152 -0.7227514384931145 0.5454099066706749 -0.017945903673101175 2.844987201206688 -0.8904663337992461
4.919849872589111 -1.470968374317028 -1.85239839553833 2.3781561094471435 -1.5985448996173304 3.340606212615967 -0.05798827744841045 -0.7227591697248162 0.5454070366236741 -0.01780765232913437 2.845023110576993 -0.8904546088263663
4.919878005981445 -1.4709267628243943 -1.852333426475525 2.3781398969837646 -1.598581616078512 3.3406314849853516 -0.05796483766432747 -0.7227585951718001 0.5454802973794226 -0.01783092199104696 2.84492360168953 -0.8905456975422213
4.919922351837158 -1.470935621564724 -1.8523545265197754 2.3781518179127197 -1.5985773245440882 3.340580701828003 -0.0579238361105975 -0.7227604177558932 0.5454621185742737 -0.01796363802579968 2.8449391169234195 -0.8905250810509264
4.919894695281982 -1.4709816885045548 -1.8523746728897095 2.3781518179127197 -1.5985773245440882 3.340639114379883 -0.057952946540521966 -0.7227711149697087 0.5454131117722811 -0.017839472558817016 2.844973278620745 -0.8904300233610597
4.919885635375977 -1.4708866041949769 -1.852370262145996 2.3781680303760986 -1.5985448996173304 3.3405818939208984 -0.05796198401267166 -0.7227401499743572 0.5454882126908573 -0.017896000541835485 2.844944124570037 -0.890616049042883
4.919828414916992 -1.470947579746582 -1.852410912513733 2.3781935411640625 -1.5985620657550257 3.34059739112854 -0.05799937162675729 -0.7227520486411008 0.5454191593378586 -0.017798076872982196 2.844988641113058 -0.8905129551651865
4.919930934906006 -1.4709652301720162 -1.8523573875427246 2.3781606394001464 -1.598597828541891 3.340601682662964 -0.05791483914920579 -0.7227716845284952 0.5454399592529668 -0.017954538824319622 2.8449298354388697 -0.890476488767108
4.9198689460754395 -1.470935658817627 -1.852370262145996 2.3781980711170654 -1.598609749470846 3.3406314849853516 -0.05796471386569917 -0.7227595987689969 0.5454568921341278 -0.017830200756858663 2.8448955964318 -0.8905493328296162
4.919943332672119 -1.4709595528296013 -1.85233736038208 2.3781561094471435 -1.5986226240741175 3.3405685424804688 -0.05789324542994182 -0.7227734829373464 0.5454585524403962 -0.018031246230202923 2.844901269521137 -0.8904957524317452
4.9198899269104 -1.470935658817627 -1.8523011207580566 2.3781801897236328 -1.5985773245440882 3.3405654430389404 -0.05794078163330399 -0.7227750379825809 0.5455084624070295 -0.017940911805710297 2.8449006049749768 -0.8906444414663555
4.919861316680908 -1.4709073838642617 -1.8524022102355957 2.3782054620930175 -1.5985849539386194 3.3405940532684326 -0.05797199872477713 -0.7227426630511162 0.545455549461046 -0.01786134659492445 2.8449245607582028 -0.8905765801174806
4.9198479652404785 -1.4709312257221718 -1.8523731231689453 2.3781398969837646 -1.5986054579364222 3.3405773639678955 -0.05797216787161588 -0.7227476456373192 0.5454482012525023 -0.01787502750408594 2.8449525133890003 -0.8904903020355386
4.919891357421875 -1.470935658817627 -1.8523731231689453 2.3781441885181884 -1.5985644499408167 3.3406360149383545 -0.05796121817382584 -0.7227541453114119 0.5454452100019807 -0.017834426498420174 2.8449605451952205 -0.890491846802752
4.919897556304932 -1.4709445250085373 -1.8523459434509277 2.3781892496296386 -1.5985730330096644 3.340622663497925 -0.057948926023862146 -0.7227699411694457 0.5454685624893761 -0.017867024009731537 2.844916029637739 -0.8905739506740883
4.919891357421875 -1.4709595006755372 -1.8523731231689453 2.3781279760548095 -1.5986021200763147 3.3406107425689697 -0.05794635198736477 -0.7227591052067937 0.5454253081869839 -0.01788680666520222 2.8449607775442165 -0.890422816336348
4.91990327835083 -1.4709504556706925 -1.8523168563842773 2.3781935411640625 -1.5986388365374964 3.3405818939208984 -0.057919812597513595 -0.7227776558403608 0.545486879440495 -0.017963788948213714 2.844853799406337 -0.8905825404616102
4.919845104217529 -1.4709267926267167 -1.8523377180099487 2.3781935411640625 -1.5986021200763147 3.3406152725219727 -0.05797958848505419 -0.7227622461050556 0.5454874575666885 -0.017816958136191736 2.8448890026477573 -0.890610896152628
4.919836044311523 -1.470989817087986 -1.852381706237793 2.3781561094471435 -1.5986021200763147 3.340655565261841 -0.057992616096109 -0.7227690310842049 0.5454018798455098 -0.01774364152181519 2.844971112809214 -0.8904105233723469
4.919856548309326 -1.4709118169597168 -1.8523731231689453 2.3781606394001464 -1.5985730330096644 3.3405895233154297 -0.05797660539234638 -0.7227450843608024 0.5454661648576703 -0.017855830324977232 2.8449489130461822 -0.8905575653318074
4.9198899269104 -1.4709683668664475 -1.85233736038208 2.3781606394001464 -1.598593537007467 3.3406107425689697 -0.05794597961389207 -0.722775449772659 0.5454527596696168 -0.017881849532697086 2.844931303526375 -0.8905078151782454
4.919919967651367 -1.4709520128420372 -1.8523746728897095 2.3781606394001464 -1.598597828541891 3.3406314849853516 -0.057930520636343644 -0.7227625460058958 0.5454351888050233 -0.01789640923497992 2.8449280054538186 -0.8904672896183088
4.9198689460754395 -1.4709728521159668 -1.8523774147033691 2.3781441885181884 -1.5985849539386194 3.340590715408325 -0.05796127678728935 -0.7227639901491496 0.545416951879389 -0.017875366409753846 2.8449863859862896 -0.8904385601327004
4.919912338256836 -1.4709639337709923 -1.8523445129394531 2.3781518179127197 -1.5985363165484827 3.3406360149383545 -0.05794864345112754 -0.7227741146919211 0.5454493615330048 -0.01785151760683593 2.8449730829427455 -0.8905134745345101
4.919885635375977 -1.4709639859250565 -1.852333426475525 2.3781937795826416 -1.598625961934225 3.3406107425689697 -0.05794100259997341 -0.7227782195136291 0.5454644409996707 -0.01789101455815698 2.8448804308496767 -0.89054709760748
4.919856548309326 -1.4709564459374924 -1.8523616790771484 2.3781637388416748 -1.598597828541891 3.340606212615967 -0.057970291813368 -0.722763689567351 0.5454432898671299 -0.017842533782421663 2.8449433708386347 -0.8905005593673931
4.919887065887451 -1.470894069676735 -1.8523731231689453 2.3781441885181884 -1.5986302534686487 3.340547800064087 -0.057935124625691684 -0.7227362121897656 0.5454751456832685 -0.017984951097606568 2.8449036062469064 -0.8905308293399429
4.919887065887451 -1.470935658817627 -1.852381706237793 2.3781935411640625 -1.5986345450030726 3.3406107425689697 -0.05794261736786995 -0.7227563643573168 0.5454473670003124 -0.01789643433736081 2.8448856169183783 -0.8905150977776413
4.919915199279785 -1.470968411569931 -1.8523774147033691 2.378169460887573 -1.598609749470846 3.340625762939453 -0.05792882453094153 -0.7227682741284961 0.5454233096760462 -0.017902798141037277 2.844927368194798 -0.8904491498636422
4.9198899269104 -1.4709854584983368 -1.852402687072754 2.3781725603291015 -1.5985520521747034 3.340590715408325 -0.0579531623196724 -0.7227684266952331 0.5453954017634283 -0.01788949323304622 2.8450137615051028 -0.8904393428381948
4.919894218444824 -1.4709595006755372 -1.8523659706115723 2.3781518179127197 -1.598609749470846 3.3405985832214355 -0.0579391663347017 -0.7227638890519799 0.5454355351674482 -0.01791205436827703 2.8449376295853117 -0.8904622908087444
4.919898986816406 -1.4709564757398148 -1.8523731231689453 2.3781768518635253 -1.598609749470846 3.3405818939208984 -0.057932359958487875 -0.7227645957479121 0.5454376002361923 -0.017942712639972234 2.8449275652865316 -0.8904928249705194
4.919939041137695 -1.4709400844625016 -1.852411150932312 2.3781472879597167 -1.5985892454730433 3.3405895233154297 -0.05791350013478183 -0.7227485719444859 0.5454147550451919 -0.01797861194790399 2.8449636665890634 -0.8904254718191592
4.9198899269104 -1.4709073689631005 -1.852333426475525 2.3781680303760986 -1.5986302534686487 3.3405282497406006 -0.057925548982687244 -0.7227536555476188 0.5455011463820335 -0.018017747021710523 2.844876501915347 -0.8906017067151005
4.919861316680908 -1.4709728372148057 -1.8523731231689453 2.3781561094471435 -1.598581616078512 3.3406314849853516 -0.05797506362571976 -0.7227667725490087 0.5454213960162821 -0.017805164771268728 2.844971200742852 -0.890455613130167
4.919915199279785 -1.4709564459374924 -1.8523248434066772 2.378192110652588 -1.5986140410052698 3.3406481742858887 -0.057929888894794015 -0.7227798390954001 0.5454750261717758 -0.017874689272625616 2.844864414914443 -0.8905596007667366
4.919854164123535 -1.470947616999485 -1.852402687072754 2.3781441885181884 -1.5985406080829065 3.3405773639678955 -0.0579825333186067 -0.7227491335959351 0.5454168665315112 -0.017853192026948076 2.845029597576696 -0.8904678476755719
4.919887065887451 -1.4709683668664475 -1.8523255586624146 2.3781935411640625 -1.598609749470846 3.3406150341033936 -0.05794376032508737 -0.722782212249311 0.5454675672230413 -0.017879645997139794 2.8448902016222686 -0.8905590086794353
4.9198431968688965 -1.4709520128420372 -1.852333426475525 2.3781561094471435 -1.5986140410052698 3.340585231781006 -0.05797121898357789 -0.7227663666098981 0.5454664828547898 -0.017861586524418632 2.844923120069875 -0.8905323218353709
4.9198479652404785 -1.4709728074124833 -1.85239839553833 2.3781472879597167 -1.598560635243551 3.340606212615967 -0.057985996678709795 -0.7227590042699246 0.545401852058713 -0.017811911286689523 2.8450189806811035 -0.8904287223132652
4.9198689460754395 -1.470923737888672 -1.8523659706115723 2.3782054620930175 -1.598553482686178 3.3406107425689697 -0.057973824933341904 -0.7227586791127552 0.5454718590175256 -0.01783461022176943 2.8449318092858595 -0.8906153228548549
4.919878005981445 -1.470948965554573 -1.852406620979309 2.3781770902821044 -1.5985692183123987 3.34059739112854 -0.057962020143772636 -0.7227540028513326 0.5454180636205037 -0.01787172493018894 2.8449782650238 -0.8904810350036324
4.919939041137695 -1.4708910298398514 -1.852370262145996 2.378178520793579 -1.5985806624041956 3.340606212615967 -0.05791949001854361 -0.7227455643036723 0.5454855796063957 -0.01795350848100363 2.8448915235380867 -0.8905896515574045
4.919869899749756 -1.4709193047932168 -1.8523659706115723 2.3781606394001464 -1.5985892454730433 3.340618133544922 -0.057968011289197874 -0.7227501370629276 0.5454651195941624 -0.01784142982444002 2.844925525622284 -0.8905401041737382
4.919887065887451 -1.4709608864835282 -1.852341651916504 2.3781472879597167 -1.5986388365374964 3.3405985832214355 -0.05793652760631665 -0.7227683780906251 0.545451370816756 -0.017915674097230216 2.844904353012958 -0.8904728355687667
4.919882297515869 -1.4709928643754502 -1.8523616790771484 2.3781606394001464 -1.5985563437091272 3.3406314849853516 -0.05796341700233496 -0.7227791859459958 0.5454176258029608 -0.017823301168877297 2.8449888610584315 -0.8904595548120476
4.919906139373779 -1.4709564459374924 -1.8523774147033691 2.3781561094471435 -1.5986183325396937 3.3405447006225586 -0.05791867216342246 -0.7227604620748684 0.5454312349107113 -0.018009452594602862 2.8449431434919936 -0.8904605288045386
4.919898986816406 -1.470935658817627 -1.8523616790771484 2.3782099920460205 -1.5986021200763147 3.3406643867492676 -0.057950471185330754 -0.7227656220064648 0.5454649107491096 -0.017822886294717115 2.8448733633286962 -0.8905685129504528
4.9198479652404785 -1.470951997940876 -1.852329134941101 2.3781518179127197 -1.5985577742206019 3.34059739112854 -0.05798279630793206 -0.7227687640350617 0.5454699164799937 -0.01782551285989267 2.8449647242482357 -0.8905591071430178
4.9198317527771 -1.470928170984127 -1.8523573875427246 2.3781515794941406 -1.5985892454730433 3.3405656814575195 -0.05798436400020408 -0.7227512868804465 0.5454652447332126 -0.017861834789182747 2.8449538869878164 -0.8905454957559897
4.919894695281982 -1.4709445026567955 -1.8523616790771484 2.3782054620930175 -1.598564926777975 3.3405773639678955 -0.05794426572101994 -0.7227678999194559 0.5454613812549942 -0.01792352022342302 2.844934102263 -0.8905885733042169
4.919882297515869 -1.4709400993636628 -1.8523575067520142 2.3781935411640625 -1.598597828541891 3.3405685424804688 -0.0579444700451129 -0.7227639754500961 0.545464735943589 -0.017933551944455478 2.84491469038389 -0.8905706264943526
4.919873237609863 -1.4709237229875107 -1.8523589372634888 2.3781279760548095 -1.5985901991473597 3.3405895233154297 -0.05795990244845109 -0.7227487645933274 0.5454618363026831 -0.017887125852699776 2.8449493085676023 -0.8905041318326427
4.919846534729004 -1.470952035193779 -1.8523292541503906 2.3781680303760986 -1.5985944906817835 3.3405773639678955 -0.057971148368862406 -0.7227696385346967 0.5454726560376026 -0.017868849021326152 2.844930152030806 -0.8905653210804458
4.919865608215332 -1.4709684041193505 -1.8523377180099487 2.3781847196766357 -1.5985687414752405 3.3405940532684326 -0.057965254931100704 -0.7227777398483921 0.5454582550243329 -0.017859982045250043 2.844947255995463 -0.8905611312921321
4.919887065887451 -1.47095641613517 -1.8523941040039062 2.3781606394001464 -1.5985563437091272 3.3405730724334717 -0.05795281887871985 -0.7227580019242209 0.5454201857068597 -0.017913356583823595 2.844999267565694 -0.8904756076855136
4.919887065887451 -1.470935658817627 -1.852381706237793 2.3781813818165283 -1.5985448996173304 3.3405895233154297 -0.0579590273951463 -0.7227569083067884 0.5454478228879074 -0.017885749381120853 2.8449712382625476 -0.8905509519241483
4.919910907745361 -1.4709639114192505 -1.8523573875427246 2.3781561094471435 -1.5986183325396937 3.3405895233154297 -0.057922492650624866 -0.7227687293337136 0.5454398553093475 -0.017952720944409764 2.844923258691373 -0.8904675629931843
4.9198431968688965 -1.4709268149784585 -1.8523616790771484 2.3781606394001464 -1.5986064116107386 3.3405773639678955 -0.0579745986353569 -0.7227513443954692 0.5454639383967421 -0.017869276222761642 2.844930348857509 -0.8905399710898695
4.919952392578125 -1.470944495206215 -1.8523372411727905 2.3781935411640625 -1.5986183325396937 3.3405730724334717 -0.05788869867022002 -0.722773948753244 0.5454763704489899 -0.018036433683280634 2.8448688235016486 -0.8905661527999446
4.919897556304932 -1.4709519904902955 -1.8523904085159302 2.3781561094471435 -1.598597828541891 3.3405492305755615 -0.057931405647109475 -0.7227558784767795 0.5454248717882542 -0.017981257598882125 2.8449662782435765 -0.8904608459391113
4.919861316680908 -1.4709683668664475 -1.8524194955825806 2.3781606394001464 -1.598581616078512 3.340606212615967 -0.05797266062419397 -0.7227543889086415 0.5453910685257486 -0.017840120911461265 2.8450005470406183 -0.8904104379405653
4.919898986816406 -1.4709564459374924 -1.8523904085159302 2.3781353670307617 -1.598560635243551 3.340585231781006 -0.057946104542154576 -0.7227561617882098 0.5454175724730871 -0.017914801768308286 2.8450030308493455 -0.8904394217211123
4.9198689460754395 -1.4709564459374924 -1.852329134941101 2.3781606394001464 -1.598597828541891 3.3405404090881348 -0.05794675794647993 -0.7227710015506759 0.5454692593880409 -0.017954662652985388 2.844937770304948 -0.8905506992793892
4.9198899269104 -1.4709221807173272 -1.8523659706115723 2.3781725603291015 -1.5985773245440882 3.3405730724334717 -0.05794681009805146 -0.7227537463392384 0.5454670746341674 -0.017928663181443014 2.84493537021805 -0.8905636464457374
